P3
200 200
255
113 113 113 114 114 114 99 99 99 113 113 113 155 155 155 116 116 116 108 108 108 103 103 103 105 105 105 153 153 153 119 119 119 133 133 133 113 113 113 112 112 112 146 146 146 125 125 125 111 111 111 119 119 119 115 115 115 150 150 150 157 157 157 156 156 156 148 148 148 108 108 108 117 117 117 132 132 132 150 150 150 144 144 144 146 146 146 149 149 149 121 121 121 100 100 100 107 107 107 123 123 123 117 117 117 103 103 103 141 141 141 127 127 127 109 109 109 148 148 148 121 121 121 130 130 130 124 124 124 136 136 136 144 144 144 111 111 111 104 104 104 98 98 98 132 132 132 121 121 121 152 152 152 132 132 132 118 118 118 141 141 141 142 142 142 137 137 137 117 117 117 133 133 133 124 124 124 104 104 104 126 126 126 150 150 150 108 108 108 137 137 137 114 114 114 127 127 127 142 142 142 98 98 98 156 156 156 153 153 153 150 150 150 120 120 120 126 126 126 115 115 115 99 99 99 113 113 113 128 128 128 105 105 105 115 115 115 101 101 101 128 128 128 109 109 109 136 136 136 151 151 151 154 154 154 121 121 121 131 131 131 112 112 112 98 98 98 158 158 158 120 120 120 128 128 128 149 149 149 132 132 132 106 106 106 106 106 106 100 100 100 152 152 152 106 106 106 99 99 99 149 149 149 158 158 158 123 123 123 118 118 118 116 116 116 124 124 124 134 134 134 146 146 146 131 131 131 151 151 151 151 151 151 103 103 103 103 103 103 130 130 130 156 156 156 101 101 101 156 156 156 128 128 128 117 117 117 158 158 158 129 129 129 140 140 140 129 129 129 121 121 121 113 113 113 139 139 139 129 129 129 118 118 118 132 132 132 139 139 139 121 121 121 124 124 124 140 140 140 147 147 147 145 145 145 158 158 158 112 112 112 120 120 120 145 145 145 148 148 148 114 114 114 140 140 140 153 153 153 122 122 122 113 113 113 152 152 152 125 125 125 110 110 110 121 121 121 144 144 144 111 111 111 155 155 155 125 125 125 142 142 142 117 117 117 143 143 143 122 122 122 151 151 151 104 104 104 98 98 98 131 131 131 127 127 127 124 124 124 113 113 113 115 115 115 110 110 110 114 114 114 130 130 130 134 134 134 103 103 103 119 119 119 151 151 151 145 145 145 115 115 115 114 114 114 101 101 101 108 108 108 143 143 143 116 116 116 133 133 133 128 128 128 129 129 129 129 129 129 158 158 158 115 115 115 151 151 151 142 142 142 139 139 139 145 145 145 148 148 148 141 141 141 119 119 119 116 116 116 109 109 109 134 134 134 134 134 134 121 121 121 153 153 153 107 107 107 158 158 158 
158 158 158 130 130 130 152 152 152 146 146 146 147 147 147 109 109 109 149 149 149 98 98 98 154 154 154 106 106 106 133 133 133 123 123 123 138 138 138 106 106 106 124 124 124 155 155 155 100 100 100 107 107 107 137 137 137 147 147 147 98 98 98 122 122 122 107 107 107 119 119 119 133 133 133 146 146 146 157 157 157 156 156 156 140 140 140 105 105 105 157 157 157 139 139 139 139 139 139 152 152 152 128 128 128 127 127 127 104 104 104 118 118 118 129 129 129 99 99 99 127 127 127 103 103 103 127 127 127 108 108 108 113 113 113 153 153 153 104 104 104 115 115 115 104 104 104 145 145 145 105 105 105 104 104 104 108 108 108 115 115 115 127 127 127 143 143 143 104 104 104 125 125 125 143 143 143 148 148 148 134 134 134 141 141 141 130 130 130 114 114 114 137 137 137 99 99 99 145 145 145 143 143 143 119 119 119 115 115 115 147 147 147 150 150 150 123 123 123 115 115 115 99 99 99 138 138 138 111 111 111 107 107 107 158 158 158 117 117 117 155 155 155 104 104 104 126 126 126 104 104 104 123 123 123 155 155 155 152 152 152 131 131 131 124 124 124 136 136 136 120 120 120 99 99 99 120 120 120 152 152 152 118 118 118 98 98 98 155 155 155 104 104 104 146 146 146 116 116 116 124 124 124 134 134 134 107 107 107 149 149 149 151 151 151 111 111 111 130 130 130 103 103 103 120 120 120 129 129 129 125 125 125 118 118 118 138 138 138 153 153 153 125 125 125 104 104 104 151 151 151 120 120 120 138 138 138 116 116 116 158 158 158 101 101 101 120 120 120 121 121 121 156 156 156 140 140 140 124 124 124 154 154 154 148 148 148 111 111 111 111 111 111 113 113 113 147 147 147 123 123 123 105 105 105 141 141 141 136 136 136 138 138 138 148 148 148 99 99 99 110 110 110 116 116 116 120 120 120 152 152 152 110 110 110 149 149 149 98 98 98 105 105 105 110 110 110 140 140 140 123 123 123 111 111 111 143 143 143 145 145 145 136 136 136 142 142 142 128 128 128 101 101 101 138 138 138 118 118 118 116 116 116 153 153 153 135 135 135 106 106 106 117 117 117 143 143 143 151 151 151 157 157 157 124 124 124 141 141 141 100 100 100 136 136 136 98 98 98 122 122 122 130 130 130 113 113 113 114 114 114 132 132 132 120 120 120 128 128 128 113 113 113 147 147 147 141 141 141 158 158 158 136 136 136 120 120 120 144 144 144 105 105 105 124 124 124 125 125 125 127 127 127 142 142 142 119 119 119 104 104 104 151 151 151 141 141 141 151 151 151 145 145 145 141 141 141 116 116 116 
127 127 127 143 143 143 154 154 154 130 130 130 108 108 108 127 127 127 147 147 147 124 124 124 100 100 100 110 110 110 154 154 154 117 117 117 98 98 98 138 138 138 119 119 119 138 138 138 102 102 102 104 104 104 146 146 146 128 128 128 131 131 131 116 116 116 113 113 113 152 152 152 122 122 122 107 107 107 136 136 136 114 114 114 155 155 155 119 119 119 132 132 132 125 125 125 105 105 105 130 130 130 98 98 98 116 116 116 98 98 98 147 147 147 144 144 144 103 103 103 98 98 98 142 142 142 122 122 122 101 101 101 123 123 123 143 143 143 141 141 141 127 127 127 151 151 151 130 130 130 98 98 98 123 123 123 149 149 149 116 116 116 119 119 119 114 114 114 125 125 125 98 98 98 131 131 131 123 123 123 119 119 119 106 106 106 153 153 153 127 127 127 140 140 140 153 153 153 147 147 147 143 143 143 142 142 142 132 132 132 148 148 148 144 144 144 117 117 117 113 113 113 149 149 149 143 143 143 98 98 98 134 134 134 113 113 113 153 153 153 105 105 105 114 114 114 120 120 120 158 158 158 132 132 132 141 141 141 114 114 114 100 100 100 141 141 141 149 149 149 128 128 128 104 104 104 157 157 157 122 122 122 135 135 135 141 141 141 116 116 116 123 123 123 125 125 125 101 101 101 98 98 98 116 116 116 150 150 150 120 120 120 131 131 131 140 140 140 104 104 104 133 133 133 117 117 117 121 121 121 128 128 128 125 125 125 139 139 139 150 150 150 126 126 126 112 112 112 134 134 134 142 142 142 117 117 117 118 118 118 132 132 132 147 147 147 126 126 126 133 133 133 110 110 110 102 102 102 115 115 115 130 130 130 129 129 129 144 144 144 134 134 134 132 132 132 101 101 101 127 127 127 154 154 154 134 134 134 110 110 110 101 101 101 111 111 111 130 130 130 124 124 124 141 141 141 98 98 98 105 105 105 134 134 134 126 126 126 121 121 121 111 111 111 110 110 110 142 142 142 131 131 131 146 146 146 130 130 130 99 99 99 120 120 120 144 144 144 105 105 105 139 139 139 118 118 118 137 137 137 124 124 124 154 154 154 110 110 110 127 127 127 122 122 122 105 105 105 105 105 105 134 134 134 108 108 108 118 118 118 107 107 107 136 136 136 102 102 102 107 107 107 145 145 145 140 140 140 136 136 136 108 108 108 153 153 153 150 150 150 152 152 152 125 125 125 137 137 137 126 126 126 128 128 128 99 99 99 113 113 113 136 136 136 140 140 140 133 133 133 114 114 114 108 108 108 130 130 130 128 128 128 139 139 139 154 154 154 137 137 137 146 146 146 132 132 132 147 147 147 
107 107 107 143 143 143 126 126 126 111 111 111 153 153 153 113 113 113 155 155 155 132 132 132 125 125 125 149 149 149 123 123 123 118 118 118 118 118 118 103 103 103 148 148 148 148 148 148 104 104 104 103 103 103 125 125 125 149 149 149 140 140 140 143 143 143 100 100 100 112 112 112 114 114 114 141 141 141 107 107 107 153 153 153 129 129 129 143 143 143 143 143 143 140 140 140 130 130 130 111 111 111 156 156 156 124 124 124 128 128 128 152 152 152 99 99 99 155 155 155 143 143 143 126 126 126 116 116 116 102 102 102 131 131 131 106 106 106 152 152 152 140 140 140 113 113 113 121 121 121 130 130 130 155 155 155 107 107 107 134 134 134 108 108 108 126 126 126 116 116 116 120 120 120 120 120 120 149 149 149 106 106 106 105 105 105 131 131 131 138 138 138 120 120 120 128 128 128 105 105 105 150 150 150 121 121 121 106 106 106 148 148 148 107 107 107 134 134 134 105 105 105 111 111 111 107 107 107 115 115 115 107 107 107 151 151 151 132 132 132 132 132 132 122 122 122 129 129 129 143 143 143 99 99 99 141 141 141 110 110 110 117 117 117 104 104 104 133 133 133 108 108 108 113 113 113 142 142 142 143 143 143 155 155 155 105 105 105 114 114 114 102 102 102 98 98 98 137 137 137 112 112 112 148 148 148 149 149 149 151 151 151 157 157 157 101 101 101 101 101 101 114 114 114 112 112 112 154 154 154 148 148 148 148 148 148 119 119 119 120 120 120 133 133 133 120 120 120 105 105 105 145 145 145 139 139 139 111 111 111 121 121 121 151 151 151 128 128 128 106 106 106 137 137 137 125 125 125 113 113 113 153 153 153 131 131 131 113 113 113 132 132 132 145 145 145 102 102 102 124 124 124 137 137 137 103 103 103 129 129 129 140 140 140 119 119 119 144 144 144 137 137 137 110 110 110 133 133 133 158 158 158 135 135 135 109 109 109 119 119 119 142 142 142 98 98 98 102 102 102 157 157 157 121 121 121 155 155 155 127 127 127 132 132 132 134 134 134 156 156 156 147 147 147 128 128 128 128 128 128 104 104 104 103 103 103 116 116 116 110 110 110 129 129 129 158 158 158 115 115 115 102 102 102 139 139 139 138 138 138 148 148 148 120 120 120 151 151 151 124 124 124 119 119 119 129 129 129 136 136 136 141 141 141 114 114 114 136 136 136 147 147 147 112 112 112 100 100 100 145 145 145 143 143 143 134 134 134 122 122 122 140 140 140 125 125 125 155 155 155 109 109 109 131 131 131 99 99 99 128 128 128 143 143 143 133 133 133 127 127 127 100 100 100 137 137 137 109 109 109 
140 140 140 128 128 128 131 131 131 134 134 134 154 154 154 155 155 155 104 104 104 133 133 133 139 139 139 120 120 120 110 110 110 127 127 127 137 137 137 115 115 115 113 113 113 121 121 121 151 151 151 138 138 138 103 103 103 117 117 117 134 134 134 116 116 116 152 152 152 137 137 137 146 146 146 137 137 137 113 113 113 116 116 116 141 141 141 154 154 154 130 130 130 124 124 124 123 123 123 104 104 104 102 102 102 121 121 121 100 100 100 108 108 108 158 158 158 141 141 141 133 133 133 110 110 110 109 109 109 113 113 113 129 129 129 127 127 127 136 136 136 121 121 121 106 106 106 143 143 143 143 143 143 144 144 144 101 101 101 136 136 136 122 122 122 151 151 151 116 116 116 138 138 138 109 109 109 100 100 100 135 135 135 143 143 143 129 129 129 100 100 100 149 149 149 133 133 133 125 125 125 152 152 152 145 145 145 124 124 124 136 136 136 119 119 119 138 138 138 150 150 150 136 136 136 108 108 108 118 118 118 114 114 114 134 134 134 128 128 128 98 98 98 120 120 120 113 113 113 101 101 101 99 99 99 137 137 137 155 155 155 118 118 118 118 118 118 107 107 107 122 122 122 156 156 156 152 152 152 153 153 153 99 99 99 142 142 142 127 127 127 128 128 128 137 137 137 114 114 114 154 154 154 115 115 115 137 137 137 136 136 136 108 108 108 117 117 117 146 146 146 128 128 128 133 133 133 123 123 123 158 158 158 135 135 135 145 145 145 114 114 114 141 141 141 147 147 147 155 155 155 139 139 139 108 108 108 117 117 117 148 148 148 132 132 132 114 114 114 143 143 143 129 129 129 117 117 117 128 128 128 99 99 99 147 147 147 109 109 109 117 117 117 144 144 144 128 128 128 157 157 157 121 121 121 138 138 138 115 115 115 111 111 111 107 107 107 152 152 152 136 136 136 108 108 108 130 130 130 123 123 123 126 126 126 112 112 112 111 111 111 122 122 122 153 153 153 123 123 123 141 141 141 144 144 144 98 98 98 98 98 98 130 130 130 129 129 129 119 119 119 100 100 100 133 133 133 107 107 107 111 111 111 152 152 152 156 156 156 141 141 141 152 152 152 118 118 118 120 120 120 110 110 110 133 133 133 131 131 131 103 103 103 111 111 111 143 143 143 136 136 136 136 136 136 110 110 110 152 152 152 151 151 151 136 136 136 147 147 147 117 117 117 121 121 121 134 134 134 117 117 117 121 121 121 106 106 106 151 151 151 143 143 143 108 108 108 125 125 125 154 154 154 123 123 123 118 118 118 153 153 153 107 107 107 112 112 112 115 115 115 131 131 131 124 124 124 150 150 150 
103 103 103 132 132 132 102 102 102 150 150 150 111 111 111 142 142 142 103 103 103 104 104 104 136 136 136 143 143 143 155 155 155 155 155 155 105 105 105 131 131 131 114 114 114 129 129 129 139 139 139 108 108 108 115 115 115 151 151 151 135 135 135 112 112 112 117 117 117 157 157 157 107 107 107 126 126 126 110 110 110 124 124 124 98 98 98 139 139 139 115 115 115 105 105 105 112 112 112 120 120 120 98 98 98 125 125 125 103 103 103 103 103 103 133 133 133 142 142 142 148 148 148 130 130 130 140 140 140 156 156 156 102 102 102 158 158 158 128 128 128 145 145 145 107 107 107 145 145 145 139 139 139 146 146 146 100 100 100 99 99 99 145 145 145 109 109 109 127 127 127 98 98 98 135 135 135 129 129 129 139 139 139 155 155 155 136 136 136 155 155 155 118 118 118 136 136 136 123 123 123 123 123 123 143 143 143 98 98 98 108 108 108 134 134 134 130 130 130 153 153 153 131 131 131 134 134 134 152 152 152 102 102 102 122 122 122 101 101 101 151 151 151 104 104 104 151 151 151 154 154 154 105 105 105 137 137 137 104 104 104 134 134 134 138 138 138 144 144 144 106 106 106 120 120 120 142 142 142 144 144 144 117 117 117 101 101 101 123 123 123 142 142 142 128 128 128 107 107 107 142 142 142 141 141 141 143 143 143 115 115 115 135 135 135 118 118 118 151 151 151 128 128 128 122 122 122 116 116 116 133 133 133 117 117 117 122 122 122 126 126 126 112 112 112 129 129 129 106 106 106 120 120 120 106 106 106 148 148 148 107 107 107 114 114 114 112 112 112 151 151 151 101 101 101 131 131 131 154 154 154 126 126 126 116 116 116 124 124 124 137 137 137 102 102 102 106 106 106 124 124 124 119 119 119 143 143 143 146 146 146 114 114 114 114 114 114 111 111 111 134 134 134 152 152 152 130 130 130 98 98 98 121 121 121 146 146 146 131 131 131 129 129 129 108 108 108 140 140 140 121 121 121 119 119 119 158 158 158 135 135 135 112 112 112 101 101 101 109 109 109 107 107 107 131 131 131 129 129 129 135 135 135 112 112 112 133 133 133 145 145 145 140 140 140 157 157 157 129 129 129 127 127 127 114 114 114 148 148 148 140 140 140 150 150 150 141 141 141 112 112 112 152 152 152 105 105 105 101 101 101 125 125 125 138 138 138 111 111 111 108 108 108 100 100 100 133 133 133 107 107 107 137 137 137 149 149 149 112 112 112 150 150 150 99 99 99 148 148 148 121 121 121 137 137 137 101 101 101 158 158 158 123 123 123 143 143 143 158 158 158 157 157 157 113 113 113 113 113 113 
148 148 148 155 155 155 107 107 107 132 132 132 110 110 110 100 100 100 139 139 139 114 114 114 127 127 127 118 118 118 129 129 129 139 139 139 121 121 121 105 105 105 151 151 151 101 101 101 156 156 156 104 104 104 154 154 154 158 158 158 156 156 156 118 118 118 138 138 138 100 100 100 117 117 117 104 104 104 145 145 145 119 119 119 104 104 104 101 101 101 134 134 134 154 154 154 98 98 98 145 145 145 127 127 127 112 112 112 148 148 148 107 107 107 130 130 130 118 118 118 128 128 128 101 101 101 99 99 99 153 153 153 108 108 108 152 152 152 158 158 158 108 108 108 99 99 99 155 155 155 109 109 109 158 158 158 114 114 114 151 151 151 101 101 101 136 136 136 157 157 157 151 151 151 157 157 157 103 103 103 154 154 154 134 134 134 98 98 98 154 154 154 121 121 121 130 130 130 110 110 110 112 112 112 139 139 139 142 142 142 132 132 132 110 110 110 145 145 145 135 135 135 106 106 106 158 158 158 130 130 130 106 106 106 109 109 109 134 134 134 102 102 102 122 122 122 135 135 135 121 121 121 114 114 114 138 138 138 98 98 98 112 112 112 130 130 130 98 98 98 119 119 119 126 126 126 136 136 136 120 120 120 123 123 123 98 98 98 154 154 154 135 135 135 112 112 112 134 134 134 121 121 121 149 149 149 149 149 149 109 109 109 125 125 125 157 157 157 110 110 110 99 99 99 106 106 106 121 121 121 135 135 135 113 113 113 145 145 145 111 111 111 136 136 136 100 100 100 151 151 151 138 138 138 117 117 117 123 123 123 140 140 140 138 138 138 153 153 153 117 117 117 101 101 101 117 117 117 120 120 120 157 157 157 157 157 157 134 134 134 135 135 135 119 119 119 126 126 126 125 125 125 130 130 130 156 156 156 125 125 125 145 145 145 157 157 157 134 134 134 107 107 107 133 133 133 151 151 151 157 157 157 148 148 148 130 130 130 100 100 100 140 140 140 111 111 111 119 119 119 106 106 106 153 153 153 101 101 101 102 102 102 111 111 111 104 104 104 124 124 124 135 135 135 105 105 105 122 122 122 111 111 111 142 142 142 145 145 145 141 141 141 110 110 110 118 118 118 138 138 138 137 137 137 104 104 104 138 138 138 114 114 114 116 116 116 114 114 114 108 108 108 114 114 114 103 103 103 140 140 140 116 116 116 148 148 148 153 153 153 138 138 138 158 158 158 147 147 147 143 143 143 102 102 102 102 102 102 149 149 149 128 128 128 139 139 139 158 158 158 152 152 152 154 154 154 141 141 141 140 140 140 137 137 137 155 155 155 99 99 99 118 118 118 136 136 136 108 108 108 
98 98 98 152 152 152 126 126 126 114 114 114 102 102 102 142 142 142 120 120 120 146 146 146 101 101 101 111 111 111 141 141 141 143 143 143 110 110 110 131 131 131 127 127 127 114 114 114 137 137 137 120 120 120 146 146 146 118 118 118 119 119 119 141 141 141 115 115 115 104 104 104 122 122 122 156 156 156 100 100 100 126 126 126 116 116 116 138 138 138 136 136 136 118 118 118 134 134 134 105 105 105 134 134 134 140 140 140 151 151 151 158 158 158 127 127 127 154 154 154 110 110 110 109 109 109 141 141 141 123 123 123 145 145 145 109 109 109 141 141 141 123 123 123 131 131 131 129 129 129 143 143 143 153 153 153 111 111 111 102 102 102 98 98 98 136 136 136 99 99 99 100 100 100 105 105 105 119 119 119 143 143 143 145 145 145 139 139 139 118 118 118 152 152 152 115 115 115 99 99 99 144 144 144 114 114 114 128 128 128 141 141 141 129 129 129 142 142 142 123 123 123 154 154 154 128 128 128 135 135 135 138 138 138 153 153 153 109 109 109 108 108 108 140 140 140 105 105 105 124 124 124 146 146 146 105 105 105 103 103 103 147 147 147 110 110 110 110 110 110 108 108 108 157 157 157 157 157 157 149 149 149 116 116 116 152 152 152 107 107 107 117 117 117 137 137 137 126 126 126 149 149 149 121 121 121 157 157 157 132 132 132 147 147 147 154 154 154 103 103 103 125 125 125 133 133 133 100 100 100 138 138 138 146 146 146 144 144 144 146 146 146 111 111 111 131 131 131 155 155 155 118 118 118 119 119 119 106 106 106 130 130 130 131 131 131 106 106 106 130 130 130 124 124 124 124 124 124 123 123 123 133 133 133 145 145 145 103 103 103 102 102 102 136 136 136 128 128 128 100 100 100 111 111 111 118 118 118 158 158 158 119 119 119 147 147 147 135 135 135 123 123 123 127 127 127 122 122 122 108 108 108 114 114 114 137 137 137 141 141 141 110 110 110 98 98 98 103 103 103 121 121 121 130 130 130 139 139 139 129 129 129 103 103 103 104 104 104 158 158 158 130 130 130 141 141 141 144 144 144 137 137 137 148 148 148 123 123 123 106 106 106 150 150 150 139 139 139 129 129 129 152 152 152 101 101 101 117 117 117 128 128 128 126 126 126 146 146 146 152 152 152 136 136 136 103 103 103 132 132 132 120 120 120 118 118 118 132 132 132 125 125 125 141 141 141 105 105 105 107 107 107 113 113 113 112 112 112 113 113 113 114 114 114 144 144 144 98 98 98 100 100 100 124 124 124 148 148 148 127 127 127 134 134 134 141 141 141 109 109 109 104 104 104 134 134 134 112 112 112 
126 126 126 103 103 103 142 142 142 113 113 113 98 98 98 121 121 121 121 121 121 132 132 132 143 143 143 141 141 141 107 107 107 112 112 112 123 123 123 114 114 114 121 121 121 140 140 140 128 128 128 139 139 139 157 157 157 115 115 115 139 139 139 100 100 100 143 143 143 130 130 130 131 131 131 119 119 119 112 112 112 143 143 143 125 125 125 151 151 151 98 98 98 153 153 153 156 156 156 145 145 145 110 110 110 157 157 157 107 107 107 133 133 133 132 132 132 153 153 153 117 117 117 142 142 142 108 108 108 144 144 144 99 99 99 131 131 131 125 125 125 132 132 132 111 111 111 125 125 125 149 149 149 152 152 152 127 127 127 134 134 134 125 125 125 102 102 102 157 157 157 140 140 140 149 149 149 125 125 125 132 132 132 151 151 151 122 122 122 131 131 131 137 137 137 134 134 134 129 129 129 147 147 147 110 110 110 105 105 105 143 143 143 129 129 129 149 149 149 153 153 153 114 114 114 152 152 152 125 125 125 143 143 143 125 125 125 141 141 141 110 110 110 116 116 116 134 134 134 141 141 141 154 154 154 103 103 103 145 145 145 152 152 152 145 145 145 137 137 137 118 118 118 120 120 120 130 130 130 144 144 144 153 153 153 108 108 108 119 119 119 126 126 126 98 98 98 133 133 133 133 133 133 143 143 143 105 105 105 125 125 125 139 139 139 121 121 121 118 118 118 108 108 108 108 108 108 148 148 148 151 151 151 120 120 120 107 107 107 128 128 128 104 104 104 102 102 102 133 133 133 154 154 154 158 158 158 121 121 121 132 132 132 119 119 119 143 143 143 103 103 103 105 105 105 140 140 140 116 116 116 128 128 128 109 109 109 116 116 116 105 105 105 146 146 146 103 103 103 112 112 112 112 112 112 146 146 146 136 136 136 134 134 134 156 156 156 148 148 148 123 123 123 150 150 150 109 109 109 134 134 134 120 120 120 117 117 117 138 138 138 157 157 157 112 112 112 139 139 139 120 120 120 149 149 149 102 102 102 106 106 106 154 154 154 111 111 111 148 148 148 113 113 113 141 141 141 98 98 98 132 132 132 150 150 150 146 146 146 139 139 139 104 104 104 101 101 101 126 126 126 144 144 144 140 140 140 126 126 126 133 133 133 106 106 106 117 117 117 146 146 146 143 143 143 141 141 141 104 104 104 124 124 124 140 140 140 121 121 121 107 107 107 101 101 101 111 111 111 111 111 111 111 111 111 108 108 108 124 124 124 103 103 103 124 124 124 108 108 108 105 105 105 158 158 158 100 100 100 156 156 156 140 140 140 108 108 108 98 98 98 109 109 109 154 154 154 142 142 142 
137 137 137 128 128 128 151 151 151 157 157 157 115 115 115 137 137 137 141 141 141 121 121 121 102 102 102 122 122 122 146 146 146 111 111 111 127 127 127 98 98 98 126 126 126 141 141 141 109 109 109 154 154 154 146 146 146 135 135 135 106 106 106 153 153 153 136 136 136 110 110 110 150 150 150 119 119 119 120 120 120 153 153 153 130 130 130 115 115 115 138 138 138 109 109 109 147 147 147 130 130 130 109 109 109 103 103 103 108 108 108 152 152 152 128 128 128 115 115 115 118 118 118 116 116 116 128 128 128 149 149 149 118 118 118 98 98 98 131 131 131 129 129 129 154 154 154 120 120 120 107 107 107 101 101 101 117 117 117 145 145 145 113 113 113 110 110 110 105 105 105 135 135 135 106 106 106 140 140 140 154 154 154 147 147 147 151 151 151 142 142 142 120 120 120 103 103 103 147 147 147 133 133 133 157 157 157 119 119 119 150 150 150 118 118 118 139 139 139 121 121 121 109 109 109 98 98 98 121 121 121 144 144 144 130 130 130 119 119 119 108 108 108 141 141 141 122 122 122 127 127 127 128 128 128 138 138 138 141 141 141 137 137 137 114 114 114 150 150 150 118 118 118 110 110 110 140 140 140 112 112 112 156 156 156 101 101 101 117 117 117 145 145 145 138 138 138 118 118 118 107 107 107 129 129 129 138 138 138 148 148 148 155 155 155 151 151 151 148 148 148 119 119 119 137 137 137 121 121 121 140 140 140 147 147 147 104 104 104 104 104 104 117 117 117 136 136 136 146 146 146 99 99 99 116 116 116 103 103 103 153 153 153 139 139 139 117 117 117 136 136 136 153 153 153 115 115 115 142 142 142 114 114 114 103 103 103 121 121 121 134 134 134 112 112 112 155 155 155 115 115 115 101 101 101 153 153 153 110 110 110 153 153 153 113 113 113 149 149 149 118 118 118 158 158 158 139 139 139 126 126 126 103 103 103 158 158 158 103 103 103 153 153 153 100 100 100 121 121 121 158 158 158 158 158 158 103 103 103 117 117 117 135 135 135 98 98 98 134 134 134 120 120 120 114 114 114 139 139 139 144 144 144 152 152 152 155 155 155 142 142 142 110 110 110 158 158 158 136 136 136 122 122 122 154 154 154 151 151 151 114 114 114 115 115 115 152 152 152 155 155 155 143 143 143 157 157 157 156 156 156 148 148 148 151 151 151 98 98 98 113 113 113 153 153 153 99 99 99 118 118 118 111 111 111 138 138 138 120 120 120 147 147 147 100 100 100 138 138 138 129 129 129 146 146 146 131 131 131 125 125 125 129 129 129 146 146 146 126 126 126 108 108 108 109 109 109 123 123 123 
102 102 102 128 128 128 141 141 141 157 157 157 126 126 126 125 125 125 157 157 157 124 124 124 117 117 117 152 152 152 126 126 126 132 132 132 146 146 146 127 127 127 154 154 154 98 98 98 106 106 106 116 116 116 149 149 149 108 108 108 156 156 156 119 119 119 158 158 158 131 131 131 148 148 148 130 130 130 120 120 120 115 115 115 140 140 140 133 133 133 140 140 140 145 145 145 102 102 102 122 122 122 145 145 145 131 131 131 152 152 152 143 143 143 157 157 157 110 110 110 136 136 136 124 124 124 144 144 144 123 123 123 155 155 155 141 141 141 123 123 123 102 102 102 100 100 100 113 113 113 115 115 115 98 98 98 136 136 136 114 114 114 133 133 133 125 125 125 149 149 149 155 155 155 144 144 144 130 130 130 129 129 129 126 126 126 118 118 118 136 136 136 152 152 152 104 104 104 108 108 108 145 145 145 152 152 152 108 108 108 157 157 157 129 129 129 136 136 136 144 144 144 155 155 155 132 132 132 129 129 129 121 121 121 138 138 138 131 131 131 139 139 139 157 157 157 133 133 133 118 118 118 113 113 113 107 107 107 146 146 146 105 105 105 105 105 105 131 131 131 137 137 137 139 139 139 100 100 100 99 99 99 116 116 116 155 155 155 107 107 107 128 128 128 143 143 143 100 100 100 138 138 138 144 144 144 134 134 134 115 115 115 131 131 131 130 130 130 151 151 151 101 101 101 155 155 155 132 132 132 135 135 135 137 137 137 131 131 131 111 111 111 158 158 158 148 148 148 123 123 123 145 145 145 155 155 155 130 130 130 119 119 119 135 135 135 112 112 112 124 124 124 136 136 136 130 130 130 120 120 120 148 148 148 99 99 99 106 106 106 150 150 150 141 141 141 152 152 152 125 125 125 99 99 99 125 125 125 98 98 98 152 152 152 130 130 130 158 158 158 126 126 126 108 108 108 136 136 136 98 98 98 122 122 122 135 135 135 148 148 148 147 147 147 123 123 123 144 144 144 120 120 120 147 147 147 120 120 120 135 135 135 112 112 112 100 100 100 106 106 106 134 134 134 150 150 150 110 110 110 144 144 144 143 143 143 153 153 153 138 138 138 110 110 110 155 155 155 106 106 106 112 112 112 150 150 150 140 140 140 111 111 111 119 119 119 151 151 151 150 150 150 119 119 119 114 114 114 128 128 128 110 110 110 102 102 102 154 154 154 158 158 158 124 124 124 144 144 144 122 122 122 100 100 100 158 158 158 124 124 124 111 111 111 135 135 135 117 117 117 125 125 125 120 120 120 101 101 101 121 121 121 101 101 101 115 115 115 119 119 119 109 109 109 130 130 130 111 111 111 
152 152 152 145 145 145 132 132 132 146 146 146 138 138 138 156 156 156 101 101 101 108 108 108 109 109 109 107 107 107 105 105 105 109 109 109 135 135 135 151 151 151 135 135 135 140 140 140 152 152 152 102 102 102 153 153 153 128 128 128 121 121 121 121 121 121 150 150 150 126 126 126 144 144 144 154 154 154 144 144 144 105 105 105 106 106 106 117 117 117 120 120 120 101 101 101 105 105 105 156 156 156 149 149 149 146 146 146 155 155 155 154 154 154 158 158 158 106 106 106 102 102 102 106 106 106 119 119 119 140 140 140 100 100 100 158 158 158 123 123 123 154 154 154 101 101 101 117 117 117 123 123 123 126 126 126 142 142 142 116 116 116 154 154 154 127 127 127 111 111 111 141 141 141 136 136 136 122 122 122 101 101 101 158 158 158 127 127 127 109 109 109 158 158 158 120 120 120 98 98 98 154 154 154 115 115 115 158 158 158 103 103 103 122 122 122 107 107 107 126 126 126 105 105 105 111 111 111 125 125 125 130 130 130 106 106 106 130 130 130 151 151 151 133 133 133 158 158 158 134 134 134 151 151 151 156 156 156 104 104 104 106 106 106 138 138 138 143 143 143 132 132 132 142 142 142 144 144 144 100 100 100 155 155 155 143 143 143 122 122 122 155 155 155 141 141 141 142 142 142 156 156 156 148 148 148 105 105 105 106 106 106 118 118 118 114 114 114 119 119 119 145 145 145 146 146 146 127 127 127 117 117 117 140 140 140 103 103 103 118 118 118 115 115 115 156 156 156 115 115 115 121 121 121 105 105 105 158 158 158 107 107 107 139 139 139 143 143 143 154 154 154 144 144 144 139 139 139 140 140 140 107 107 107 137 137 137 124 124 124 153 153 153 136 136 136 114 114 114 99 99 99 144 144 144 134 134 134 117 117 117 104 104 104 122 122 122 106 106 106 135 135 135 143 143 143 148 148 148 142 142 142 103 103 103 104 104 104 141 141 141 122 122 122 130 130 130 149 149 149 121 121 121 139 139 139 131 131 131 105 105 105 136 136 136 116 116 116 146 146 146 118 118 118 128 128 128 126 126 126 144 144 144 122 122 122 103 103 103 101 101 101 126 126 126 149 149 149 139 139 139 145 145 145 157 157 157 103 103 103 154 154 154 135 135 135 148 148 148 143 143 143 118 118 118 155 155 155 152 152 152 101 101 101 119 119 119 125 125 125 154 154 154 142 142 142 107 107 107 126 126 126 150 150 150 146 146 146 145 145 145 139 139 139 105 105 105 114 114 114 107 107 107 153 153 153 138 138 138 114 114 114 157 157 157 105 105 105 105 105 105 137 137 137 155 155 155 105 105 105 
144 144 144 150 150 150 143 143 143 136 136 136 136 136 136 104 104 104 132 132 132 129 129 129 109 109 109 155 155 155 158 158 158 104 104 104 139 139 139 107 107 107 135 135 135 132 132 132 155 155 155 121 121 121 114 114 114 103 103 103 139 139 139 125 125 125 158 158 158 120 120 120 142 142 142 158 158 158 128 128 128 151 151 151 139 139 139 126 126 126 158 158 158 126 126 126 117 117 117 144 144 144 103 103 103 155 155 155 153 153 153 138 138 138 128 128 128 103 103 103 136 136 136 127 127 127 112 112 112 116 116 116 136 136 136 149 149 149 152 152 152 132 132 132 113 113 113 108 108 108 139 139 139 154 154 154 137 137 137 139 139 139 115 115 115 120 120 120 140 140 140 147 147 147 112 112 112 122 122 122 114 114 114 114 114 114 151 151 151 135 135 135 99 99 99 156 156 156 132 132 132 156 156 156 137 137 137 103 103 103 101 101 101 115 115 115 132 132 132 117 117 117 135 135 135 112 112 112 107 107 107 131 131 131 148 148 148 122 122 122 143 143 143 129 129 129 119 119 119 121 121 121 111 111 111 136 136 136 144 144 144 153 153 153 127 127 127 158 158 158 119 119 119 143 143 143 113 113 113 111 111 111 122 122 122 117 117 117 110 110 110 158 158 158 114 114 114 152 152 152 102 102 102 119 119 119 110 110 110 136 136 136 138 138 138 147 147 147 152 152 152 149 149 149 119 119 119 142 142 142 114 114 114 103 103 103 112 112 112 135 135 135 127 127 127 125 125 125 115 115 115 114 114 114 121 121 121 144 144 144 115 115 115 142 142 142 130 130 130 133 133 133 157 157 157 154 154 154 152 152 152 109 109 109 153 153 153 109 109 109 102 102 102 157 157 157 133 133 133 114 114 114 137 137 137 112 112 112 104 104 104 130 130 130 103 103 103 128 128 128 113 113 113 119 119 119 135 135 135 127 127 127 98 98 98 103 103 103 156 156 156 115 115 115 121 121 121 119 119 119 100 100 100 139 139 139 104 104 104 134 134 134 113 113 113 103 103 103 130 130 130 108 108 108 114 114 114 126 126 126 119 119 119 120 120 120 125 125 125 154 154 154 138 138 138 105 105 105 110 110 110 144 144 144 139 139 139 117 117 117 115 115 115 155 155 155 140 140 140 153 153 153 125 125 125 140 140 140 99 99 99 125 125 125 98 98 98 123 123 123 146 146 146 100 100 100 105 105 105 154 154 154 137 137 137 120 120 120 98 98 98 110 110 110 130 130 130 116 116 116 138 138 138 153 153 153 140 140 140 106 106 106 151 151 151 119 119 119 115 115 115 104 104 104 107 107 107 157 157 157 
123 123 123 124 124 124 155 155 155 106 106 106 118 118 118 123 123 123 151 151 151 122 122 122 150 150 150 151 151 151 147 147 147 139 139 139 156 156 156 154 154 154 135 135 135 136 136 136 117 117 117 135 135 135 148 148 148 151 151 151 156 156 156 129 129 129 147 147 147 137 137 137 138 138 138 141 141 141 98 98 98 155 155 155 147 147 147 109 109 109 155 155 155 113 113 113 135 135 135 151 151 151 124 124 124 158 158 158 116 116 116 116 116 116 121 121 121 107 107 107 108 108 108 111 111 111 151 151 151 107 107 107 108 108 108 127 127 127 145 145 145 127 127 127 105 105 105 136 136 136 121 121 121 102 102 102 107 107 107 109 109 109 142 142 142 149 149 149 153 153 153 144 144 144 147 147 147 143 143 143 155 155 155 144 144 144 98 98 98 131 131 131 138 138 138 124 124 124 132 132 132 156 156 156 144 144 144 157 157 157 107 107 107 156 156 156 111 111 111 99 99 99 105 105 105 121 121 121 128 128 128 154 154 154 152 152 152 137 137 137 132 132 132 116 116 116 142 142 142 141 141 141 128 128 128 127 127 127 133 133 133 124 124 124 112 112 112 123 123 123 108 108 108 108 108 108 108 108 108 110 110 110 143 143 143 151 151 151 138 138 138 119 119 119 148 148 148 123 123 123 117 117 117 98 98 98 121 121 121 133 133 133 99 99 99 130 130 130 156 156 156 131 131 131 125 125 125 152 152 152 110 110 110 98 98 98 109 109 109 156 156 156 143 143 143 141 141 141 124 124 124 119 119 119 108 108 108 138 138 138 145 145 145 121 121 121 150 150 150 157 157 157 135 135 135 134 134 134 149 149 149 115 115 115 157 157 157 139 139 139 142 142 142 116 116 116 141 141 141 106 106 106 151 151 151 143 143 143 138 138 138 150 150 150 117 117 117 107 107 107 145 145 145 131 131 131 109 109 109 98 98 98 128 128 128 155 155 155 143 143 143 156 156 156 117 117 117 154 154 154 137 137 137 103 103 103 116 116 116 128 128 128 102 102 102 153 153 153 106 106 106 155 155 155 111 111 111 104 104 104 137 137 137 156 156 156 124 124 124 120 120 120 105 105 105 118 118 118 106 106 106 146 146 146 112 112 112 125 125 125 157 157 157 98 98 98 98 98 98 107 107 107 100 100 100 130 130 130 105 105 105 146 146 146 130 130 130 125 125 125 141 141 141 108 108 108 132 132 132 100 100 100 141 141 141 136 136 136 157 157 157 149 149 149 135 135 135 110 110 110 157 157 157 113 113 113 109 109 109 125 125 125 135 135 135 116 116 116 145 145 145 143 143 143 105 105 105 100 100 100 
112 112 112 103 103 103 103 103 103 114 114 114 115 115 115 105 105 105 148 148 148 122 122 122 153 153 153 119 119 119 149 149 149 137 137 137 130 130 130 123 123 123 139 139 139 112 112 112 102 102 102 138 138 138 104 104 104 141 141 141 152 152 152 102 102 102 157 157 157 104 104 104 131 131 131 135 135 135 122 122 122 120 120 120 120 120 120 132 132 132 122 122 122 136 136 136 139 139 139 129 129 129 154 154 154 156 156 156 137 137 137 143 143 143 120 120 120 133 133 133 104 104 104 112 112 112 112 112 112 138 138 138 139 139 139 155 155 155 154 154 154 146 146 146 136 136 136 99 99 99 128 128 128 131 131 131 105 105 105 126 126 126 137 137 137 141 141 141 105 105 105 101 101 101 102 102 102 129 129 129 135 135 135 128 128 128 106 106 106 115 115 115 99 99 99 101 101 101 115 115 115 138 138 138 146 146 146 137 137 137 112 112 112 154 154 154 153 153 153 128 128 128 135 135 135 136 136 136 125 125 125 130 130 130 123 123 123 104 104 104 131 131 131 155 155 155 138 138 138 141 141 141 125 125 125 116 116 116 123 123 123 132 132 132 121 121 121 127 127 127 102 102 102 158 158 158 98 98 98 110 110 110 117 117 117 99 99 99 115 115 115 136 136 136 139 139 139 104 104 104 114 114 114 156 156 156 100 100 100 110 110 110 127 127 127 137 137 137 148 148 148 156 156 156 111 111 111 114 114 114 102 102 102 146 146 146 111 111 111 144 144 144 128 128 128 138 138 138 101 101 101 155 155 155 111 111 111 125 125 125 125 125 125 115 115 115 126 126 126 126 126 126 129 129 129 147 147 147 127 127 127 146 146 146 124 124 124 110 110 110 152 152 152 142 142 142 109 109 109 156 156 156 155 155 155 138 138 138 137 137 137 146 146 146 136 136 136 150 150 150 102 102 102 142 142 142 137 137 137 115 115 115 127 127 127 109 109 109 155 155 155 132 132 132 105 105 105 109 109 109 98 98 98 135 135 135 126 126 126 129 129 129 102 102 102 157 157 157 117 117 117 133 133 133 146 146 146 144 144 144 145 145 145 139 139 139 129 129 129 156 156 156 139 139 139 125 125 125 138 138 138 117 117 117 115 115 115 115 115 115 110 110 110 119 119 119 100 100 100 149 149 149 138 138 138 129 129 129 99 99 99 136 136 136 104 104 104 109 109 109 147 147 147 105 105 105 146 146 146 114 114 114 136 136 136 150 150 150 114 114 114 157 157 157 124 124 124 103 103 103 144 144 144 113 113 113 146 146 146 115 115 115 110 110 110 126 126 126 144 144 144 150 150 150 147 147 147 100 100 100 
108 108 108 98 98 98 123 123 123 112 112 112 150 150 150 102 102 102 143 143 143 153 153 153 140 140 140 150 150 150 103 103 103 130 130 130 98 98 98 151 151 151 148 148 148 138 138 138 144 144 144 103 103 103 136 136 136 112 112 112 108 108 108 124 124 124 127 127 127 157 157 157 141 141 141 141 141 141 126 126 126 126 126 126 135 135 135 115 115 115 131 131 131 147 147 147 115 115 115 156 156 156 101 101 101 108 108 108 100 100 100 148 148 148 103 103 103 144 144 144 141 141 141 110 110 110 116 116 116 141 141 141 103 103 103 105 105 105 122 122 122 151 151 151 113 113 113 102 102 102 104 104 104 125 125 125 128 128 128 135 135 135 123 123 123 110 110 110 120 120 120 154 154 154 140 140 140 157 157 157 110 110 110 112 112 112 145 145 145 129 129 129 110 110 110 148 148 148 140 140 140 114 114 114 138 138 138 147 147 147 99 99 99 120 120 120 98 98 98 119 119 119 105 105 105 105 105 105 127 127 127 129 129 129 98 98 98 144 144 144 133 133 133 106 106 106 110 110 110 104 104 104 144 144 144 138 138 138 116 116 116 105 105 105 133 133 133 98 98 98 105 105 105 147 147 147 112 112 112 152 152 152 117 117 117 126 126 126 144 144 144 98 98 98 142 142 142 125 125 125 149 149 149 144 144 144 147 147 147 150 150 150 106 106 106 156 156 156 157 157 157 135 135 135 127 127 127 157 157 157 122 122 122 103 103 103 107 107 107 135 135 135 110 110 110 153 153 153 114 114 114 130 130 130 101 101 101 151 151 151 132 132 132 110 110 110 139 139 139 147 147 147 103 103 103 158 158 158 114 114 114 151 151 151 100 100 100 100 100 100 117 117 117 151 151 151 146 146 146 106 106 106 142 142 142 154 154 154 105 105 105 143 143 143 133 133 133 136 136 136 141 141 141 157 157 157 142 142 142 150 150 150 135 135 135 156 156 156 146 146 146 151 151 151 129 129 129 151 151 151 145 145 145 103 103 103 102 102 102 125 125 125 154 154 154 110 110 110 125 125 125 111 111 111 102 102 102 129 129 129 113 113 113 122 122 122 121 121 121 102 102 102 132 132 132 107 107 107 100 100 100 139 139 139 152 152 152 135 135 135 117 117 117 136 136 136 135 135 135 102 102 102 130 130 130 112 112 112 101 101 101 119 119 119 106 106 106 132 132 132 112 112 112 154 154 154 137 137 137 118 118 118 122 122 122 132 132 132 130 130 130 151 151 151 146 146 146 135 135 135 121 121 121 102 102 102 100 100 100 147 147 147 107 107 107 134 134 134 158 158 158 109 109 109 116 116 116 151 151 151 
148 148 148 135 135 135 130 130 130 124 124 124 141 141 141 101 101 101 140 140 140 144 144 144 123 123 123 151 151 151 120 120 120 139 139 139 148 148 148 98 98 98 98 98 98 111 111 111 135 135 135 131 131 131 104 104 104 124 124 124 109 109 109 127 127 127 130 130 130 111 111 111 117 117 117 139 139 139 149 149 149 116 116 116 150 150 150 106 106 106 110 110 110 139 139 139 146 146 146 143 143 143 107 107 107 130 130 130 148 148 148 151 151 151 116 116 116 114 114 114 143 143 143 140 140 140 155 155 155 132 132 132 142 142 142 158 158 158 148 148 148 118 118 118 132 132 132 154 154 154 146 146 146 143 143 143 124 124 124 118 118 118 158 158 158 144 144 144 100 100 100 148 148 148 103 103 103 153 153 153 156 156 156 116 116 116 135 135 135 145 145 145 102 102 102 144 144 144 117 117 117 154 154 154 139 139 139 137 137 137 112 112 112 123 123 123 118 118 118 110 110 110 99 99 99 101 101 101 109 109 109 149 149 149 124 124 124 143 143 143 146 146 146 113 113 113 127 127 127 113 113 113 133 133 133 126 126 126 100 100 100 136 136 136 117 117 117 106 106 106 132 132 132 117 117 117 126 126 126 108 108 108 103 103 103 132 132 132 157 157 157 124 124 124 129 129 129 137 137 137 102 102 102 143 143 143 103 103 103 124 124 124 156 156 156 106 106 106 128 128 128 106 106 106 98 98 98 156 156 156 152 152 152 146 146 146 110 110 110 122 122 122 103 103 103 148 148 148 153 153 153 105 105 105 127 127 127 113 113 113 115 115 115 100 100 100 132 132 132 143 143 143 112 112 112 140 140 140 118 118 118 112 112 112 105 105 105 150 150 150 153 153 153 112 112 112 134 134 134 98 98 98 138 138 138 131 131 131 108 108 108 109 109 109 140 140 140 109 109 109 108 108 108 135 135 135 98 98 98 121 121 121 100 100 100 103 103 103 110 110 110 157 157 157 113 113 113 141 141 141 112 112 112 130 130 130 145 145 145 148 148 148 115 115 115 98 98 98 129 129 129 137 137 137 115 115 115 139 139 139 128 128 128 109 109 109 153 153 153 104 104 104 111 111 111 134 134 134 137 137 137 122 122 122 148 148 148 120 120 120 135 135 135 158 158 158 98 98 98 135 135 135 120 120 120 103 103 103 143 143 143 134 134 134 101 101 101 158 158 158 118 118 118 117 117 117 129 129 129 104 104 104 109 109 109 148 148 148 105 105 105 140 140 140 127 127 127 122 122 122 120 120 120 157 157 157 133 133 133 116 116 116 104 104 104 149 149 149 155 155 155 146 146 146 112 112 112 144 144 144 
107 107 107 149 149 149 143 143 143 110 110 110 127 127 127 107 107 107 115 115 115 111 111 111 145 145 145 120 120 120 112 112 112 105 105 105 142 142 142 144 144 144 111 111 111 153 153 153 135 135 135 120 120 120 136 136 136 103 103 103 144 144 144 100 100 100 104 104 104 121 121 121 118 118 118 112 112 112 111 111 111 116 116 116 99 99 99 127 127 127 101 101 101 111 111 111 117 117 117 149 149 149 123 123 123 146 146 146 158 158 158 142 142 142 101 101 101 146 146 146 105 105 105 115 115 115 155 155 155 149 149 149 102 102 102 108 108 108 145 145 145 140 140 140 130 130 130 123 123 123 147 147 147 118 118 118 127 127 127 155 155 155 143 143 143 149 149 149 109 109 109 158 158 158 107 107 107 110 110 110 126 126 126 110 110 110 123 123 123 147 147 147 102 102 102 150 150 150 136 136 136 103 103 103 133 133 133 141 141 141 152 152 152 141 141 141 98 98 98 148 148 148 133 133 133 104 104 104 99 99 99 120 120 120 146 146 146 134 134 134 147 147 147 137 137 137 154 154 154 117 117 117 133 133 133 140 140 140 107 107 107 146 146 146 139 139 139 118 118 118 100 100 100 108 108 108 131 131 131 127 127 127 98 98 98 137 137 137 119 119 119 138 138 138 143 143 143 156 156 156 121 121 121 136 136 136 140 140 140 123 123 123 127 127 127 115 115 115 129 129 129 129 129 129 139 139 139 119 119 119 106 106 106 129 129 129 99 99 99 101 101 101 148 148 148 136 136 136 145 145 145 98 98 98 124 124 124 127 127 127 119 119 119 128 128 128 137 137 137 154 154 154 157 157 157 139 139 139 132 132 132 117 117 117 120 120 120 116 116 116 117 117 117 143 143 143 156 156 156 98 98 98 109 109 109 127 127 127 117 117 117 143 143 143 99 99 99 99 99 99 105 105 105 107 107 107 132 132 132 106 106 106 112 112 112 123 123 123 144 144 144 98 98 98 124 124 124 111 111 111 127 127 127 147 147 147 141 141 141 107 107 107 142 142 142 142 142 142 148 148 148 117 117 117 100 100 100 109 109 109 136 136 136 121 121 121 157 157 157 135 135 135 122 122 122 109 109 109 105 105 105 143 143 143 154 154 154 106 106 106 147 147 147 100 100 100 117 117 117 120 120 120 110 110 110 131 131 131 146 146 146 98 98 98 131 131 131 111 111 111 111 111 111 101 101 101 101 101 101 157 157 157 110 110 110 145 145 145 140 140 140 101 101 101 103 103 103 144 144 144 115 115 115 143 143 143 107 107 107 113 113 113 122 122 122 133 133 133 124 124 124 129 129 129 119 119 119 122 122 122 
140 140 140 107 107 107 124 124 124 98 98 98 130 130 130 139 139 139 132 132 132 117 117 117 139 139 139 106 106 106 132 132 132 152 152 152 110 110 110 135 135 135 152 152 152 122 122 122 123 123 123 133 133 133 128 128 128 130 130 130 121 121 121 145 145 145 115 115 115 130 130 130 99 99 99 141 141 141 106 106 106 127 127 127 113 113 113 127 127 127 153 153 153 155 155 155 137 137 137 121 121 121 158 158 158 110 110 110 101 101 101 133 133 133 129 129 129 142 142 142 141 141 141 104 104 104 137 137 137 155 155 155 143 143 143 131 131 131 121 121 121 107 107 107 107 107 107 151 151 151 139 139 139 130 130 130 137 137 137 158 158 158 103 103 103 140 140 140 140 140 140 113 113 113 110 110 110 158 158 158 143 143 143 105 105 105 156 156 156 123 123 123 128 128 128 155 155 155 137 137 137 133 133 133 129 129 129 107 107 107 116 116 116 114 114 114 115 115 115 155 155 155 110 110 110 99 99 99 129 129 129 135 135 135 110 110 110 139 139 139 127 127 127 153 153 153 112 112 112 107 107 107 153 153 153 120 120 120 151 151 151 136 136 136 135 135 135 105 105 105 135 135 135 121 121 121 112 112 112 135 135 135 146 146 146 144 144 144 131 131 131 124 124 124 118 118 118 104 104 104 135 135 135 138 138 138 120 120 120 154 154 154 134 134 134 134 134 134 157 157 157 105 105 105 113 113 113 108 108 108 148 148 148 142 142 142 103 103 103 101 101 101 154 154 154 99 99 99 123 123 123 148 148 148 139 139 139 102 102 102 155 155 155 118 118 118 125 125 125 110 110 110 155 155 155 115 115 115 156 156 156 127 127 127 141 141 141 117 117 117 133 133 133 120 120 120 157 157 157 157 157 157 117 117 117 135 135 135 135 135 135 116 116 116 144 144 144 150 150 150 128 128 128 133 133 133 135 135 135 135 135 135 138 138 138 132 132 132 136 136 136 105 105 105 122 122 122 119 119 119 109 109 109 118 118 118 139 139 139 138 138 138 131 131 131 135 135 135 155 155 155 130 130 130 105 105 105 140 140 140 152 152 152 143 143 143 101 101 101 150 150 150 143 143 143 122 122 122 128 128 128 119 119 119 140 140 140 113 113 113 110 110 110 110 110 110 150 150 150 150 150 150 147 147 147 130 130 130 123 123 123 127 127 127 139 139 139 149 149 149 148 148 148 152 152 152 109 109 109 130 130 130 131 131 131 144 144 144 106 106 106 128 128 128 117 117 117 113 113 113 111 111 111 110 110 110 99 99 99 116 116 116 104 104 104 145 145 145 140 140 140 134 134 134 105 105 105 122 122 122 
150 150 150 120 120 120 136 136 136 143 143 143 113 113 113 126 126 126 114 114 114 138 138 138 157 157 157 157 157 157 129 129 129 148 148 148 150 150 150 142 142 142 119 119 119 125 125 125 129 129 129 127 127 127 157 157 157 148 148 148 145 145 145 109 109 109 102 102 102 146 146 146 127 127 127 108 108 108 134 134 134 108 108 108 146 146 146 142 142 142 134 134 134 139 139 139 105 105 105 113 113 113 124 124 124 120 120 120 142 142 142 142 142 142 101 101 101 142 142 142 141 141 141 132 132 132 132 132 132 134 134 134 117 117 117 153 153 153 100 100 100 148 148 148 124 124 124 98 98 98 140 140 140 112 112 112 111 111 111 144 144 144 101 101 101 140 140 140 156 156 156 138 138 138 153 153 153 143 143 143 121 121 121 130 130 130 124 124 124 130 130 130 146 146 146 150 150 150 152 152 152 131 131 131 133 133 133 155 155 155 114 114 114 115 115 115 131 131 131 148 148 148 154 154 154 150 150 150 145 145 145 156 156 156 142 142 142 110 110 110 98 98 98 123 123 123 124 124 124 113 113 113 110 110 110 129 129 129 156 156 156 107 107 107 108 108 108 152 152 152 154 154 154 133 133 133 123 123 123 119 119 119 104 104 104 110 110 110 112 112 112 158 158 158 143 143 143 148 148 148 157 157 157 99 99 99 106 106 106 129 129 129 151 151 151 101 101 101 122 122 122 137 137 137 101 101 101 105 105 105 151 151 151 103 103 103 132 132 132 118 118 118 118 118 118 144 144 144 150 150 150 117 117 117 155 155 155 99 99 99 110 110 110 153 153 153 137 137 137 138 138 138 113 113 113 143 143 143 150 150 150 128 128 128 145 145 145 137 137 137 119 119 119 143 143 143 140 140 140 127 127 127 113 113 113 132 132 132 133 133 133 137 137 137 113 113 113 138 138 138 147 147 147 105 105 105 143 143 143 120 120 120 128 128 128 104 104 104 108 108 108 119 119 119 124 124 124 106 106 106 122 122 122 138 138 138 100 100 100 100 100 100 117 117 117 118 118 118 146 146 146 111 111 111 150 150 150 132 132 132 150 150 150 110 110 110 118 118 118 133 133 133 141 141 141 133 133 133 108 108 108 115 115 115 113 113 113 123 123 123 157 157 157 103 103 103 133 133 133 143 143 143 126 126 126 102 102 102 150 150 150 138 138 138 123 123 123 117 117 117 148 148 148 147 147 147 157 157 157 151 151 151 152 152 152 118 118 118 110 110 110 139 139 139 131 131 131 101 101 101 114 114 114 124 124 124 115 115 115 134 134 134 100 100 100 158 158 158 110 110 110 110 110 110 117 117 117 127 127 127 
136 136 136 115 115 115 133 133 133 112 112 112 100 100 100 102 102 102 116 116 116 154 154 154 142 142 142 143 143 143 112 112 112 131 131 131 133 133 133 112 112 112 125 125 125 126 126 126 134 134 134 139 139 139 106 106 106 108 108 108 144 144 144 124 124 124 134 134 134 100 100 100 99 99 99 136 136 136 102 102 102 113 113 113 151 151 151 121 121 121 143 143 143 128 128 128 140 140 140 117 117 117 142 142 142 142 142 142 121 121 121 101 101 101 139 139 139 106 106 106 146 146 146 153 153 153 139 139 139 120 120 120 109 109 109 106 106 106 149 149 149 145 145 145 149 149 149 98 98 98 156 156 156 135 135 135 125 125 125 133 133 133 139 139 139 128 128 128 113 113 113 143 143 143 144 144 144 105 105 105 105 105 105 128 128 128 137 137 137 148 148 148 149 149 149 122 122 122 133 133 133 111 111 111 125 125 125 114 114 114 119 119 119 114 114 114 110 110 110 101 101 101 136 136 136 123 123 123 111 111 111 128 128 128 110 110 110 102 102 102 129 129 129 107 107 107 139 139 139 158 158 158 144 144 144 119 119 119 127 127 127 98 98 98 106 106 106 114 114 114 107 107 107 113 113 113 144 144 144 146 146 146 104 104 104 134 134 134 109 109 109 142 142 142 149 149 149 138 138 138 99 99 99 109 109 109 154 154 154 111 111 111 115 115 115 132 132 132 137 137 137 128 128 128 103 103 103 151 151 151 132 132 132 136 136 136 101 101 101 114 114 114 135 135 135 147 147 147 138 138 138 106 106 106 150 150 150 146 146 146 122 122 122 98 98 98 102 102 102 110 110 110 147 147 147 111 111 111 146 146 146 99 99 99 155 155 155 139 139 139 140 140 140 156 156 156 152 152 152 135 135 135 110 110 110 108 108 108 110 110 110 151 151 151 139 139 139 116 116 116 143 143 143 114 114 114 154 154 154 146 146 146 133 133 133 131 131 131 137 137 137 112 112 112 141 141 141 128 128 128 101 101 101 104 104 104 128 128 128 107 107 107 116 116 116 118 118 118 120 120 120 106 106 106 120 120 120 116 116 116 147 147 147 101 101 101 115 115 115 142 142 142 138 138 138 130 130 130 153 153 153 153 153 153 122 122 122 135 135 135 110 110 110 109 109 109 151 151 151 105 105 105 98 98 98 125 125 125 140 140 140 139 139 139 141 141 141 122 122 122 108 108 108 146 146 146 129 129 129 141 141 141 156 156 156 149 149 149 102 102 102 117 117 117 98 98 98 124 124 124 138 138 138 149 149 149 129 129 129 157 157 157 133 133 133 111 111 111 128 128 128 127 127 127 105 105 105 155 155 155 
105 105 105 117 117 117 107 107 107 158 158 158 126 126 126 107 107 107 127 127 127 108 108 108 151 151 151 111 111 111 132 132 132 100 100 100 99 99 99 104 104 104 145 145 145 157 157 157 158 158 158 152 152 152 117 117 117 158 158 158 119 119 119 157 157 157 149 149 149 151 151 151 156 156 156 123 123 123 105 105 105 127 127 127 154 154 154 114 114 114 125 125 125 100 100 100 135 135 135 134 134 134 101 101 101 102 102 102 146 146 146 132 132 132 114 114 114 138 138 138 148 148 148 149 149 149 142 142 142 149 149 149 157 157 157 129 129 129 149 149 149 156 156 156 124 124 124 107 107 107 158 158 158 145 145 145 108 108 108 148 148 148 139 139 139 107 107 107 114 114 114 146 146 146 136 136 136 109 109 109 101 101 101 103 103 103 113 113 113 138 138 138 141 141 141 118 118 118 145 145 145 128 128 128 153 153 153 100 100 100 107 107 107 142 142 142 153 153 153 152 152 152 134 134 134 152 152 152 124 124 124 124 124 124 151 151 151 152 152 152 135 135 135 150 150 150 138 138 138 145 145 145 141 141 141 119 119 119 154 154 154 157 157 157 108 108 108 134 134 134 109 109 109 114 114 114 139 139 139 124 124 124 156 156 156 123 123 123 145 145 145 142 142 142 154 154 154 141 141 141 145 145 145 104 104 104 126 126 126 141 141 141 99 99 99 101 101 101 134 134 134 125 125 125 129 129 129 129 129 129 118 118 118 107 107 107 122 122 122 100 100 100 155 155 155 105 105 105 121 121 121 152 152 152 103 103 103 133 133 133 127 127 127 115 115 115 149 149 149 109 109 109 143 143 143 147 147 147 135 135 135 129 129 129 130 130 130 130 130 130 111 111 111 118 118 118 138 138 138 139 139 139 101 101 101 140 140 140 144 144 144 139 139 139 108 108 108 116 116 116 111 111 111 131 131 131 126 126 126 136 136 136 133 133 133 122 122 122 143 143 143 158 158 158 115 115 115 150 150 150 132 132 132 147 147 147 106 106 106 123 123 123 158 158 158 152 152 152 113 113 113 134 134 134 124 124 124 147 147 147 107 107 107 138 138 138 107 107 107 150 150 150 120 120 120 112 112 112 131 131 131 108 108 108 155 155 155 141 141 141 126 126 126 108 108 108 113 113 113 156 156 156 146 146 146 150 150 150 119 119 119 130 130 130 149 149 149 139 139 139 121 121 121 123 123 123 129 129 129 132 132 132 150 150 150 128 128 128 125 125 125 104 104 104 106 106 106 151 151 151 153 153 153 117 117 117 132 132 132 103 103 103 108 108 108 157 157 157 119 119 119 143 143 143 108 108 108 116 116 116 
126 126 126 138 138 138 126 126 126 143 143 143 136 136 136 113 113 113 135 135 135 98 98 98 147 147 147 127 127 127 141 141 141 109 109 109 154 154 154 111 111 111 143 143 143 145 145 145 144 144 144 111 111 111 153 153 153 154 154 154 106 106 106 150 150 150 112 112 112 142 142 142 157 157 157 125 125 125 142 142 142 118 118 118 109 109 109 152 152 152 136 136 136 139 139 139 132 132 132 103 103 103 126 126 126 111 111 111 120 120 120 104 104 104 111 111 111 108 108 108 133 133 133 155 155 155 119 119 119 129 129 129 109 109 109 106 106 106 117 117 117 155 155 155 121 121 121 112 112 112 150 150 150 129 129 129 105 105 105 106 106 106 115 115 115 103 103 103 133 133 133 98 98 98 125 125 125 146 146 146 155 155 155 102 102 102 129 129 129 130 130 130 109 109 109 157 157 157 143 143 143 131 131 131 102 102 102 156 156 156 143 143 143 137 137 137 154 154 154 106 106 106 109 109 109 107 107 107 114 114 114 129 129 129 103 103 103 139 139 139 145 145 145 158 158 158 112 112 112 154 154 154 107 107 107 129 129 129 98 98 98 142 142 142 131 131 131 128 128 128 131 131 131 127 127 127 132 132 132 101 101 101 98 98 98 146 146 146 99 99 99 143 143 143 120 120 120 105 105 105 143 143 143 105 105 105 145 145 145 140 140 140 113 113 113 158 158 158 149 149 149 131 131 131 128 128 128 157 157 157 111 111 111 116 116 116 158 158 158 125 125 125 111 111 111 106 106 106 158 158 158 114 114 114 152 152 152 133 133 133 144 144 144 124 124 124 101 101 101 119 119 119 130 130 130 104 104 104 106 106 106 133 133 133 151 151 151 131 131 131 141 141 141 135 135 135 138 138 138 127 127 127 119 119 119 155 155 155 128 128 128 109 109 109 127 127 127 98 98 98 109 109 109 142 142 142 118 118 118 108 108 108 111 111 111 132 132 132 116 116 116 110 110 110 150 150 150 111 111 111 145 145 145 137 137 137 140 140 140 151 151 151 158 158 158 111 111 111 157 157 157 108 108 108 146 146 146 149 149 149 141 141 141 128 128 128 128 128 128 122 122 122 98 98 98 149 149 149 118 118 118 129 129 129 101 101 101 147 147 147 131 131 131 113 113 113 130 130 130 151 151 151 123 123 123 143 143 143 126 126 126 144 144 144 158 158 158 119 119 119 98 98 98 146 146 146 158 158 158 140 140 140 138 138 138 99 99 99 155 155 155 138 138 138 109 109 109 143 143 143 129 129 129 154 154 154 114 114 114 98 98 98 117 117 117 117 117 117 151 151 151 137 137 137 150 150 150 154 154 154 
127 127 127 124 124 124 108 108 108 98 98 98 118 118 118 136 136 136 146 146 146 147 147 147 121 121 121 145 145 145 109 109 109 121 121 121 132 132 132 109 109 109 105 105 105 114 114 114 110 110 110 101 101 101 154 154 154 123 123 123 148 148 148 126 126 126 118 118 118 106 106 106 126 126 126 137 137 137 125 125 125 120 120 120 117 117 117 118 118 118 116 116 116 146 146 146 144 144 144 126 126 126 146 146 146 103 103 103 103 103 103 133 133 133 154 154 154 128 128 128 121 121 121 105 105 105 154 154 154 158 158 158 116 116 116 100 100 100 113 113 113 130 130 130 105 105 105 110 110 110 155 155 155 156 156 156 139 139 139 114 114 114 103 103 103 108 108 108 155 155 155 132 132 132 131 131 131 113 113 113 154 154 154 149 149 149 100 100 100 139 139 139 118 118 118 148 148 148 144 144 144 126 126 126 125 125 125 142 142 142 156 156 156 150 150 150 149 149 149 153 153 153 151 151 151 108 108 108 157 157 157 107 107 107 140 140 140 104 104 104 120 120 120 138 138 138 103 103 103 100 100 100 156 156 156 110 110 110 112 112 112 152 152 152 146 146 146 145 145 145 106 106 106 141 141 141 135 135 135 110 110 110 121 121 121 158 158 158 99 99 99 108 108 108 125 125 125 128 128 128 152 152 152 124 124 124 122 122 122 144 144 144 119 119 119 114 114 114 154 154 154 117 117 117 124 124 124 137 137 137 125 125 125 148 148 148 118 118 118 130 130 130 150 150 150 115 115 115 144 144 144 105 105 105 108 108 108 131 131 131 153 153 153 118 118 118 113 113 113 131 131 131 130 130 130 136 136 136 130 130 130 134 134 134 149 149 149 157 157 157 105 105 105 142 142 142 125 125 125 129 129 129 128 128 128 146 146 146 148 148 148 125 125 125 106 106 106 113 113 113 106 106 106 134 134 134 102 102 102 126 126 126 107 107 107 156 156 156 146 146 146 154 154 154 102 102 102 156 156 156 126 126 126 98 98 98 118 118 118 144 144 144 132 132 132 152 152 152 121 121 121 105 105 105 127 127 127 111 111 111 106 106 106 137 137 137 158 158 158 133 133 133 109 109 109 129 129 129 120 120 120 98 98 98 156 156 156 130 130 130 115 115 115 105 105 105 107 107 107 121 121 121 134 134 134 117 117 117 118 118 118 121 121 121 114 114 114 125 125 125 120 120 120 144 144 144 125 125 125 142 142 142 129 129 129 100 100 100 136 136 136 155 155 155 110 110 110 106 106 106 107 107 107 118 118 118 145 145 145 108 108 108 155 155 155 157 157 157 139 139 139 118 118 118 157 157 157 139 139 139 
150 150 150 116 116 116 146 146 146 99 99 99 139 139 139 123 123 123 120 120 120 101 101 101 148 148 148 136 136 136 128 128 128 112 112 112 123 123 123 157 157 157 156 156 156 155 155 155 101 101 101 133 133 133 151 151 151 113 113 113 144 144 144 101 101 101 135 135 135 130 130 130 114 114 114 131 131 131 130 130 130 155 155 155 151 151 151 131 131 131 135 135 135 142 142 142 149 149 149 125 125 125 145 145 145 129 129 129 150 150 150 106 106 106 132 132 132 140 140 140 146 146 146 103 103 103 154 154 154 111 111 111 104 104 104 153 153 153 109 109 109 107 107 107 130 130 130 103 103 103 124 124 124 115 115 115 108 108 108 100 100 100 147 147 147 124 124 124 135 135 135 121 121 121 121 121 121 127 127 127 154 154 154 99 99 99 112 112 112 144 144 144 126 126 126 99 99 99 116 116 116 120 120 120 109 109 109 153 153 153 103 103 103 158 158 158 158 158 158 100 100 100 112 112 112 103 103 103 155 155 155 123 123 123 114 114 114 126 126 126 130 130 130 140 140 140 143 143 143 140 140 140 144 144 144 134 134 134 106 106 106 120 120 120 157 157 157 131 131 131 149 149 149 154 154 154 134 134 134 105 105 105 139 139 139 104 104 104 106 106 106 98 98 98 126 126 126 117 117 117 153 153 153 133 133 133 118 118 118 153 153 153 135 135 135 132 132 132 99 99 99 133 133 133 98 98 98 116 116 116 101 101 101 130 130 130 99 99 99 148 148 148 114 114 114 146 146 146 125 125 125 122 122 122 109 109 109 125 125 125 157 157 157 102 102 102 120 120 120 132 132 132 109 109 109 102 102 102 138 138 138 119 119 119 103 103 103 107 107 107 140 140 140 158 158 158 142 142 142 100 100 100 154 154 154 120 120 120 134 134 134 156 156 156 156 156 156 137 137 137 115 115 115 98 98 98 108 108 108 118 118 118 150 150 150 124 124 124 105 105 105 119 119 119 150 150 150 119 119 119 146 146 146 150 150 150 123 123 123 110 110 110 126 126 126 136 136 136 114 114 114 105 105 105 157 157 157 121 121 121 117 117 117 138 138 138 123 123 123 102 102 102 140 140 140 118 118 118 125 125 125 118 118 118 117 117 117 122 122 122 157 157 157 136 136 136 124 124 124 108 108 108 157 157 157 115 115 115 137 137 137 105 105 105 138 138 138 128 128 128 126 126 126 128 128 128 120 120 120 153 153 153 140 140 140 148 148 148 130 130 130 158 158 158 157 157 157 128 128 128 121 121 121 117 117 117 110 110 110 148 148 148 122 122 122 154 154 154 107 107 107 149 149 149 113 113 113 129 129 129 
112 112 112 113 113 113 106 106 106 140 140 140 124 124 124 104 104 104 98 98 98 102 102 102 112 112 112 139 139 139 134 134 134 142 142 142 108 108 108 158 158 158 137 137 137 152 152 152 147 147 147 108 108 108 151 151 151 148 148 148 141 141 141 115 115 115 106 106 106 153 153 153 104 104 104 132 132 132 148 148 148 116 116 116 122 122 122 105 105 105 147 147 147 138 138 138 122 122 122 157 157 157 121 121 121 148 148 148 105 105 105 122 122 122 154 154 154 121 121 121 102 102 102 132 132 132 104 104 104 112 112 112 131 131 131 145 145 145 107 107 107 122 122 122 156 156 156 99 99 99 111 111 111 140 140 140 117 117 117 121 121 121 136 136 136 125 125 125 158 158 158 127 127 127 143 143 143 123 123 123 134 134 134 133 133 133 105 105 105 98 98 98 134 134 134 128 128 128 150 150 150 141 141 141 152 152 152 148 148 148 105 105 105 156 156 156 121 121 121 113 113 113 111 111 111 154 154 154 100 100 100 120 120 120 117 117 117 99 99 99 124 124 124 132 132 132 141 141 141 143 143 143 158 158 158 120 120 120 111 111 111 157 157 157 149 149 149 157 157 157 123 123 123 125 125 125 133 133 133 130 130 130 127 127 127 108 108 108 100 100 100 118 118 118 153 153 153 154 154 154 107 107 107 99 99 99 154 154 154 130 130 130 115 115 115 108 108 108 128 128 128 119 119 119 133 133 133 147 147 147 120 120 120 98 98 98 123 123 123 104 104 104 145 145 145 122 122 122 126 126 126 158 158 158 122 122 122 116 116 116 158 158 158 147 147 147 145 145 145 133 133 133 119 119 119 113 113 113 143 143 143 123 123 123 136 136 136 138 138 138 118 118 118 147 147 147 141 141 141 115 115 115 119 119 119 158 158 158 126 126 126 151 151 151 118 118 118 102 102 102 139 139 139 142 142 142 102 102 102 105 105 105 148 148 148 151 151 151 129 129 129 117 117 117 150 150 150 155 155 155 136 136 136 152 152 152 144 144 144 122 122 122 126 126 126 106 106 106 140 140 140 112 112 112 131 131 131 117 117 117 154 154 154 153 153 153 105 105 105 137 137 137 112 112 112 128 128 128 138 138 138 142 142 142 120 120 120 98 98 98 146 146 146 103 103 103 144 144 144 152 152 152 110 110 110 134 134 134 144 144 144 144 144 144 153 153 153 137 137 137 142 142 142 132 132 132 130 130 130 127 127 127 98 98 98 158 158 158 137 137 137 142 142 142 114 114 114 111 111 111 102 102 102 109 109 109 108 108 108 111 111 111 148 148 148 122 122 122 142 142 142 128 128 128 107 107 107 105 105 105 
130 130 130 155 155 155 112 112 112 115 115 115 150 150 150 127 127 127 153 153 153 135 135 135 114 114 114 150 150 150 115 115 115 158 158 158 125 125 125 148 148 148 129 129 129 125 125 125 149 149 149 107 107 107 108 108 108 104 104 104 123 123 123 112 112 112 116 116 116 133 133 133 126 126 126 107 107 107 98 98 98 111 111 111 139 139 139 107 107 107 120 120 120 110 110 110 103 103 103 137 137 137 130 130 130 155 155 155 105 105 105 126 126 126 133 133 133 121 121 121 119 119 119 150 150 150 122 122 122 147 147 147 141 141 141 153 153 153 113 113 113 132 132 132 102 102 102 126 126 126 138 138 138 127 127 127 142 142 142 158 158 158 103 103 103 111 111 111 109 109 109 103 103 103 126 126 126 150 150 150 112 112 112 149 149 149 104 104 104 119 119 119 127 127 127 136 136 136 117 117 117 136 136 136 105 105 105 152 152 152 100 100 100 127 127 127 145 145 145 124 124 124 115 115 115 128 128 128 119 119 119 132 132 132 103 103 103 125 125 125 101 101 101 145 145 145 156 156 156 146 146 146 145 145 145 100 100 100 100 100 100 156 156 156 105 105 105 129 129 129 147 147 147 121 121 121 119 119 119 155 155 155 142 142 142 150 150 150 132 132 132 102 102 102 129 129 129 142 142 142 158 158 158 131 131 131 110 110 110 144 144 144 98 98 98 129 129 129 115 115 115 121 121 121 102 102 102 120 120 120 148 148 148 106 106 106 109 109 109 145 145 145 156 156 156 156 156 156 149 149 149 158 158 158 155 155 155 158 158 158 128 128 128 145 145 145 120 120 120 151 151 151 142 142 142 105 105 105 144 144 144 117 117 117 109 109 109 114 114 114 100 100 100 108 108 108 149 149 149 112 112 112 157 157 157 152 152 152 143 143 143 115 115 115 114 114 114 150 150 150 140 140 140 104 104 104 99 99 99 151 151 151 153 153 153 157 157 157 150 150 150 144 144 144 156 156 156 146 146 146 145 145 145 128 128 128 132 132 132 107 107 107 122 122 122 117 117 117 116 116 116 108 108 108 137 137 137 130 130 130 126 126 126 141 141 141 142 142 142 119 119 119 158 158 158 142 142 142 112 112 112 144 144 144 99 99 99 128 128 128 135 135 135 141 141 141 136 136 136 136 136 136 135 135 135 131 131 131 134 134 134 126 126 126 118 118 118 134 134 134 113 113 113 104 104 104 105 105 105 149 149 149 115 115 115 129 129 129 110 110 110 136 136 136 139 139 139 149 149 149 107 107 107 109 109 109 133 133 133 153 153 153 130 130 130 132 132 132 137 137 137 144 144 144 118 118 118 138 138 138 
115 115 115 157 157 157 122 122 122 154 154 154 135 135 135 98 98 98 128 128 128 112 112 112 126 126 126 150 150 150 150 150 150 143 143 143 156 156 156 157 157 157 135 135 135 115 115 115 128 128 128 147 147 147 153 153 153 108 108 108 139 139 139 103 103 103 121 121 121 114 114 114 158 158 158 153 153 153 148 148 148 136 136 136 140 140 140 109 109 109 117 117 117 158 158 158 108 108 108 143 143 143 155 155 155 147 147 147 143 143 143 126 126 126 100 100 100 112 112 112 117 117 117 155 155 155 157 157 157 116 116 116 153 153 153 136 136 136 133 133 133 122 122 122 124 124 124 129 129 129 135 135 135 105 105 105 136 136 136 158 158 158 123 123 123 138 138 138 155 155 155 114 114 114 117 117 117 136 136 136 126 126 126 137 137 137 137 137 137 138 138 138 123 123 123 133 133 133 126 126 126 108 108 108 100 100 100 130 130 130 124 124 124 121 121 121 126 126 126 125 125 125 140 140 140 123 123 123 102 102 102 116 116 116 147 147 147 130 130 130 150 150 150 125 125 125 137 137 137 127 127 127 127 127 127 103 103 103 108 108 108 123 123 123 120 120 120 128 128 128 100 100 100 150 150 150 108 108 108 140 140 140 129 129 129 133 133 133 116 116 116 98 98 98 145 145 145 121 121 121 130 130 130 111 111 111 144 144 144 100 100 100 140 140 140 125 125 125 125 125 125 144 144 144 146 146 146 115 115 115 115 115 115 137 137 137 145 145 145 157 157 157 107 107 107 113 113 113 101 101 101 118 118 118 140 140 140 125 125 125 150 150 150 142 142 142 116 116 116 99 99 99 125 125 125 149 149 149 136 136 136 146 146 146 149 149 149 123 123 123 108 108 108 123 123 123 138 138 138 154 154 154 125 125 125 119 119 119 123 123 123 154 154 154 106 106 106 110 110 110 110 110 110 123 123 123 151 151 151 157 157 157 123 123 123 99 99 99 113 113 113 129 129 129 121 121 121 155 155 155 158 158 158 112 112 112 141 141 141 118 118 118 115 115 115 109 109 109 108 108 108 154 154 154 157 157 157 101 101 101 120 120 120 106 106 106 126 126 126 101 101 101 104 104 104 155 155 155 124 124 124 131 131 131 150 150 150 132 132 132 145 145 145 103 103 103 98 98 98 137 137 137 102 102 102 124 124 124 138 138 138 119 119 119 157 157 157 103 103 103 116 116 116 156 156 156 117 117 117 98 98 98 115 115 115 135 135 135 109 109 109 128 128 128 132 132 132 110 110 110 131 131 131 156 156 156 120 120 120 100 100 100 98 98 98 126 126 126 157 157 157 124 124 124 100 100 100 148 148 148 
99 99 99 147 147 147 155 155 155 99 99 99 127 127 127 100 100 100 127 127 127 107 107 107 122 122 122 127 127 127 114 114 114 140 140 140 125 125 125 133 133 133 142 142 142 144 144 144 111 111 111 153 153 153 113 113 113 147 147 147 106 106 106 146 146 146 144 144 144 129 129 129 148 148 148 144 144 144 98 98 98 148 148 148 111 111 111 101 101 101 139 139 139 112 112 112 152 152 152 136 136 136 116 116 116 121 121 121 138 138 138 147 147 147 132 132 132 101 101 101 116 116 116 148 148 148 145 145 145 143 143 143 124 124 124 128 128 128 130 130 130 138 138 138 125 125 125 146 146 146 126 126 126 133 133 133 135 135 135 114 114 114 103 103 103 127 127 127 101 101 101 106 106 106 118 118 118 115 115 115 109 109 109 99 99 99 131 131 131 104 104 104 139 139 139 151 151 151 127 127 127 118 118 118 140 140 140 102 102 102 124 124 124 158 158 158 152 152 152 110 110 110 144 144 144 118 118 118 141 141 141 117 117 117 99 99 99 107 107 107 106 106 106 129 129 129 142 142 142 146 146 146 145 145 145 150 150 150 116 116 116 149 149 149 158 158 158 136 136 136 107 107 107 110 110 110 137 137 137 142 142 142 116 116 116 119 119 119 135 135 135 148 148 148 140 140 140 118 118 118 152 152 152 105 105 105 119 119 119 146 146 146 117 117 117 104 104 104 107 107 107 99 99 99 123 123 123 110 110 110 110 110 110 132 132 132 141 141 141 155 155 155 121 121 121 130 130 130 148 148 148 139 139 139 122 122 122 147 147 147 116 116 116 133 133 133 100 100 100 158 158 158 116 116 116 118 118 118 118 118 118 155 155 155 107 107 107 99 99 99 114 114 114 103 103 103 108 108 108 135 135 135 153 153 153 130 130 130 143 143 143 103 103 103 131 131 131 110 110 110 115 115 115 146 146 146 146 146 146 99 99 99 142 142 142 108 108 108 133 133 133 133 133 133 149 149 149 157 157 157 123 123 123 106 106 106 131 131 131 125 125 125 107 107 107 152 152 152 145 145 145 128 128 128 148 148 148 157 157 157 131 131 131 104 104 104 103 103 103 144 144 144 143 143 143 158 158 158 115 115 115 128 128 128 102 102 102 150 150 150 140 140 140 121 121 121 137 137 137 129 129 129 122 122 122 122 122 122 139 139 139 158 158 158 157 157 157 129 129 129 158 158 158 121 121 121 139 139 139 133 133 133 148 148 148 149 149 149 126 126 126 137 137 137 120 120 120 115 115 115 137 137 137 155 155 155 123 123 123 142 142 142 140 140 140 110 110 110 141 141 141 98 98 98 140 140 140 147 147 147 
151 151 151 123 123 123 109 109 109 129 129 129 154 154 154 135 135 135 154 154 154 136 136 136 136 136 136 154 154 154 106 106 106 136 136 136 117 117 117 149 149 149 112 112 112 108 108 108 141 141 141 140 140 140 149 149 149 104 104 104 98 98 98 127 127 127 101 101 101 126 126 126 112 112 112 145 145 145 138 138 138 157 157 157 146 146 146 121 121 121 145 145 145 140 140 140 148 148 148 158 158 158 112 112 112 145 145 145 135 135 135 109 109 109 122 122 122 112 112 112 105 105 105 132 132 132 152 152 152 126 126 126 122 122 122 105 105 105 136 136 136 107 107 107 149 149 149 127 127 127 113 113 113 150 150 150 158 158 158 118 118 118 119 119 119 112 112 112 105 105 105 98 98 98 110 110 110 155 155 155 121 121 121 99 99 99 138 138 138 110 110 110 98 98 98 152 152 152 98 98 98 135 135 135 103 103 103 122 122 122 152 152 152 110 110 110 156 156 156 147 147 147 140 140 140 121 121 121 157 157 157 117 117 117 130 130 130 147 147 147 148 148 148 148 148 148 140 140 140 148 148 148 107 107 107 100 100 100 101 101 101 116 116 116 102 102 102 115 115 115 112 112 112 125 125 125 116 116 116 154 154 154 139 139 139 117 117 117 148 148 148 139 139 139 156 156 156 155 155 155 104 104 104 151 151 151 108 108 108 103 103 103 142 142 142 150 150 150 127 127 127 140 140 140 110 110 110 100 100 100 130 130 130 100 100 100 152 152 152 114 114 114 152 152 152 101 101 101 118 118 118 157 157 157 119 119 119 123 123 123 113 113 113 136 136 136 152 152 152 132 132 132 133 133 133 135 135 135 153 153 153 122 122 122 115 115 115 152 152 152 120 120 120 124 124 124 147 147 147 130 130 130 129 129 129 130 130 130 121 121 121 99 99 99 111 111 111 134 134 134 102 102 102 145 145 145 138 138 138 156 156 156 100 100 100 131 131 131 100 100 100 121 121 121 129 129 129 124 124 124 148 148 148 146 146 146 103 103 103 141 141 141 119 119 119 138 138 138 119 119 119 115 115 115 102 102 102 137 137 137 111 111 111 124 124 124 104 104 104 99 99 99 98 98 98 135 135 135 131 131 131 123 123 123 137 137 137 146 146 146 100 100 100 143 143 143 132 132 132 140 140 140 142 142 142 137 137 137 112 112 112 145 145 145 101 101 101 145 145 145 112 112 112 151 151 151 133 133 133 117 117 117 135 135 135 156 156 156 157 157 157 157 157 157 115 115 115 100 100 100 137 137 137 128 128 128 129 129 129 143 143 143 131 131 131 131 131 131 119 119 119 103 103 103 156 156 156 99 99 99 
153 153 153 98 98 98 144 144 144 126 126 126 140 140 140 128 128 128 104 104 104 157 157 157 116 116 116 107 107 107 145 145 145 130 130 130 101 101 101 119 119 119 149 149 149 139 139 139 119 119 119 147 147 147 139 139 139 136 136 136 152 152 152 117 117 117 107 107 107 124 124 124 103 103 103 140 140 140 157 157 157 126 126 126 147 147 147 154 154 154 128 128 128 141 141 141 154 154 154 115 115 115 110 110 110 138 138 138 147 147 147 119 119 119 136 136 136 104 104 104 128 128 128 122 122 122 136 136 136 134 134 134 255 255 255 255 255 255 243 243 243 233 233 233 246 246 246 255 255 255 255 255 255 239 239 239 244 244 244 255 255 255 255 255 255 249 249 249 255 255 255 138 138 138 152 152 152 126 126 126 133 133 133 121 121 121 110 110 110 131 131 131 141 141 141 122 122 122 110 110 110 129 129 129 143 143 143 150 150 150 136 136 136 115 115 115 115 115 115 115 115 115 151 151 151 104 104 104 148 148 148 108 108 108 114 114 114 108 108 108 108 108 108 101 101 101 124 124 124 127 127 127 99 99 99 105 105 105 151 151 151 139 139 139 145 145 145 146 146 146 108 108 108 121 121 121 111 111 111 120 120 120 154 154 154 154 154 154 145 145 145 107 107 107 124 124 124 131 131 131 100 100 100 103 103 103 148 148 148 118 118 118 123 123 123 142 142 142 126 126 126 114 114 114 152 152 152 143 143 143 124 124 124 101 101 101 146 146 146 150 150 150 132 132 132 148 148 148 157 157 157 126 126 126 130 130 130 145 145 145 114 114 114 141 141 141 107 107 107 127 127 127 102 102 102 103 103 103 122 122 122 151 151 151 114 114 114 150 150 150 124 124 124 117 117 117 158 158 158 115 115 115 137 137 137 124 124 124 99 99 99 106 106 106 140 140 140 153 153 153 151 151 151 105 105 105 98 98 98 139 139 139 98 98 98 132 132 132 130 130 130 98 98 98 100 100 100 101 101 101 145 145 145 116 116 116 146 146 146 154 154 154 147 147 147 151 151 151 100 100 100 112 112 112 143 143 143 117 117 117 103 103 103 110 110 110 136 136 136 102 102 102 128 128 128 116 116 116 128 128 128 129 129 129 124 124 124 111 111 111 125 125 125 117 117 117 118 118 118 127 127 127 99 99 99 120 120 120 103 103 103 133 133 133 120 120 120 105 105 105 138 138 138 106 106 106 125 125 125 126 126 126 102 102 102 115 115 115 120 120 120 104 104 104 129 129 129 106 106 106 125 125 125 134 134 134 119 119 119 102 102 102 141 141 141 149 149 149 122 122 122 112 112 112 121 121 121 149 149 149 
126 126 126 150 150 150 109 109 109 148 148 148 119 119 119 110 110 110 110 110 110 124 124 124 147 147 147 132 132 132 133 133 133 126 126 126 143 143 143 101 101 101 154 154 154 147 147 147 118 118 118 115 115 115 155 155 155 149 149 149 124 124 124 122 122 122 126 126 126 147 147 147 126 126 126 108 108 108 139 139 139 151 151 151 125 125 125 101 101 101 143 143 143 155 155 155 155 155 155 154 154 154 144 144 144 115 115 115 107 107 107 158 158 158 141 141 141 158 158 158 134 134 134 117 117 117 252 252 252 245 245 245 247 247 247 248 248 248 233 233 233 255 255 255 255 255 255 231 231 231 255 255 255 234 234 234 255 255 255 227 227 227 255 255 255 225 225 225 237 237 237 255 255 255 255 255 255 139 139 139 141 141 141 139 139 139 135 135 135 138 138 138 136 136 136 123 123 123 157 157 157 145 145 145 124 124 124 142 142 142 144 144 144 99 99 99 100 100 100 112 112 112 119 119 119 123 123 123 137 137 137 129 129 129 106 106 106 119 119 119 136 136 136 141 141 141 130 130 130 105 105 105 143 143 143 130 130 130 107 107 107 157 157 157 109 109 109 101 101 101 138 138 138 155 155 155 142 142 142 116 116 116 136 136 136 119 119 119 143 143 143 134 134 134 107 107 107 109 109 109 117 117 117 155 155 155 112 112 112 122 122 122 111 111 111 134 134 134 147 147 147 150 150 150 104 104 104 155 155 155 112 112 112 144 144 144 139 139 139 145 145 145 154 154 154 123 123 123 118 118 118 102 102 102 122 122 122 129 129 129 108 108 108 101 101 101 125 125 125 154 154 154 121 121 121 102 102 102 117 117 117 108 108 108 141 141 141 126 126 126 119 119 119 99 99 99 125 125 125 135 135 135 123 123 123 138 138 138 110 110 110 113 113 113 129 129 129 119 119 119 112 112 112 146 146 146 106 106 106 153 153 153 134 134 134 101 101 101 118 118 118 154 154 154 108 108 108 144 144 144 124 124 124 118 118 118 149 149 149 152 152 152 113 113 113 111 111 111 158 158 158 132 132 132 121 121 121 140 140 140 102 102 102 144 144 144 144 144 144 131 131 131 121 121 121 110 110 110 110 110 110 135 135 135 126 126 126 143 143 143 158 158 158 142 142 142 130 130 130 106 106 106 138 138 138 105 105 105 109 109 109 99 99 99 100 100 100 119 119 119 145 145 145 129 129 129 141 141 141 135 135 135 124 124 124 98 98 98 151 151 151 123 123 123 132 132 132 113 113 113 107 107 107 138 138 138 101 101 101 155 155 155 110 110 110 124 124 124 106 106 106 124 124 124 102 102 102 136 136 136 
109 109 109 102 102 102 121 121 121 143 143 143 110 110 110 101 101 101 153 153 153 123 123 123 102 102 102 157 157 157 147 147 147 152 152 152 127 127 127 129 129 129 128 128 128 153 153 153 129 129 129 120 120 120 120 120 120 105 105 105 138 138 138 131 131 131 147 147 147 143 143 143 127 127 127 99 99 99 110 110 110 135 135 135 125 125 125 114 114 114 113 113 113 138 138 138 118 118 118 136 136 136 123 123 123 132 132 132 141 141 141 117 117 117 99 99 99 146 146 146 244 244 244 255 255 255 255 255 255 255 255 255 247 247 247 237 237 237 255 255 255 255 255 255 255 255 255 231 231 231 229 229 229 241 241 241 255 255 255 255 255 255 225 225 225 234 234 234 255 255 255 239 239 239 255 255 255 250 250 250 255 255 255 101 101 101 102 102 102 151 151 151 141 141 141 129 129 129 124 124 124 126 126 126 150 150 150 127 127 127 113 113 113 109 109 109 116 116 116 156 156 156 99 99 99 141 141 141 109 109 109 144 144 144 136 136 136 146 146 146 151 151 151 142 142 142 103 103 103 131 131 131 134 134 134 105 105 105 141 141 141 132 132 132 119 119 119 129 129 129 157 157 157 152 152 152 134 134 134 102 102 102 144 144 144 118 118 118 136 136 136 111 111 111 146 146 146 129 129 129 141 141 141 100 100 100 140 140 140 100 100 100 99 99 99 141 141 141 143 143 143 113 113 113 127 127 127 122 122 122 100 100 100 121 121 121 105 105 105 108 108 108 156 156 156 144 144 144 117 117 117 140 140 140 117 117 117 139 139 139 112 112 112 117 117 117 132 132 132 148 148 148 123 123 123 119 119 119 108 108 108 100 100 100 132 132 132 156 156 156 132 132 132 114 114 114 100 100 100 115 115 115 119 119 119 103 103 103 98 98 98 103 103 103 118 118 118 129 129 129 128 128 128 123 123 123 154 154 154 137 137 137 135 135 135 153 153 153 122 122 122 154 154 154 135 135 135 141 141 141 134 134 134 151 151 151 101 101 101 109 109 109 141 141 141 127 127 127 130 130 130 153 153 153 131 131 131 104 104 104 152 152 152 104 104 104 122 122 122 156 156 156 122 122 122 145 145 145 101 101 101 124 124 124 151 151 151 123 123 123 157 157 157 122 122 122 150 150 150 152 152 152 100 100 100 126 126 126 146 146 146 127 127 127 122 122 122 124 124 124 111 111 111 99 99 99 117 117 117 115 115 115 111 111 111 101 101 101 146 146 146 145 145 145 156 156 156 118 118 118 153 153 153 149 149 149 125 125 125 119 119 119 149 149 149 151 151 151 105 105 105 152 152 152 118 118 118 99 99 99 
118 118 118 116 116 116 123 123 123 110 110 110 111 111 111 128 128 128 138 138 138 98 98 98 98 98 98 103 103 103 127 127 127 111 111 111 105 105 105 146 146 146 130 130 130 120 120 120 149 149 149 117 117 117 106 106 106 148 148 148 138 138 138 101 101 101 140 140 140 106 106 106 124 124 124 130 130 130 100 100 100 131 131 131 125 125 125 120 120 120 133 133 133 146 146 146 140 140 140 99 99 99 99 99 99 153 153 153 129 129 129 141 141 141 255 255 255 255 255 255 255 255 255 250 250 250 255 255 255 255 255 255 239 239 239 243 243 243 244 244 244 231 231 231 255 255 255 254 254 254 255 255 255 244 244 244 255 255 255 255 255 255 252 252 252 255 255 255 236 236 236 254 254 254 255 255 255 255 255 255 255 255 255 232 232 232 255 255 255 132 132 132 106 106 106 129 129 129 128 128 128 140 140 140 111 111 111 124 124 124 112 112 112 101 101 101 152 152 152 98 98 98 98 98 98 105 105 105 117 117 117 119 119 119 112 112 112 157 157 157 149 149 149 109 109 109 115 115 115 122 122 122 149 149 149 144 144 144 122 122 122 102 102 102 112 112 112 155 155 155 143 143 143 106 106 106 103 103 103 112 112 112 142 142 142 113 113 113 145 145 145 111 111 111 157 157 157 158 158 158 139 139 139 111 111 111 103 103 103 132 132 132 113 113 113 103 103 103 142 142 142 134 134 134 125 125 125 158 158 158 132 132 132 117 117 117 108 108 108 149 149 149 141 141 141 101 101 101 134 134 134 104 104 104 105 105 105 150 150 150 102 102 102 152 152 152 99 99 99 109 109 109 107 107 107 143 143 143 125 125 125 154 154 154 158 158 158 125 125 125 153 153 153 141 141 141 138 138 138 99 99 99 114 114 114 156 156 156 105 105 105 99 99 99 131 131 131 134 134 134 98 98 98 105 105 105 153 153 153 109 109 109 158 158 158 135 135 135 114 114 114 136 136 136 144 144 144 121 121 121 129 129 129 150 150 150 116 116 116 131 131 131 101 101 101 125 125 125 117 117 117 130 130 130 120 120 120 119 119 119 157 157 157 116 116 116 101 101 101 139 139 139 118 118 118 119 119 119 136 136 136 127 127 127 121 121 121 108 108 108 102 102 102 121 121 121 117 117 117 98 98 98 134 134 134 119 119 119 135 135 135 150 150 150 157 157 157 122 122 122 114 114 114 129 129 129 114 114 114 132 132 132 103 103 103 119 119 119 100 100 100 123 123 123 151 151 151 124 124 124 146 146 146 149 149 149 143 143 143 149 149 149 129 129 129 104 104 104 111 111 111 108 108 108 133 133 133 134 134 134 
119 119 119 139 139 139 99 99 99 140 140 140 139 139 139 137 137 137 100 100 100 117 117 117 129 129 129 100 100 100 144 144 144 147 147 147 134 134 134 99 99 99 123 123 123 139 139 139 120 120 120 125 125 125 105 105 105 114 114 114 152 152 152 153 153 153 106 106 106 138 138 138 145 145 145 138 138 138 146 146 146 98 98 98 150 150 150 122 122 122 136 136 136 112 112 112 104 104 104 139 139 139 155 155 155 147 147 147 118 118 118 225 225 225 232 232 232 255 255 255 230 230 230 255 255 255 255 255 255 255 255 255 255 255 255 230 230 230 246 246 246 244 244 244 255 255 255 254 254 254 255 255 255 255 255 255 250 250 250 255 255 255 236 236 236 237 237 237 250 250 250 255 255 255 239 239 239 241 241 241 249 249 249 255 255 255 255 255 255 255 255 255 131 131 131 127 127 127 116 116 116 153 153 153 127 127 127 125 125 125 145 145 145 134 134 134 120 120 120 125 125 125 114 114 114 115 115 115 133 133 133 136 136 136 137 137 137 109 109 109 106 106 106 111 111 111 139 139 139 131 131 131 157 157 157 152 152 152 145 145 145 123 123 123 152 152 152 98 98 98 140 140 140 115 115 115 153 153 153 112 112 112 147 147 147 127 127 127 143 143 143 106 106 106 121 121 121 113 113 113 133 133 133 109 109 109 150 150 150 155 155 155 136 136 136 105 105 105 114 114 114 112 112 112 145 145 145 153 153 153 123 123 123 155 155 155 107 107 107 105 105 105 130 130 130 108 108 108 98 98 98 116 116 116 133 133 133 152 152 152 119 119 119 116 116 116 108 108 108 115 115 115 132 132 132 98 98 98 146 146 146 116 116 116 106 106 106 108 108 108 132 132 132 142 142 142 121 121 121 125 125 125 140 140 140 98 98 98 132 132 132 156 156 156 115 115 115 121 121 121 152 152 152 140 140 140 117 117 117 101 101 101 148 148 148 149 149 149 113 113 113 148 148 148 109 109 109 148 148 148 142 142 142 132 132 132 106 106 106 154 154 154 149 149 149 140 140 140 157 157 157 136 136 136 100 100 100 104 104 104 148 148 148 134 134 134 150 150 150 110 110 110 100 100 100 132 132 132 112 112 112 136 136 136 131 131 131 129 129 129 100 100 100 125 125 125 111 111 111 122 122 122 130 130 130 102 102 102 114 114 114 145 145 145 152 152 152 125 125 125 134 134 134 137 137 137 98 98 98 144 144 144 135 135 135 149 149 149 128 128 128 133 133 133 128 128 128 130 130 130 139 139 139 117 117 117 107 107 107 133 133 133 129 129 129 111 111 111 106 106 106 146 146 146 151 151 151 141 141 141 
116 116 116 154 154 154 107 107 107 131 131 131 117 117 117 141 141 141 135 135 135 133 133 133 129 129 129 129 129 129 102 102 102 107 107 107 109 109 109 102 102 102 153 153 153 148 148 148 156 156 156 124 124 124 122 122 122 127 127 127 156 156 156 105 105 105 147 147 147 106 106 106 140 140 140 119 119 119 119 119 119 150 150 150 106 106 106 112 112 112 132 132 132 125 125 125 109 109 109 144 144 144 99 99 99 128 128 128 253 253 253 255 255 255 229 229 229 226 226 226 236 236 236 235 235 235 235 235 235 247 247 247 240 240 240 231 231 231 239 239 239 239 239 239 255 255 255 255 255 255 255 255 255 255 255 255 255 255 255 255 255 255 255 255 255 255 255 255 255 255 255 228 228 228 246 246 246 229 229 229 244 244 244 255 255 255 255 255 255 255 255 255 255 255 255 133 133 133 99 99 99 110 110 110 111 111 111 106 106 106 113 113 113 124 124 124 116 116 116 123 123 123 148 148 148 133 133 133 130 130 130 101 101 101 149 149 149 102 102 102 140 140 140 132 132 132 136 136 136 128 128 128 106 106 106 118 118 118 98 98 98 102 102 102 122 122 122 121 121 121 107 107 107 143 143 143 118 118 118 142 142 142 115 115 115 102 102 102 118 118 118 116 116 116 117 117 117 133 133 133 124 124 124 132 132 132 98 98 98 145 145 145 99 99 99 149 149 149 119 119 119 131 131 131 152 152 152 110 110 110 137 137 137 135 135 135 146 146 146 114 114 114 107 107 107 154 154 154 135 135 135 107 107 107 98 98 98 100 100 100 132 132 132 109 109 109 145 145 145 153 153 153 155 155 155 103 103 103 98 98 98 115 115 115 122 122 122 119 119 119 150 150 150 150 150 150 156 156 156 151 151 151 136 136 136 157 157 157 143 143 143 158 158 158 131 131 131 136 136 136 109 109 109 109 109 109 115 115 115 98 98 98 127 127 127 124 124 124 154 154 154 103 103 103 135 135 135 156 156 156 107 107 107 108 108 108 108 108 108 155 155 155 104 104 104 105 105 105 99 99 99 105 105 105 122 122 122 125 125 125 128 128 128 113 113 113 117 117 117 125 125 125 107 107 107 155 155 155 125 125 125 152 152 152 156 156 156 158 158 158 132 132 132 108 108 108 110 110 110 151 151 151 108 108 108 140 140 140 116 116 116 106 106 106 147 147 147 153 153 153 103 103 103 157 157 157 104 104 104 114 114 114 155 155 155 111 111 111 121 121 121 156 156 156 120 120 120 147 147 147 125 125 125 150 150 150 101 101 101 144 144 144 119 119 119 113 113 113 142 142 142 148 148 148 106 106 106 142 142 142 
148 148 148 142 142 142 154 154 154 99 99 99 134 134 134 104 104 104 143 143 143 154 154 154 114 114 114 132 132 132 148 148 148 119 119 119 130 130 130 155 155 155 137 137 137 126 126 126 109 109 109 101 101 101 125 125 125 131 131 131 150 150 150 152 152 152 124 124 124 156 156 156 139 139 139 145 145 145 110 110 110 125 125 125 135 135 135 120 120 120 108 108 108 126 126 126 104 104 104 105 105 105 129 129 129 255 255 255 238 238 238 241 241 241 255 255 255 254 254 254 255 255 255 255 255 255 255 255 255 248 248 248 254 254 254 255 255 255 255 255 255 255 255 255 255 255 255 244 244 244 239 239 239 255 255 255 240 240 240 255 255 255 252 252 252 255 255 255 254 254 254 255 255 255 249 249 249 232 232 232 230 230 230 255 255 255 255 255 255 238 238 238 255 255 255 233 233 233 155 155 155 155 155 155 124 124 124 136 136 136 126 126 126 115 115 115 107 107 107 120 120 120 140 140 140 136 136 136 153 153 153 132 132 132 118 118 118 131 131 131 153 153 153 132 132 132 103 103 103 107 107 107 112 112 112 132 132 132 105 105 105 142 142 142 113 113 113 129 129 129 149 149 149 120 120 120 105 105 105 126 126 126 133 133 133 149 149 149 136 136 136 131 131 131 147 147 147 101 101 101 109 109 109 116 116 116 120 120 120 118 118 118 140 140 140 103 103 103 158 158 158 137 137 137 137 137 137 117 117 117 109 109 109 133 133 133 152 152 152 114 114 114 143 143 143 105 105 105 149 149 149 150 150 150 151 151 151 105 105 105 120 120 120 144 144 144 127 127 127 129 129 129 113 113 113 103 103 103 119 119 119 151 151 151 136 136 136 110 110 110 156 156 156 147 147 147 128 128 128 119 119 119 108 108 108 112 112 112 124 124 124 108 108 108 151 151 151 104 104 104 127 127 127 101 101 101 139 139 139 122 122 122 120 120 120 123 123 123 130 130 130 112 112 112 116 116 116 124 124 124 121 121 121 139 139 139 109 109 109 152 152 152 109 109 109 126 126 126 157 157 157 133 133 133 118 118 118 136 136 136 145 145 145 117 117 117 127 127 127 116 116 116 138 138 138 137 137 137 130 130 130 103 103 103 147 147 147 122 122 122 111 111 111 118 118 118 128 128 128 153 153 153 142 142 142 152 152 152 119 119 119 115 115 115 107 107 107 138 138 138 142 142 142 130 130 130 120 120 120 155 155 155 123 123 123 131 131 131 123 123 123 123 123 123 107 107 107 145 145 145 102 102 102 154 154 154 104 104 104 131 131 131 114 114 114 144 144 144 112 112 112 148 148 148 152 152 152 100 100 100 
114 114 114 106 106 106 122 122 122 144 144 144 102 102 102 108 108 108 139 139 139 126 126 126 125 125 125 148 148 148 105 105 105 110 110 110 119 119 119 127 127 127 109 109 109 146 146 146 101 101 101 136 136 136 112 112 112 111 111 111 122 122 122 116 116 116 108 108 108 130 130 130 150 150 150 126 126 126 118 118 118 103 103 103 116 116 116 113 113 113 107 107 107 132 132 132 121 121 121 134 134 134 246 246 246 255 255 255 255 255 255 226 226 226 255 255 255 239 239 239 255 255 255 229 229 229 254 254 254 238 238 238 255 255 255 255 255 255 225 225 225 255 255 255 244 244 244 241 241 241 255 255 255 255 255 255 255 255 255 232 232 232 244 244 244 252 252 252 255 255 255 255 255 255 255 255 255 255 255 255 255 255 255 255 255 255 255 255 255 245 245 245 248 248 248 255 255 255 255 255 255 108 108 108 152 152 152 145 145 145 124 124 124 144 144 144 151 151 151 153 153 153 98 98 98 127 127 127 136 136 136 100 100 100 109 109 109 157 157 157 116 116 116 103 103 103 142 142 142 153 153 153 112 112 112 102 102 102 119 119 119 150 150 150 143 143 143 156 156 156 146 146 146 138 138 138 143 143 143 116 116 116 158 158 158 105 105 105 110 110 110 148 148 148 115 115 115 106 106 106 136 136 136 141 141 141 152 152 152 129 129 129 138 138 138 155 155 155 99 99 99 115 115 115 157 157 157 110 110 110 114 114 114 115 115 115 118 118 118 99 99 99 109 109 109 132 132 132 105 105 105 132 132 132 125 125 125 150 150 150 131 131 131 113 113 113 129 129 129 115 115 115 133 133 133 128 128 128 124 124 124 145 145 145 119 119 119 143 143 143 153 153 153 158 158 158 128 128 128 149 149 149 130 130 130 107 107 107 145 145 145 131 131 131 126 126 126 143 143 143 146 146 146 144 144 144 101 101 101 105 105 105 147 147 147 114 114 114 141 141 141 154 154 154 151 151 151 108 108 108 145 145 145 125 125 125 123 123 123 117 117 117 143 143 143 158 158 158 150 150 150 110 110 110 144 144 144 110 110 110 156 156 156 141 141 141 111 111 111 125 125 125 131 131 131 145 145 145 136 136 136 119 119 119 120 120 120 103 103 103 105 105 105 107 107 107 152 152 152 109 109 109 116 116 116 140 140 140 127 127 127 98 98 98 138 138 138 119 119 119 108 108 108 124 124 124 147 147 147 133 133 133 146 146 146 133 133 133 134 134 134 137 137 137 145 145 145 122 122 122 151 151 151 144 144 144 104 104 104 104 104 104 110 110 110 139 139 139 153 153 153 150 150 150 99 99 99 114 114 114 
156 156 156 106 106 106 125 125 125 151 151 151 119 119 119 143 143 143 132 132 132 149 149 149 144 144 144 111 111 111 111 111 111 154 154 154 140 140 140 101 101 101 131 131 131 127 127 127 138 138 138 106 106 106 107 107 107 127 127 127 130 130 130 99 99 99 112 112 112 138 138 138 107 107 107 127 127 127 118 118 118 102 102 102 118 118 118 119 119 119 120 120 120 117 117 117 130 130 130 255 255 255 236 236 236 255 255 255 255 255 255 255 255 255 255 255 255 248 248 248 227 227 227 225 225 225 246 246 246 255 255 255 230 230 230 255 255 255 241 241 241 255 255 255 228 228 228 250 250 250 243 243 243 255 255 255 254 254 254 255 255 255 242 242 242 255 255 255 227 227 227 255 255 255 255 255 255 250 250 250 225 225 225 231 231 231 255 255 255 255 255 255 255 255 255 255 255 255 254 254 254 255 255 255 147 147 147 113 113 113 157 157 157 149 149 149 115 115 115 117 117 117 137 137 137 123 123 123 110 110 110 153 153 153 110 110 110 115 115 115 120 120 120 128 128 128 153 153 153 149 149 149 101 101 101 110 110 110 128 128 128 106 106 106 148 148 148 112 112 112 133 133 133 148 148 148 120 120 120 118 118 118 122 122 122 117 117 117 119 119 119 153 153 153 152 152 152 107 107 107 107 107 107 150 150 150 100 100 100 125 125 125 110 110 110 139 139 139 150 150 150 124 124 124 135 135 135 103 103 103 142 142 142 98 98 98 133 133 133 136 136 136 151 151 151 138 138 138 148 148 148 121 121 121 146 146 146 137 137 137 137 137 137 122 122 122 129 129 129 98 98 98 143 143 143 155 155 155 119 119 119 105 105 105 149 149 149 112 112 112 115 115 115 99 99 99 106 106 106 119 119 119 126 126 126 118 118 118 99 99 99 119 119 119 145 145 145 138 138 138 124 124 124 130 130 130 139 139 139 100 100 100 107 107 107 131 131 131 141 141 141 158 158 158 156 156 156 130 130 130 138 138 138 134 134 134 155 155 155 110 110 110 136 136 136 141 141 141 106 106 106 157 157 157 148 148 148 98 98 98 113 113 113 104 104 104 100 100 100 121 121 121 125 125 125 130 130 130 143 143 143 128 128 128 152 152 152 131 131 131 108 108 108 119 119 119 102 102 102 151 151 151 122 122 122 114 114 114 125 125 125 104 104 104 113 113 113 125 125 125 136 136 136 155 155 155 100 100 100 134 134 134 107 107 107 141 141 141 116 116 116 115 115 115 139 139 139 106 106 106 118 118 118 154 154 154 114 114 114 120 120 120 118 118 118 142 142 142 152 152 152 103 103 103 113 113 113 147 147 147 
138 138 138 125 125 125 108 108 108 145 145 145 119 119 119 132 132 132 100 100 100 147 147 147 140 140 140 117 117 117 113 113 113 119 119 119 113 113 113 117 117 117 156 156 156 122 122 122 99 99 99 113 113 113 142 142 142 143 143 143 121 121 121 101 101 101 138 138 138 138 138 138 125 125 125 98 98 98 123 123 123 120 120 120 105 105 105 138 138 138 109 109 109 147 147 147 107 107 107 248 248 248 255 255 255 255 255 255 255 255 255 255 255 255 245 245 245 255 255 255 255 255 255 255 255 255 225 225 225 240 240 240 255 255 255 255 255 255 255 255 255 226 226 226 238 238 238 247 247 247 255 255 255 255 255 255 250 250 250 251 251 251 244 244 244 255 255 255 253 253 253 255 255 255 239 239 239 255 255 255 251 251 251 252 252 252 252 252 252 255 255 255 255 255 255 229 229 229 231 231 231 255 255 255 141 141 141 125 125 125 125 125 125 141 141 141 101 101 101 127 127 127 156 156 156 99 99 99 125 125 125 136 136 136 101 101 101 140 140 140 98 98 98 147 147 147 117 117 117 125 125 125 114 114 114 139 139 139 119 119 119 144 144 144 122 122 122 135 135 135 122 122 122 150 150 150 103 103 103 150 150 150 124 124 124 153 153 153 154 154 154 131 131 131 142 142 142 138 138 138 99 99 99 110 110 110 122 122 122 102 102 102 139 139 139 121 121 121 106 106 106 105 105 105 99 99 99 109 109 109 149 149 149 101 101 101 99 99 99 110 110 110 130 130 130 118 118 118 151 151 151 151 151 151 103 103 103 114 114 114 129 129 129 128 128 128 108 108 108 134 134 134 121 121 121 134 134 134 130 130 130 116 116 116 108 108 108 113 113 113 158 158 158 109 109 109 127 127 127 122 122 122 116 116 116 108 108 108 145 145 145 124 124 124 117 117 117 148 148 148 135 135 135 108 108 108 151 151 151 138 138 138 120 120 120 123 123 123 158 158 158 114 114 114 117 117 117 105 105 105 132 132 132 149 149 149 137 137 137 142 142 142 126 126 126 99 99 99 120 120 120 98 98 98 119 119 119 130 130 130 115 115 115 118 118 118 144 144 144 145 145 145 144 144 144 101 101 101 157 157 157 131 131 131 127 127 127 115 115 115 122 122 122 105 105 105 125 125 125 115 115 115 145 145 145 149 149 149 142 142 142 147 147 147 106 106 106 100 100 100 154 154 154 141 141 141 153 153 153 134 134 134 124 124 124 121 121 121 135 135 135 148 148 148 123 123 123 156 156 156 120 120 120 140 140 140 117 117 117 105 105 105 128 128 128 103 103 103 110 110 110 126 126 126 138 138 138 139 139 139 
144 144 144 101 101 101 148 148 148 112 112 112 120 120 120 134 134 134 105 105 105 103 103 103 124 124 124 115 115 115 108 108 108 121 121 121 158 158 158 102 102 102 157 157 157 126 126 126 127 127 127 133 133 133 115 115 115 152 152 152 132 132 132 139 139 139 136 136 136 152 152 152 146 146 146 107 107 107 98 98 98 99 99 99 136 136 136 140 140 140 140 140 140 123 123 123 255 255 255 255 255 255 255 255 255 234 234 234 234 234 234 255 255 255 241 241 241 255 255 255 232 232 232 251 251 251 225 225 225 231 231 231 255 255 255 255 255 255 255 255 255 226 226 226 255 255 255 255 255 255 255 255 255 236 236 236 255 255 255 255 255 255 231 231 231 251 251 251 255 255 255 231 231 231 252 252 252 246 246 246 255 255 255 234 234 234 255 255 255 255 255 255 255 255 255 255 255 255 255 255 255 255 255 255 245 245 245 99 99 99 130 130 130 125 125 125 126 126 126 130 130 130 134 134 134 98 98 98 130 130 130 111 111 111 99 99 99 107 107 107 106 106 106 157 157 157 119 119 119 143 143 143 131 131 131 125 125 125 108 108 108 115 115 115 134 134 134 135 135 135 138 138 138 123 123 123 146 146 146 126 126 126 99 99 99 130 130 130 157 157 157 145 145 145 124 124 124 118 118 118 147 147 147 156 156 156 148 148 148 116 116 116 129 129 129 123 123 123 116 116 116 103 103 103 138 138 138 119 119 119 112 112 112 147 147 147 118 118 118 135 135 135 131 131 131 151 151 151 104 104 104 143 143 143 107 107 107 142 142 142 119 119 119 150 150 150 106 106 106 109 109 109 117 117 117 108 108 108 141 141 141 117 117 117 157 157 157 108 108 108 139 139 139 147 147 147 106 106 106 128 128 128 104 104 104 137 137 137 155 155 155 124 124 124 144 144 144 135 135 135 148 148 148 98 98 98 123 123 123 107 107 107 137 137 137 158 158 158 101 101 101 143 143 143 142 142 142 113 113 113 126 126 126 104 104 104 104 104 104 137 137 137 115 115 115 125 125 125 147 147 147 99 99 99 146 146 146 147 147 147 110 110 110 126 126 126 136 136 136 120 120 120 98 98 98 144 144 144 100 100 100 155 155 155 110 110 110 147 147 147 133 133 133 99 99 99 147 147 147 158 158 158 110 110 110 127 127 127 98 98 98 113 113 113 112 112 112 142 142 142 128 128 128 142 142 142 149 149 149 136 136 136 120 120 120 107 107 107 102 102 102 110 110 110 109 109 109 150 150 150 99 99 99 123 123 123 120 120 120 139 139 139 145 145 145 120 120 120 124 124 124 147 147 147 116 116 116 136 136 136 
135 135 135 152 152 152 139 139 139 125 125 125 153 153 153 151 151 151 155 155 155 156 156 156 108 108 108 108 108 108 139 139 139 138 138 138 154 154 154 131 131 131 118 118 118 116 116 116 141 141 141 122 122 122 128 128 128 154 154 154 116 116 116 131 131 131 118 118 118 138 138 138 111 111 111 104 104 104 99 99 99 138 138 138 153 153 153 119 119 119 115 115 115 132 132 132 241 241 241 225 225 225 225 225 225 238 238 238 255 255 255 255 255 255 235 235 235 227 227 227 235 235 235 255 255 255 255 255 255 231 231 231 251 251 251 229 229 229 249 249 249 235 235 235 255 255 255 255 255 255 230 230 230 255 255 255 254 254 254 252 252 252 254 254 254 255 255 255 255 255 255 255 255 255 248 248 248 254 254 254 255 255 255 255 255 255 229 229 229 236 236 236 255 255 255 230 230 230 251 251 251 255 255 255 230 230 230 134 134 134 138 138 138 114 114 114 127 127 127 124 124 124 122 122 122 155 155 155 130 130 130 146 146 146 104 104 104 101 101 101 143 143 143 111 111 111 152 152 152 111 111 111 138 138 138 122 122 122 156 156 156 112 112 112 155 155 155 120 120 120 143 143 143 152 152 152 102 102 102 148 148 148 104 104 104 145 145 145 155 155 155 131 131 131 122 122 122 99 99 99 106 106 106 101 101 101 117 117 117 137 137 137 129 129 129 141 141 141 133 133 133 100 100 100 130 130 130 141 141 141 103 103 103 115 115 115 156 156 156 98 98 98 130 130 130 137 137 137 123 123 123 129 129 129 151 151 151 121 121 121 152 152 152 138 138 138 114 114 114 156 156 156 127 127 127 122 122 122 143 143 143 125 125 125 155 155 155 108 108 108 126 126 126 105 105 105 113 113 113 148 148 148 146 146 146 144 144 144 130 130 130 121 121 121 148 148 148 104 104 104 105 105 105 155 155 155 121 121 121 105 105 105 156 156 156 155 155 155 144 144 144 120 120 120 126 126 126 139 139 139 145 145 145 121 121 121 118 118 118 100 100 100 118 118 118 149 149 149 126 126 126 104 104 104 115 115 115 123 123 123 116 116 116 145 145 145 132 132 132 131 131 131 134 134 134 119 119 119 116 116 116 108 108 108 144 144 144 107 107 107 114 114 114 152 152 152 104 104 104 139 139 139 98 98 98 101 101 101 137 137 137 146 146 146 125 125 125 104 104 104 126 126 126 113 113 113 129 129 129 148 148 148 117 117 117 152 152 152 138 138 138 145 145 145 99 99 99 157 157 157 109 109 109 118 118 118 146 146 146 143 143 143 151 151 151 123 123 123 106 106 106 109 109 109 135 135 135 152 152 152 
120 120 120 151 151 151 147 147 147 126 126 126 133 133 133 147 147 147 131 131 131 112 112 112 137 137 137 99 99 99 120 120 120 104 104 104 114 114 114 152 152 152 157 157 157 133 133 133 145 145 145 138 138 138 120 120 120 146 146 146 137 137 137 133 133 133 105 105 105 126 126 126 120 120 120 100 100 100 151 151 151 128 128 128 113 113 113 128 128 128 121 121 121 255 255 255 249 249 249 237 237 237 230 230 230 255 255 255 227 227 227 255 255 255 240 240 240 255 255 255 255 255 255 255 255 255 255 255 255 255 255 255 255 255 255 255 255 255 255 255 255 245 245 245 254 254 254 255 255 255 235 235 235 234 234 234 255 255 255 244 244 244 255 255 255 255 255 255 246 246 246 255 255 255 249 249 249 255 255 255 226 226 226 255 255 255 238 238 238 250 250 250 226 226 226 245 245 245 251 251 251 228 228 228 255 255 255 255 255 255 145 145 145 139 139 139 120 120 120 134 134 134 137 137 137 152 152 152 123 123 123 111 111 111 114 114 114 154 154 154 107 107 107 126 126 126 103 103 103 140 140 140 145 145 145 140 140 140 135 135 135 108 108 108 111 111 111 98 98 98 144 144 144 112 112 112 148 148 148 98 98 98 140 140 140 149 149 149 118 118 118 105 105 105 155 155 155 118 118 118 151 151 151 141 141 141 98 98 98 112 112 112 118 118 118 139 139 139 107 107 107 145 145 145 152 152 152 123 123 123 140 140 140 100 100 100 151 151 151 147 147 147 145 145 145 140 140 140 131 131 131 123 123 123 150 150 150 144 144 144 123 123 123 137 137 137 100 100 100 115 115 115 138 138 138 142 142 142 107 107 107 99 99 99 151 151 151 103 103 103 121 121 121 143 143 143 148 148 148 122 122 122 157 157 157 109 109 109 102 102 102 106 106 106 158 158 158 98 98 98 133 133 133 140 140 140 102 102 102 128 128 128 130 130 130 149 149 149 109 109 109 102 102 102 113 113 113 102 102 102 149 149 149 141 141 141 143 143 143 153 153 153 99 99 99 124 124 124 136 136 136 108 108 108 126 126 126 130 130 130 116 116 116 149 149 149 117 117 117 107 107 107 114 114 114 115 115 115 119 119 119 121 121 121 125 125 125 120 120 120 121 121 121 102 102 102 103 103 103 125 125 125 132 132 132 136 136 136 118 118 118 145 145 145 140 140 140 133 133 133 151 151 151 132 132 132 117 117 117 135 135 135 126 126 126 118 118 118 101 101 101 105 105 105 131 131 131 131 131 131 138 138 138 149 149 149 123 123 123 157 157 157 99 99 99 140 140 140 115 115 115 122 122 122 104 104 104 145 145 145 
145 145 145 129 129 129 149 149 149 150 150 150 156 156 156 124 124 124 127 127 127 117 117 117 112 112 112 111 111 111 153 153 153 106 106 106 145 145 145 113 113 113 145 145 145 115 115 115 136 136 136 148 148 148 124 124 124 108 108 108 122 122 122 105 105 105 100 100 100 148 148 148 105 105 105 101 101 101 131 131 131 123 123 123 126 126 126 137 137 137 111 111 111 241 241 241 234 234 234 230 230 230 232 232 232 233 233 233 255 255 255 255 255 255 253 253 253 255 255 255 255 255 255 249 249 249 255 255 255 255 255 255 255 255 255 255 255 255 255 255 255 241 241 241 255 255 255 250 250 250 253 253 253 255 255 255 255 255 255 255 255 255 255 255 255 255 255 255 255 255 255 245 245 245 233 233 233 228 228 228 225 225 225 246 246 246 246 246 246 234 234 234 253 253 253 255 255 255 245 245 245 225 225 225 233 233 233 255 255 255 147 147 147 99 99 99 109 109 109 145 145 145 144 144 144 150 150 150 127 127 127 142 142 142 108 108 108 101 101 101 108 108 108 136 136 136 102 102 102 143 143 143 106 106 106 150 150 150 124 124 124 142 142 142 112 112 112 134 134 134 147 147 147 112 112 112 155 155 155 107 107 107 124 124 124 124 124 124 137 137 137 144 144 144 124 124 124 148 148 148 131 131 131 114 114 114 151 151 151 144 144 144 100 100 100 136 136 136 137 137 137 131 131 131 122 122 122 147 147 147 137 137 137 132 132 132 125 125 125 141 141 141 118 118 118 133 133 133 134 134 134 146 146 146 118 118 118 148 148 148 121 121 121 106 106 106 102 102 102 119 119 119 117 117 117 130 130 130 145 145 145 156 156 156 115 115 115 112 112 112 147 147 147 148 148 148 128 128 128 140 140 140 135 135 135 132 132 132 119 119 119 113 113 113 105 105 105 143 143 143 102 102 102 146 146 146 119 119 119 131 131 131 130 130 130 141 141 141 107 107 107 105 105 105 129 129 129 127 127 127 156 156 156 154 154 154 137 137 137 101 101 101 117 117 117 156 156 156 135 135 135 105 105 105 155 155 155 152 152 152 120 120 120 144 144 144 143 143 143 152 152 152 127 127 127 119 119 119 128 128 128 150 150 150 136 136 136 137 137 137 137 137 137 142 142 142 124 124 124 158 158 158 114 114 114 156 156 156 142 142 142 123 123 123 104 104 104 114 114 114 154 154 154 103 103 103 110 110 110 132 132 132 108 108 108 131 131 131 129 129 129 145 145 145 138 138 138 126 126 126 138 138 138 101 101 101 113 113 113 122 122 122 158 158 158 144 144 144 145 145 145 127 127 127 135 135 135 123 123 123 
105 105 105 113 113 113 106 106 106 133 133 133 114 114 114 125 125 125 132 132 132 98 98 98 150 150 150 138 138 138 114 114 114 146 146 146 144 144 144 128 128 128 121 121 121 154 154 154 100 100 100 153 153 153 141 141 141 143 143 143 122 122 122 122 122 122 146 146 146 139 139 139 147 147 147 145 145 145 124 124 124 133 133 133 115 115 115 100 100 100 226 226 226 251 251 251 245 245 245 237 237 237 227 227 227 255 255 255 255 255 255 255 255 255 255 255 255 255 255 255 243 243 243 255 255 255 244 244 244 228 228 228 251 251 251 255 255 255 225 225 225 254 254 254 255 255 255 255 255 255 238 238 238 229 229 229 234 234 234 227 227 227 255 255 255 255 255 255 255 255 255 235 235 235 255 255 255 233 233 233 239 239 239 255 255 255 255 255 255 255 255 255 255 255 255 255 255 255 237 237 237 253 253 253 240 240 240 255 255 255 255 255 255 133 133 133 144 144 144 119 119 119 138 138 138 110 110 110 101 101 101 138 138 138 141 141 141 142 142 142 125 125 125 156 156 156 148 148 148 134 134 134 158 158 158 132 132 132 133 133 133 151 151 151 144 144 144 108 108 108 99 99 99 99 99 99 148 148 148 136 136 136 136 136 136 137 137 137 116 116 116 150 150 150 106 106 106 133 133 133 141 141 141 106 106 106 107 107 107 127 127 127 127 127 127 147 147 147 141 141 141 132 132 132 129 129 129 123 123 123 117 117 117 156 156 156 120 120 120 106 106 106 133 133 133 121 121 121 142 142 142 109 109 109 114 114 114 127 127 127 121 121 121 117 117 117 130 130 130 111 111 111 157 157 157 107 107 107 152 152 152 114 114 114 98 98 98 100 100 100 152 152 152 142 142 142 110 110 110 100 100 100 112 112 112 141 141 141 152 152 152 155 155 155 116 116 116 122 122 122 121 121 121 135 135 135 121 121 121 145 145 145 145 145 145 156 156 156 107 107 107 128 128 128 106 106 106 125 125 125 157 157 157 129 129 129 146 146 146 130 130 130 142 142 142 144 144 144 140 140 140 138 138 138 102 102 102 142 142 142 140 140 140 156 156 156 125 125 125 152 152 152 99 99 99 141 141 141 134 134 134 153 153 153 137 137 137 152 152 152 116 116 116 99 99 99 130 130 130 141 141 141 146 146 146 116 116 116 138 138 138 158 158 158 146 146 146 148 148 148 126 126 126 146 146 146 119 119 119 114 114 114 117 117 117 104 104 104 99 99 99 100 100 100 144 144 144 105 105 105 145 145 145 127 127 127 104 104 104 113 113 113 120 120 120 106 106 106 157 157 157 158 158 158 100 100 100 137 137 137 
153 153 153 121 121 121 141 141 141 124 124 124 103 103 103 130 130 130 144 144 144 146 146 146 131 131 131 131 131 131 135 135 135 99 99 99 120 120 120 158 158 158 115 115 115 142 142 142 106 106 106 118 118 118 144 144 144 154 154 154 126 126 126 132 132 132 123 123 123 132 132 132 150 150 150 147 147 147 140 140 140 150 150 150 147 147 147 145 145 145 255 255 255 255 255 255 236 236 236 239 239 239 238 238 238 241 241 241 255 255 255 255 255 255 230 230 230 244 244 244 255 255 255 255 255 255 247 247 247 255 255 255 255 255 255 255 255 255 255 255 255 255 255 255 255 255 255 254 254 254 255 255 255 254 254 254 229 229 229 237 237 237 229 229 229 255 255 255 225 225 225 255 255 255 255 255 255 255 255 255 255 255 255 244 244 244 255 255 255 255 255 255 255 255 255 255 255 255 230 230 230 248 248 248 255 255 255 236 236 236 255 255 255 122 122 122 152 152 152 104 104 104 120 120 120 135 135 135 144 144 144 102 102 102 129 129 129 145 145 145 133 133 133 116 116 116 113 113 113 138 138 138 130 130 130 119 119 119 135 135 135 132 132 132 107 107 107 124 124 124 125 125 125 142 142 142 145 145 145 102 102 102 129 129 129 119 119 119 155 155 155 135 135 135 143 143 143 145 145 145 148 148 148 129 129 129 109 109 109 143 143 143 135 135 135 133 133 133 121 121 121 122 122 122 139 139 139 152 152 152 108 108 108 114 114 114 109 109 109 125 125 125 156 156 156 143 143 143 147 147 147 132 132 132 117 117 117 156 156 156 158 158 158 144 144 144 142 142 142 146 146 146 148 148 148 114 114 114 107 107 107 144 144 144 153 153 153 154 154 154 132 132 132 142 142 142 124 124 124 145 145 145 126 126 126 100 100 100 121 121 121 150 150 150 127 127 127 102 102 102 145 145 145 137 137 137 120 120 120 98 98 98 106 106 106 119 119 119 143 143 143 157 157 157 155 155 155 101 101 101 156 156 156 157 157 157 149 149 149 141 141 141 144 144 144 138 138 138 99 99 99 153 153 153 125 125 125 154 154 154 148 148 148 101 101 101 140 140 140 115 115 115 148 148 148 109 109 109 118 118 118 111 111 111 102 102 102 147 147 147 117 117 117 150 150 150 127 127 127 139 139 139 150 150 150 137 137 137 101 101 101 134 134 134 137 137 137 158 158 158 140 140 140 135 135 135 156 156 156 130 130 130 119 119 119 142 142 142 112 112 112 120 120 120 138 138 138 141 141 141 118 118 118 128 128 128 144 144 144 99 99 99 145 145 145 134 134 134 110 110 110 106 106 106 149 149 149 117 117 117 
157 157 157 107 107 107 108 108 108 126 126 126 150 150 150 101 101 101 106 106 106 153 153 153 139 139 139 146 146 146 152 152 152 120 120 120 124 124 124 150 150 150 155 155 155 145 145 145 135 135 135 108 108 108 107 107 107 114 114 114 153 153 153 127 127 127 144 144 144 139 139 139 130 130 130 133 133 133 116 116 116 144 144 144 143 143 143 106 106 106 229 229 229 255 255 255 244 244 244 241 241 241 238 238 238 235 235 235 244 244 244 246 246 246 229 229 229 225 225 225 233 233 233 255 255 255 249 249 249 255 255 255 255 255 255 245 245 245 248 248 248 252 252 252 255 255 255 255 255 255 255 255 255 252 252 252 227 227 227 255 255 255 234 234 234 255 255 255 230 230 230 252 252 252 246 246 246 255 255 255 255 255 255 251 251 251 255 255 255 255 255 255 255 255 255 255 255 255 230 230 230 228 228 228 236 236 236 236 236 236 228 228 228 120 120 120 106 106 106 125 125 125 156 156 156 158 158 158 148 148 148 118 118 118 126 126 126 119 119 119 152 152 152 109 109 109 146 146 146 156 156 156 141 141 141 155 155 155 131 131 131 148 148 148 123 123 123 155 155 155 140 140 140 101 101 101 120 120 120 115 115 115 157 157 157 103 103 103 105 105 105 103 103 103 106 106 106 117 117 117 114 114 114 111 111 111 139 139 139 125 125 125 139 139 139 136 136 136 126 126 126 128 128 128 98 98 98 154 154 154 151 151 151 152 152 152 107 107 107 139 139 139 152 152 152 152 152 152 137 137 137 126 126 126 141 141 141 104 104 104 122 122 122 123 123 123 107 107 107 146 146 146 142 142 142 106 106 106 154 154 154 150 150 150 113 113 113 103 103 103 108 108 108 132 132 132 117 117 117 151 151 151 100 100 100 99 99 99 128 128 128 128 128 128 129 129 129 128 128 128 125 125 125 121 121 121 124 124 124 134 134 134 103 103 103 119 119 119 127 127 127 145 145 145 147 147 147 112 112 112 151 151 151 113 113 113 139 139 139 99 99 99 100 100 100 124 124 124 109 109 109 158 158 158 115 115 115 127 127 127 103 103 103 127 127 127 100 100 100 122 122 122 121 121 121 102 102 102 123 123 123 152 152 152 134 134 134 156 156 156 123 123 123 100 100 100 120 120 120 151 151 151 139 139 139 128 128 128 111 111 111 109 109 109 114 114 114 102 102 102 125 125 125 106 106 106 117 117 117 105 105 105 109 109 109 121 121 121 132 132 132 121 121 121 121 121 121 151 151 151 150 150 150 126 126 126 122 122 122 154 154 154 150 150 150 145 145 145 158 158 158 116 116 116 140 140 140 135 135 135 
113 113 113 105 105 105 139 139 139 137 137 137 99 99 99 119 119 119 106 106 106 113 113 113 133 133 133 122 122 122 119 119 119 99 99 99 132 132 132 138 138 138 109 109 109 144 144 144 102 102 102 145 145 145 108 108 108 125 125 125 137 137 137 99 99 99 155 155 155 102 102 102 157 157 157 148 148 148 150 150 150 158 158 158 105 105 105 131 131 131 255 255 255 249 249 249 255 255 255 241 241 241 228 228 228 255 255 255 255 255 255 238 238 238 255 255 255 241 241 241 255 255 255 246 246 246 244 244 244 238 238 238 225 225 225 255 255 255 255 255 255 231 231 231 243 243 243 235 235 235 255 255 255 255 255 255 236 236 236 255 255 255 228 228 228 236 236 236 245 245 245 255 255 255 235 235 235 254 254 254 253 253 253 255 255 255 255 255 255 234 234 234 227 227 227 255 255 255 255 255 255 255 255 255 236 236 236 255 255 255 255 255 255 149 149 149 111 111 111 116 116 116 102 102 102 113 113 113 149 149 149 102 102 102 120 120 120 108 108 108 113 113 113 156 156 156 107 107 107 126 126 126 127 127 127 111 111 111 138 138 138 147 147 147 105 105 105 148 148 148 118 118 118 135 135 135 136 136 136 111 111 111 145 145 145 140 140 140 111 111 111 139 139 139 123 123 123 122 122 122 134 134 134 124 124 124 113 113 113 149 149 149 144 144 144 119 119 119 104 104 104 136 136 136 125 125 125 128 128 128 147 147 147 140 140 140 125 125 125 156 156 156 110 110 110 154 154 154 110 110 110 152 152 152 145 145 145 118 118 118 143 143 143 104 104 104 157 157 157 120 120 120 119 119 119 145 145 145 103 103 103 132 132 132 126 126 126 128 128 128 156 156 156 103 103 103 156 156 156 112 112 112 154 154 154 144 144 144 135 135 135 99 99 99 121 121 121 102 102 102 129 129 129 111 111 111 144 144 144 158 158 158 111 111 111 158 158 158 154 154 154 123 123 123 151 151 151 140 140 140 145 145 145 136 136 136 146 146 146 144 144 144 99 99 99 106 106 106 130 130 130 105 105 105 142 142 142 99 99 99 137 137 137 141 141 141 104 104 104 137 137 137 156 156 156 100 100 100 122 122 122 132 132 132 103 103 103 147 147 147 138 138 138 137 137 137 100 100 100 126 126 126 136 136 136 113 113 113 125 125 125 131 131 131 140 140 140 120 120 120 112 112 112 127 127 127 99 99 99 101 101 101 112 112 112 102 102 102 111 111 111 144 144 144 109 109 109 155 155 155 148 148 148 151 151 151 138 138 138 154 154 154 129 129 129 137 137 137 158 158 158 155 155 155 112 112 112 103 103 103 
143 143 143 153 153 153 142 142 142 145 145 145 122 122 122 119 119 119 101 101 101 149 149 149 155 155 155 144 144 144 112 112 112 110 110 110 112 112 112 113 113 113 114 114 114 128 128 128 118 118 118 129 129 129 115 115 115 131 131 131 126 126 126 104 104 104 123 123 123 107 107 107 100 100 100 156 156 156 148 148 148 101 101 101 152 152 152 103 103 103 233 233 233 255 255 255 255 255 255 255 255 255 252 252 252 250 250 250 240 240 240 255 255 255 241 241 241 238 238 238 241 241 241 255 255 255 250 250 250 255 255 255 255 255 255 255 255 255 226 226 226 234 234 234 237 237 237 245 245 245 255 255 255 255 255 255 252 252 252 234 234 234 255 255 255 255 255 255 231 231 231 255 255 255 255 255 255 227 227 227 255 255 255 255 255 255 255 255 255 255 255 255 255 255 255 232 232 232 238 238 238 255 255 255 255 255 255 255 255 255 232 232 232 156 156 156 101 101 101 131 131 131 127 127 127 151 151 151 113 113 113 130 130 130 99 99 99 125 125 125 151 151 151 143 143 143 108 108 108 119 119 119 154 154 154 100 100 100 150 150 150 102 102 102 144 144 144 125 125 125 104 104 104 133 133 133 109 109 109 147 147 147 121 121 121 150 150 150 156 156 156 136 136 136 144 144 144 136 136 136 109 109 109 152 152 152 135 135 135 112 112 112 126 126 126 104 104 104 106 106 106 141 141 141 138 138 138 109 109 109 110 110 110 132 132 132 156 156 156 120 120 120 153 153 153 152 152 152 125 125 125 146 146 146 156 156 156 110 110 110 115 115 115 103 103 103 145 145 145 126 126 126 152 152 152 109 109 109 117 117 117 151 151 151 148 148 148 105 105 105 130 130 130 98 98 98 98 98 98 107 107 107 114 114 114 126 126 126 115 115 115 122 122 122 110 110 110 155 155 155 135 135 135 122 122 122 131 131 131 132 132 132 145 145 145 125 125 125 125 125 125 111 111 111 115 115 115 124 124 124 125 125 125 132 132 132 129 129 129 112 112 112 101 101 101 124 124 124 123 123 123 123 123 123 119 119 119 112 112 112 130 130 130 151 151 151 114 114 114 132 132 132 99 99 99 132 132 132 101 101 101 118 118 118 158 158 158 113 113 113 117 117 117 134 134 134 138 138 138 150 150 150 108 108 108 126 126 126 118 118 118 137 137 137 139 139 139 135 135 135 103 103 103 105 105 105 110 110 110 136 136 136 121 121 121 114 114 114 104 104 104 147 147 147 141 141 141 125 125 125 102 102 102 112 112 112 117 117 117 121 121 121 146 146 146 121 121 121 155 155 155 151 151 151 141 141 141 155 155 155 
105 105 105 101 101 101 130 130 130 145 145 145 153 153 153 142 142 142 112 112 112 113 113 113 121 121 121 155 155 155 152 152 152 128 128 128 104 104 104 104 104 104 107 107 107 127 127 127 122 122 122 113 113 113 115 115 115 104 104 104 140 140 140 122 122 122 118 118 118 101 101 101 145 145 145 107 107 107 126 126 126 141 141 141 99 99 99 110 110 110 255 255 255 235 235 235 241 241 241 238 238 238 255 255 255 235 235 235 255 255 255 238 238 238 250 250 250 248 248 248 237 237 237 246 246 246 255 255 255 243 243 243 252 252 252 229 229 229 255 255 255 255 255 255 244 244 244 231 231 231 255 255 255 228 228 228 255 255 255 245 245 245 231 231 231 241 241 241 255 255 255 255 255 255 225 225 225 255 255 255 255 255 255 255 255 255 255 255 255 226 226 226 255 255 255 255 255 255 239 239 239 255 255 255 255 255 255 255 255 255 243 243 243 108 108 108 99 99 99 110 110 110 126 126 126 128 128 128 114 114 114 112 112 112 120 120 120 134 134 134 118 118 118 118 118 118 137 137 137 148 148 148 140 140 140 145 145 145 105 105 105 110 110 110 118 118 118 106 106 106 144 144 144 105 105 105 150 150 150 130 130 130 109 109 109 146 146 146 112 112 112 123 123 123 140 140 140 110 110 110 105 105 105 99 99 99 120 120 120 107 107 107 112 112 112 148 148 148 139 139 139 128 128 128 104 104 104 101 101 101 105 105 105 124 124 124 123 123 123 146 146 146 116 116 116 105 105 105 132 132 132 125 125 125 119 119 119 154 154 154 133 133 133 107 107 107 101 101 101 126 126 126 139 139 139 114 114 114 113 113 113 153 153 153 141 141 141 156 156 156 105 105 105 148 148 148 157 157 157 127 127 127 98 98 98 112 112 112 119 119 119 140 140 140 143 143 143 125 125 125 143 143 143 152 152 152 151 151 151 109 109 109 140 140 140 110 110 110 116 116 116 113 113 113 138 138 138 140 140 140 111 111 111 114 114 114 149 149 149 116 116 116 143 143 143 129 129 129 132 132 132 99 99 99 123 123 123 116 116 116 157 157 157 132 132 132 107 107 107 158 158 158 103 103 103 108 108 108 111 111 111 124 124 124 152 152 152 158 158 158 151 151 151 138 138 138 154 154 154 145 145 145 149 149 149 135 135 135 158 158 158 109 109 109 152 152 152 139 139 139 151 151 151 106 106 106 157 157 157 141 141 141 124 124 124 143 143 143 113 113 113 99 99 99 145 145 145 140 140 140 117 117 117 145 145 145 114 114 114 127 127 127 144 144 144 119 119 119 139 139 139 99 99 99 145 145 145 132 132 132 
100 100 100 139 139 139 111 111 111 156 156 156 125 125 125 101 101 101 134 134 134 126 126 126 112 112 112 130 130 130 106 106 106 106 106 106 138 138 138 105 105 105 151 151 151 104 104 104 152 152 152 105 105 105 105 105 105 138 138 138 148 148 148 127 127 127 125 125 125 105 105 105 156 156 156 112 112 112 126 126 126 136 136 136 115 115 115 114 114 114 238 238 238 245 245 245 255 255 255 251 251 251 244 244 244 248 248 248 255 255 255 255 255 255 255 255 255 255 255 255 254 254 254 226 226 226 255 255 255 235 235 235 235 235 235 255 255 255 241 241 241 229 229 229 255 255 255 251 251 251 255 255 255 255 255 255 255 255 255 237 237 237 255 255 255 255 255 255 252 252 252 248 248 248 255 255 255 255 255 255 255 255 255 255 255 255 232 232 232 255 255 255 238 238 238 252 252 252 225 225 225 255 255 255 251 251 251 255 255 255 255 255 255 155 155 155 153 153 153 125 125 125 104 104 104 105 105 105 115 115 115 123 123 123 109 109 109 110 110 110 149 149 149 155 155 155 158 158 158 145 145 145 107 107 107 153 153 153 140 140 140 136 136 136 116 116 116 114 114 114 121 121 121 155 155 155 101 101 101 131 131 131 132 132 132 114 114 114 158 158 158 134 134 134 99 99 99 125 125 125 127 127 127 131 131 131 121 121 121 123 123 123 99 99 99 127 127 127 130 130 130 116 116 116 152 152 152 143 143 143 128 128 128 144 144 144 140 140 140 129 129 129 130 130 130 151 151 151 126 126 126 113 113 113 130 130 130 144 144 144 131 131 131 155 155 155 142 142 142 134 134 134 127 127 127 115 115 115 152 152 152 128 128 128 153 153 153 154 154 154 155 155 155 123 123 123 126 126 126 117 117 117 151 151 151 129 129 129 149 149 149 122 122 122 147 147 147 142 142 142 109 109 109 118 118 118 128 128 128 153 153 153 152 152 152 101 101 101 145 145 145 119 119 119 119 119 119 118 118 118 104 104 104 152 152 152 114 114 114 148 148 148 130 130 130 146 146 146 107 107 107 123 123 123 115 115 115 101 101 101 118 118 118 114 114 114 127 127 127 148 148 148 135 135 135 119 119 119 118 118 118 125 125 125 145 145 145 108 108 108 109 109 109 158 158 158 129 129 129 141 141 141 152 152 152 122 122 122 144 144 144 140 140 140 143 143 143 106 106 106 99 99 99 151 151 151 100 100 100 118 118 118 140 140 140 132 132 132 107 107 107 151 151 151 98 98 98 124 124 124 155 155 155 121 121 121 142 142 142 125 125 125 110 110 110 119 119 119 148 148 148 133 133 133 146 146 146 134 134 134 
143 143 143 98 98 98 136 136 136 115 115 115 141 141 141 129 129 129 139 139 139 129 129 129 111 111 111 125 125 125 137 137 137 114 114 114 117 117 117 139 139 139 136 136 136 101 101 101 114 114 114 145 145 145 154 154 154 117 117 117 113 113 113 152 152 152 140 140 140 157 157 157 118 118 118 154 154 154 117 117 117 107 107 107 128 128 128 107 107 107 255 255 255 242 242 242 234 234 234 250 250 250 255 255 255 255 255 255 255 255 255 242 242 242 250 250 250 235 235 235 255 255 255 228 228 228 254 254 254 230 230 230 255 255 255 231 231 231 235 235 235 229 229 229 255 255 255 230 230 230 248 248 248 235 235 235 226 226 226 229 229 229 233 233 233 246 246 246 225 225 225 255 255 255 255 255 255 255 255 255 255 255 255 247 247 247 255 255 255 255 255 255 255 255 255 248 248 248 255 255 255 255 255 255 255 255 255 233 233 233 255 255 255 123 123 123 110 110 110 125 125 125 130 130 130 98 98 98 131 131 131 140 140 140 102 102 102 126 126 126 148 148 148 126 126 126 138 138 138 149 149 149 130 130 130 147 147 147 111 111 111 132 132 132 118 118 118 146 146 146 104 104 104 98 98 98 107 107 107 153 153 153 150 150 150 156 156 156 117 117 117 136 136 136 144 144 144 98 98 98 144 144 144 142 142 142 124 124 124 158 158 158 108 108 108 156 156 156 158 158 158 143 143 143 140 140 140 104 104 104 113 113 113 129 129 129 132 132 132 153 153 153 121 121 121 105 105 105 143 143 143 134 134 134 140 140 140 104 104 104 122 122 122 146 146 146 104 104 104 133 133 133 140 140 140 98 98 98 133 133 133 99 99 99 136 136 136 118 118 118 99 99 99 123 123 123 103 103 103 127 127 127 125 125 125 113 113 113 127 127 127 126 126 126 99 99 99 108 108 108 132 132 132 116 116 116 141 141 141 105 105 105 111 111 111 103 103 103 115 115 115 158 158 158 139 139 139 157 157 157 104 104 104 104 104 104 144 144 144 112 112 112 142 142 142 127 127 127 114 114 114 116 116 116 128 128 128 152 152 152 138 138 138 132 132 132 119 119 119 143 143 143 100 100 100 146 146 146 99 99 99 131 131 131 113 113 113 102 102 102 143 143 143 150 150 150 121 121 121 125 125 125 157 157 157 136 136 136 130 130 130 113 113 113 135 135 135 113 113 113 113 113 113 143 143 143 119 119 119 98 98 98 158 158 158 104 104 104 128 128 128 113 113 113 122 122 122 99 99 99 109 109 109 103 103 103 135 135 135 132 132 132 150 150 150 138 138 138 119 119 119 151 151 151 112 112 112 136 136 136 
156 156 156 158 158 158 127 127 127 120 120 120 124 124 124 128 128 128 158 158 158 98 98 98 143 143 143 134 134 134 113 113 113 100 100 100 119 119 119 136 136 136 100 100 100 120 120 120 143 143 143 132 132 132 137 137 137 106 106 106 134 134 134 150 150 150 114 114 114 110 110 110 123 123 123 105 105 105 152 152 152 144 144 144 100 100 100 108 108 108 251 251 251 226 226 226 234 234 234 255 255 255 248 248 248 255 255 255 249 249 249 247 247 247 255 255 255 236 236 236 255 255 255 255 255 255 238 238 238 247 247 247 255 255 255 242 242 242 255 255 255 239 239 239 255 255 255 250 250 250 249 249 249 254 254 254 241 241 241 255 255 255 255 255 255 255 255 255 255 255 255 255 255 255 254 254 254 255 255 255 255 255 255 255 255 255 255 255 255 255 255 255 255 255 255 244 244 244 255 255 255 238 238 238 255 255 255 240 240 240 251 251 251 140 140 140 104 104 104 137 137 137 102 102 102 136 136 136 157 157 157 146 146 146 152 152 152 148 148 148 110 110 110 118 118 118 118 118 118 129 129 129 101 101 101 100 100 100 110 110 110 153 153 153 141 141 141 139 139 139 146 146 146 131 131 131 134 134 134 142 142 142 130 130 130 125 125 125 100 100 100 108 108 108 140 140 140 141 141 141 123 123 123 106 106 106 123 123 123 131 131 131 147 147 147 129 129 129 111 111 111 145 145 145 116 116 116 106 106 106 136 136 136 131 131 131 126 126 126 156 156 156 103 103 103 130 130 130 100 100 100 115 115 115 124 124 124 145 145 145 158 158 158 114 114 114 118 118 118 133 133 133 158 158 158 150 150 150 101 101 101 100 100 100 99 99 99 144 144 144 145 145 145 126 126 126 152 152 152 111 111 111 99 99 99 142 142 142 142 142 142 114 114 114 129 129 129 102 102 102 122 122 122 108 108 108 137 137 137 153 153 153 108 108 108 142 142 142 126 126 126 112 112 112 100 100 100 152 152 152 98 98 98 99 99 99 109 109 109 118 118 118 137 137 137 109 109 109 110 110 110 140 140 140 113 113 113 113 113 113 125 125 125 99 99 99 142 142 142 120 120 120 115 115 115 145 145 145 104 104 104 98 98 98 100 100 100 137 137 137 104 104 104 124 124 124 147 147 147 143 143 143 118 118 118 98 98 98 128 128 128 148 148 148 112 112 112 130 130 130 142 142 142 113 113 113 132 132 132 155 155 155 133 133 133 110 110 110 105 105 105 147 147 147 152 152 152 122 122 122 102 102 102 121 121 121 124 124 124 148 148 148 143 143 143 143 143 143 134 134 134 149 149 149 143 143 143 138 138 138 
127 127 127 150 150 150 105 105 105 118 118 118 136 136 136 128 128 128 118 118 118 106 106 106 117 117 117 135 135 135 138 138 138 102 102 102 150 150 150 111 111 111 99 99 99 124 124 124 125 125 125 108 108 108 113 113 113 121 121 121 133 133 133 119 119 119 144 144 144 100 100 100 108 108 108 128 128 128 145 145 145 146 146 146 121 121 121 131 131 131 252 252 252 255 255 255 251 251 251 255 255 255 240 240 240 229 229 229 228 228 228 255 255 255 239 239 239 248 248 248 239 239 239 255 255 255 252 252 252 230 230 230 234 234 234 255 255 255 255 255 255 255 255 255 255 255 255 255 255 255 225 225 225 240 240 240 235 235 235 255 255 255 244 244 244 247 247 247 245 245 245 232 232 232 234 234 234 255 255 255 255 255 255 255 255 255 255 255 255 233 233 233 237 237 237 255 255 255 237 237 237 242 242 242 255 255 255 253 253 253 255 255 255 145 145 145 121 121 121 107 107 107 152 152 152 132 132 132 137 137 137 124 124 124 110 110 110 119 119 119 114 114 114 112 112 112 136 136 136 126 126 126 102 102 102 155 155 155 151 151 151 122 122 122 101 101 101 99 99 99 106 106 106 144 144 144 138 138 138 146 146 146 152 152 152 152 152 152 141 141 141 105 105 105 108 108 108 113 113 113 133 133 133 151 151 151 99 99 99 158 158 158 101 101 101 153 153 153 132 132 132 142 142 142 121 121 121 146 146 146 103 103 103 139 139 139 99 99 99 141 141 141 106 106 106 105 105 105 138 138 138 98 98 98 129 129 129 143 143 143 102 102 102 139 139 139 128 128 128 144 144 144 127 127 127 121 121 121 137 137 137 109 109 109 130 130 130 149 149 149 125 125 125 104 104 104 143 143 143 128 128 128 104 104 104 146 146 146 123 123 123 140 140 140 132 132 132 146 146 146 127 127 127 137 137 137 126 126 126 130 130 130 119 119 119 136 136 136 138 138 138 100 100 100 139 139 139 110 110 110 148 148 148 143 143 143 152 152 152 117 117 117 130 130 130 120 120 120 143 143 143 110 110 110 131 131 131 114 114 114 100 100 100 99 99 99 123 123 123 148 148 148 130 130 130 131 131 131 137 137 137 157 157 157 114 114 114 110 110 110 144 144 144 143 143 143 151 151 151 113 113 113 114 114 114 114 114 114 153 153 153 156 156 156 116 116 116 133 133 133 108 108 108 107 107 107 119 119 119 101 101 101 127 127 127 151 151 151 125 125 125 113 113 113 104 104 104 99 99 99 131 131 131 107 107 107 101 101 101 158 158 158 98 98 98 133 133 133 132 132 132 137 137 137 131 131 131 148 148 148 
150 150 150 118 118 118 132 132 132 142 142 142 135 135 135 151 151 151 99 99 99 129 129 129 150 150 150 118 118 118 106 106 106 99 99 99 127 127 127 127 127 127 104 104 104 158 158 158 122 122 122 131 131 131 114 114 114 128 128 128 133 133 133 148 148 148 139 139 139 136 136 136 149 149 149 139 139 139 112 112 112 123 123 123 118 118 118 147 147 147 241 241 241 238 238 238 233 233 233 255 255 255 255 255 255 255 255 255 255 255 255 225 225 225 242 242 242 255 255 255 247 247 247 250 250 250 255 255 255 255 255 255 255 255 255 255 255 255 255 255 255 245 245 245 246 246 246 235 235 235 255 255 255 255 255 255 226 226 226 255 255 255 255 255 255 255 255 255 240 240 240 255 255 255 244 244 244 255 255 255 255 255 255 255 255 255 255 255 255 255 255 255 252 252 252 255 255 255 255 255 255 238 238 238 255 255 255 255 255 255 255 255 255 114 114 114 115 115 115 129 129 129 106 106 106 111 111 111 116 116 116 100 100 100 133 133 133 137 137 137 113 113 113 124 124 124 134 134 134 114 114 114 98 98 98 108 108 108 108 108 108 114 114 114 157 157 157 127 127 127 151 151 151 135 135 135 102 102 102 143 143 143 123 123 123 131 131 131 133 133 133 158 158 158 145 145 145 127 127 127 150 150 150 136 136 136 143 143 143 108 108 108 108 108 108 151 151 151 123 123 123 128 128 128 156 156 156 158 158 158 107 107 107 110 110 110 125 125 125 143 143 143 126 126 126 126 126 126 156 156 156 137 137 137 142 142 142 156 156 156 107 107 107 134 134 134 133 133 133 111 111 111 120 120 120 99 99 99 147 147 147 155 155 155 99 99 99 133 133 133 123 123 123 153 153 153 112 112 112 109 109 109 104 104 104 122 122 122 102 102 102 129 129 129 152 152 152 99 99 99 128 128 128 102 102 102 113 113 113 157 157 157 150 150 150 141 141 141 124 124 124 147 147 147 121 121 121 109 109 109 146 146 146 131 131 131 148 148 148 120 120 120 146 146 146 109 109 109 124 124 124 134 134 134 106 106 106 127 127 127 110 110 110 133 133 133 123 123 123 124 124 124 145 145 145 129 129 129 150 150 150 151 151 151 99 99 99 146 146 146 154 154 154 131 131 131 150 150 150 108 108 108 129 129 129 143 143 143 153 153 153 156 156 156 133 133 133 116 116 116 108 108 108 121 121 121 151 151 151 158 158 158 145 145 145 138 138 138 109 109 109 112 112 112 116 116 116 119 119 119 141 141 141 128 128 128 154 154 154 105 105 105 155 155 155 142 142 142 136 136 136 148 148 148 136 136 136 139 139 139 
135 135 135 131 131 131 111 111 111 129 129 129 143 143 143 143 143 143 115 115 115 138 138 138 142 142 142 151 151 151 158 158 158 152 152 152 115 115 115 150 150 150 152 152 152 103 103 103 131 131 131 104 104 104 118 118 118 149 149 149 125 125 125 102 102 102 119 119 119 122 122 122 112 112 112 117 117 117 108 108 108 150 150 150 106 106 106 146 146 146 255 255 255 255 255 255 248 248 248 255 255 255 243 243 243 232 232 232 255 255 255 255 255 255 255 255 255 242 242 242 254 254 254 255 255 255 238 238 238 255 255 255 255 255 255 231 231 231 255 255 255 237 237 237 239 239 239 242 242 242 227 227 227 255 255 255 246 246 246 250 250 250 229 229 229 255 255 255 255 255 255 239 239 239 254 254 254 255 255 255 229 229 229 228 228 228 255 255 255 252 252 252 255 255 255 226 226 226 255 255 255 250 250 250 255 255 255 246 246 246 255 255 255 107 107 107 106 106 106 153 153 153 157 157 157 146 146 146 100 100 100 152 152 152 158 158 158 114 114 114 108 108 108 101 101 101 157 157 157 130 130 130 127 127 127 101 101 101 106 106 106 112 112 112 117 117 117 137 137 137 108 108 108 121 121 121 140 140 140 152 152 152 150 150 150 133 133 133 155 155 155 124 124 124 158 158 158 135 135 135 147 147 147 141 141 141 146 146 146 157 157 157 138 138 138 144 144 144 144 144 144 142 142 142 140 140 140 145 145 145 100 100 100 150 150 150 151 151 151 98 98 98 123 123 123 119 119 119 103 103 103 134 134 134 135 135 135 125 125 125 112 112 112 148 148 148 150 150 150 157 157 157 141 141 141 142 142 142 131 131 131 140 140 140 107 107 107 132 132 132 118 118 118 158 158 158 116 116 116 105 105 105 156 156 156 158 158 158 153 153 153 142 142 142 144 144 144 134 134 134 130 130 130 146 146 146 128 128 128 124 124 124 148 148 148 153 153 153 147 147 147 156 156 156 128 128 128 124 124 124 122 122 122 145 145 145 113 113 113 113 113 113 143 143 143 158 158 158 157 157 157 117 117 117 141 141 141 107 107 107 151 151 151 102 102 102 106 106 106 110 110 110 109 109 109 104 104 104 110 110 110 106 106 106 150 150 150 156 156 156 142 142 142 123 123 123 145 145 145 111 111 111 150 150 150 134 134 134 108 108 108 138 138 138 131 131 131 138 138 138 105 105 105 157 157 157 126 126 126 122 122 122 112 112 112 110 110 110 124 124 124 112 112 112 129 129 129 106 106 106 124 124 124 123 123 123 111 111 111 134 134 134 136 136 136 124 124 124 140 140 140 150 150 150 132 132 132 133 133 133 
149 149 149 118 118 118 100 100 100 135 135 135 133 133 133 152 152 152 112 112 112 143 143 143 133 133 133 146 146 146 125 125 125 141 141 141 146 146 146 153 153 153 106 106 106 99 99 99 107 107 107 132 132 132 116 116 116 140 140 140 143 143 143 142 142 142 105 105 105 156 156 156 119 119 119 145 145 145 123 123 123 101 101 101 138 138 138 99 99 99 255 255 255 255 255 255 246 246 246 255 255 255 233 233 233 255 255 255 255 255 255 247 247 247 255 255 255 237 237 237 236 236 236 236 236 236 255 255 255 255 255 255 230 230 230 229 229 229 227 227 227 241 241 241 255 255 255 247 247 247 255 255 255 248 248 248 232 232 232 230 230 230 247 247 247 254 254 254 255 255 255 255 255 255 255 255 255 255 255 255 255 255 255 238 238 238 229 229 229 237 237 237 255 255 255 239 239 239 235 235 235 255 255 255 255 255 255 255 255 255 255 255 255 148 148 148 101 101 101 142 142 142 149 149 149 108 108 108 149 149 149 151 151 151 125 125 125 127 127 127 115 115 115 123 123 123 152 152 152 122 122 122 130 130 130 115 115 115 151 151 151 125 125 125 103 103 103 124 124 124 99 99 99 156 156 156 140 140 140 105 105 105 107 107 107 137 137 137 119 119 119 117 117 117 110 110 110 157 157 157 111 111 111 98 98 98 146 146 146 116 116 116 142 142 142 138 138 138 129 129 129 132 132 132 133 133 133 158 158 158 102 102 102 150 150 150 124 124 124 158 158 158 113 113 113 156 156 156 116 116 116 108 108 108 124 124 124 124 124 124 134 134 134 125 125 125 121 121 121 115 115 115 132 132 132 130 130 130 154 154 154 153 153 153 152 152 152 108 108 108 153 153 153 106 106 106 108 108 108 143 143 143 127 127 127 154 154 154 122 122 122 158 158 158 128 128 128 157 157 157 98 98 98 134 134 134 150 150 150 124 124 124 136 136 136 107 107 107 121 121 121 154 154 154 117 117 117 149 149 149 119 119 119 153 153 153 115 115 115 142 142 142 112 112 112 151 151 151 116 116 116 109 109 109 145 145 145 111 111 111 121 121 121 141 141 141 119 119 119 131 131 131 125 125 125 150 150 150 129 129 129 150 150 150 151 151 151 98 98 98 150 150 150 151 151 151 136 136 136 142 142 142 116 116 116 113 113 113 151 151 151 141 141 141 111 111 111 111 111 111 131 131 131 132 132 132 105 105 105 148 148 148 118 118 118 121 121 121 140 140 140 136 136 136 135 135 135 128 128 128 151 151 151 158 158 158 111 111 111 113 113 113 133 133 133 138 138 138 105 105 105 103 103 103 131 131 131 158 158 158 
105 105 105 125 125 125 151 151 151 143 143 143 108 108 108 110 110 110 100 100 100 102 102 102 154 154 154 113 113 113 115 115 115 126 126 126 149 149 149 124 124 124 118 118 118 108 108 108 150 150 150 101 101 101 148 148 148 126 126 126 132 132 132 140 140 140 127 127 127 147 147 147 156 156 156 101 101 101 128 128 128 102 102 102 106 106 106 103 103 103 103 103 103 240 240 240 255 255 255 255 255 255 227 227 227 255 255 255 237 237 237 229 229 229 255 255 255 232 232 232 246 246 246 231 231 231 255 255 255 236 236 236 255 255 255 255 255 255 247 247 247 252 252 252 225 225 225 236 236 236 255 255 255 255 255 255 255 255 255 251 251 251 249 249 249 255 255 255 254 254 254 255 255 255 255 255 255 255 255 255 225 225 225 230 230 230 255 255 255 255 255 255 230 230 230 255 255 255 242 242 242 242 242 242 227 227 227 231 231 231 122 122 122 123 123 123 112 112 112 98 98 98 135 135 135 147 147 147 158 158 158 98 98 98 115 115 115 158 158 158 111 111 111 110 110 110 135 135 135 106 106 106 138 138 138 98 98 98 100 100 100 106 106 106 156 156 156 100 100 100 146 146 146 157 157 157 106 106 106 141 141 141 130 130 130 111 111 111 139 139 139 148 148 148 128 128 128 144 144 144 154 154 154 154 154 154 108 108 108 108 108 108 156 156 156 145 145 145 98 98 98 157 157 157 145 145 145 115 115 115 156 156 156 98 98 98 129 129 129 132 132 132 108 108 108 108 108 108 134 134 134 111 111 111 117 117 117 132 132 132 113 113 113 106 106 106 132 132 132 121 121 121 149 149 149 103 103 103 136 136 136 132 132 132 155 155 155 107 107 107 117 117 117 151 151 151 104 104 104 127 127 127 102 102 102 102 102 102 114 114 114 102 102 102 100 100 100 102 102 102 121 121 121 100 100 100 104 104 104 153 153 153 136 136 136 117 117 117 104 104 104 114 114 114 130 130 130 125 125 125 150 150 150 147 147 147 134 134 134 123 123 123 112 112 112 124 124 124 130 130 130 152 152 152 99 99 99 127 127 127 101 101 101 118 118 118 119 119 119 107 107 107 148 148 148 123 123 123 111 111 111 105 105 105 129 129 129 116 116 116 109 109 109 152 152 152 120 120 120 118 118 118 148 148 148 158 158 158 137 137 137 155 155 155 115 115 115 110 110 110 121 121 121 106 106 106 98 98 98 157 157 157 131 131 131 114 114 114 125 125 125 105 105 105 108 108 108 126 126 126 134 134 134 111 111 111 149 149 149 157 157 157 122 122 122 138 138 138 123 123 123 138 138 138 147 147 147 156 156 156 
156 156 156 158 158 158 149 149 149 119 119 119 119 119 119 141 141 141 118 118 118 158 158 158 139 139 139 136 136 136 111 111 111 101 101 101 146 146 146 114 114 114 102 102 102 121 121 121 130 130 130 131 131 131 128 128 128 142 142 142 98 98 98 105 105 105 157 157 157 149 149 149 103 103 103 121 121 121 130 130 130 130 130 130 100 100 100 118 118 118 127 127 127 226 226 226 247 247 247 246 246 246 247 247 247 255 255 255 230 230 230 255 255 255 255 255 255 255 255 255 248 248 248 255 255 255 255 255 255 236 236 236 240 240 240 255 255 255 255 255 255 255 255 255 253 253 253 228 228 228 255 255 255 255 255 255 237 237 237 255 255 255 248 248 248 242 242 242 255 255 255 255 255 255 255 255 255 225 225 225 242 242 242 244 244 244 226 226 226 255 255 255 255 255 255 250 250 250 250 250 250 255 255 255 233 233 233 236 236 236 131 131 131 130 130 130 109 109 109 122 122 122 141 141 141 126 126 126 117 117 117 114 114 114 117 117 117 147 147 147 119 119 119 153 153 153 117 117 117 131 131 131 126 126 126 140 140 140 150 150 150 124 124 124 136 136 136 140 140 140 124 124 124 153 153 153 100 100 100 127 127 127 133 133 133 144 144 144 152 152 152 98 98 98 133 133 133 99 99 99 109 109 109 106 106 106 131 131 131 122 122 122 132 132 132 115 115 115 151 151 151 154 154 154 133 133 133 109 109 109 142 142 142 154 154 154 103 103 103 102 102 102 128 128 128 133 133 133 144 144 144 119 119 119 98 98 98 122 122 122 102 102 102 126 126 126 118 118 118 106 106 106 157 157 157 156 156 156 153 153 153 150 150 150 156 156 156 127 127 127 154 154 154 108 108 108 137 137 137 128 128 128 133 133 133 113 113 113 146 146 146 127 127 127 108 108 108 120 120 120 140 140 140 154 154 154 118 118 118 148 148 148 98 98 98 150 150 150 122 122 122 146 146 146 111 111 111 125 125 125 111 111 111 117 117 117 155 155 155 132 132 132 126 126 126 154 154 154 129 129 129 122 122 122 147 147 147 128 128 128 151 151 151 142 142 142 138 138 138 132 132 132 112 112 112 114 114 114 147 147 147 101 101 101 145 145 145 98 98 98 125 125 125 127 127 127 154 154 154 145 145 145 116 116 116 154 154 154 137 137 137 142 142 142 144 144 144 152 152 152 110 110 110 157 157 157 112 112 112 107 107 107 132 132 132 140 140 140 102 102 102 104 104 104 105 105 105 151 151 151 136 136 136 98 98 98 137 137 137 116 116 116 134 134 134 151 151 151 134 134 134 122 122 122 156 156 156 121 121 121 
122 122 122 122 122 122 152 152 152 119 119 119 111 111 111 111 111 111 117 117 117 150 150 150 155 155 155 102 102 102 145 145 145 107 107 107 102 102 102 98 98 98 118 118 118 137 137 137 143 143 143 124 124 124 145 145 145 150 150 150 118 118 118 123 123 123 152 152 152 157 157 157 143 143 143 127 127 127 151 151 151 120 120 120 153 153 153 148 148 148 145 145 145 118 118 118 239 239 239 255 255 255 255 255 255 252 252 252 255 255 255 225 225 225 245 245 245 255 255 255 231 231 231 231 231 231 227 227 227 235 235 235 233 233 233 249 249 249 255 255 255 255 255 255 255 255 255 255 255 255 255 255 255 234 234 234 229 229 229 255 255 255 233 233 233 255 255 255 234 234 234 227 227 227 237 237 237 228 228 228 255 255 255 255 255 255 251 251 251 231 231 231 255 255 255 232 232 232 255 255 255 255 255 255 234 234 234 153 153 153 127 127 127 115 115 115 100 100 100 129 129 129 127 127 127 110 110 110 155 155 155 118 118 118 103 103 103 144 144 144 99 99 99 150 150 150 155 155 155 103 103 103 129 129 129 104 104 104 154 154 154 138 138 138 107 107 107 107 107 107 144 144 144 99 99 99 106 106 106 109 109 109 107 107 107 148 148 148 118 118 118 142 142 142 123 123 123 129 129 129 138 138 138 152 152 152 146 146 146 142 142 142 124 124 124 114 114 114 154 154 154 122 122 122 136 136 136 100 100 100 107 107 107 137 137 137 152 152 152 103 103 103 144 144 144 125 125 125 112 112 112 141 141 141 106 106 106 121 121 121 151 151 151 154 154 154 122 122 122 100 100 100 104 104 104 131 131 131 150 150 150 126 126 126 116 116 116 116 116 116 157 157 157 158 158 158 111 111 111 146 146 146 141 141 141 139 139 139 102 102 102 138 138 138 102 102 102 142 142 142 141 141 141 113 113 113 121 121 121 136 136 136 121 121 121 108 108 108 104 104 104 135 135 135 152 152 152 113 113 113 158 158 158 144 144 144 108 108 108 123 123 123 146 146 146 117 117 117 158 158 158 140 140 140 147 147 147 115 115 115 99 99 99 148 148 148 116 116 116 115 115 115 135 135 135 98 98 98 156 156 156 141 141 141 140 140 140 102 102 102 125 125 125 122 122 122 117 117 117 150 150 150 102 102 102 140 140 140 99 99 99 108 108 108 118 118 118 153 153 153 125 125 125 117 117 117 140 140 140 136 136 136 142 142 142 128 128 128 157 157 157 141 141 141 111 111 111 145 145 145 99 99 99 114 114 114 134 134 134 117 117 117 131 131 131 111 111 111 119 119 119 129 129 129 154 154 154 101 101 101 
133 133 133 122 122 122 127 127 127 154 154 154 113 113 113 133 133 133 138 138 138 115 115 115 144 144 144 158 158 158 111 111 111 110 110 110 119 119 119 154 154 154 150 150 150 102 102 102 125 125 125 148 148 148 148 148 148 138 138 138 135 135 135 151 151 151 154 154 154 112 112 112 112 112 112 127 127 127 125 125 125 133 133 133 99 99 99 123 123 123 138 138 138 136 136 136 255 255 255 234 234 234 255 255 255 231 231 231 255 255 255 239 239 239 250 250 250 255 255 255 239 239 239 255 255 255 255 255 255 255 255 255 255 255 255 255 255 255 255 255 255 255 255 255 255 255 255 255 255 255 255 255 255 234 234 234 252 252 252 255 255 255 248 248 248 255 255 255 234 234 234 255 255 255 242 242 242 235 235 235 242 242 242 255 255 255 255 255 255 232 232 232 233 233 233 249 249 249 240 240 240 255 255 255 255 255 255 138 138 138 125 125 125 153 153 153 116 116 116 110 110 110 129 129 129 151 151 151 151 151 151 109 109 109 151 151 151 121 121 121 144 144 144 133 133 133 130 130 130 110 110 110 111 111 111 154 154 154 153 153 153 120 120 120 146 146 146 109 109 109 132 132 132 104 104 104 108 108 108 121 121 121 113 113 113 118 118 118 146 146 146 129 129 129 112 112 112 126 126 126 110 110 110 139 139 139 120 120 120 128 128 128 153 153 153 153 153 153 121 121 121 145 145 145 103 103 103 115 115 115 110 110 110 151 151 151 150 150 150 142 142 142 104 104 104 105 105 105 137 137 137 98 98 98 127 127 127 126 126 126 112 112 112 101 101 101 132 132 132 124 124 124 126 126 126 150 150 150 145 145 145 115 115 115 120 120 120 100 100 100 145 145 145 132 132 132 143 143 143 108 108 108 104 104 104 137 137 137 102 102 102 129 129 129 125 125 125 108 108 108 148 148 148 137 137 137 102 102 102 141 141 141 121 121 121 109 109 109 148 148 148 101 101 101 111 111 111 119 119 119 130 130 130 125 125 125 124 124 124 105 105 105 152 152 152 152 152 152 157 157 157 140 140 140 111 111 111 120 120 120 142 142 142 158 158 158 157 157 157 126 126 126 108 108 108 102 102 102 106 106 106 112 112 112 135 135 135 133 133 133 124 124 124 124 124 124 114 114 114 129 129 129 106 106 106 139 139 139 140 140 140 98 98 98 142 142 142 155 155 155 119 119 119 115 115 115 122 122 122 145 145 145 123 123 123 117 117 117 138 138 138 123 123 123 98 98 98 153 153 153 146 146 146 144 144 144 153 153 153 144 144 144 111 111 111 102 102 102 150 150 150 119 119 119 116 116 116 128 128 128 
156 156 156 145 145 145 154 154 154 111 111 111 115 115 115 103 103 103 154 154 154 98 98 98 105 105 105 138 138 138 155 155 155 126 126 126 157 157 157 120 120 120 112 112 112 123 123 123 139 139 139 155 155 155 149 149 149 141 141 141 149 149 149 138 138 138 126 126 126 143 143 143 125 125 125 139 139 139 149 149 149 116 116 116 101 101 101 109 109 109 146 146 146 99 99 99 156 156 156 255 255 255 241 241 241 241 241 241 255 255 255 237 237 237 241 241 241 255 255 255 255 255 255 239 239 239 252 252 252 255 255 255 255 255 255 255 255 255 244 244 244 242 242 242 255 255 255 236 236 236 227 227 227 255 255 255 255 255 255 255 255 255 242 242 242 242 242 242 238 238 238 232 232 232 255 255 255 241 241 241 245 245 245 249 249 249 244 244 244 242 242 242 235 235 235 255 255 255 255 255 255 226 226 226 148 148 148 149 149 149 98 98 98 143 143 143 103 103 103 128 128 128 138 138 138 140 140 140 111 111 111 157 157 157 98 98 98 153 153 153 109 109 109 100 100 100 124 124 124 99 99 99 133 133 133 141 141 141 118 118 118 146 146 146 151 151 151 155 155 155 101 101 101 110 110 110 120 120 120 123 123 123 130 130 130 130 130 130 100 100 100 104 104 104 134 134 134 150 150 150 156 156 156 136 136 136 136 136 136 100 100 100 105 105 105 115 115 115 144 144 144 120 120 120 116 116 116 144 144 144 114 114 114 127 127 127 149 149 149 141 141 141 131 131 131 123 123 123 125 125 125 151 151 151 112 112 112 119 119 119 148 148 148 117 117 117 134 134 134 111 111 111 142 142 142 105 105 105 144 144 144 144 144 144 113 113 113 121 121 121 137 137 137 110 110 110 98 98 98 114 114 114 114 114 114 108 108 108 134 134 134 99 99 99 130 130 130 152 152 152 148 148 148 149 149 149 122 122 122 140 140 140 133 133 133 155 155 155 106 106 106 99 99 99 148 148 148 120 120 120 123 123 123 139 139 139 141 141 141 98 98 98 152 152 152 125 125 125 107 107 107 139 139 139 110 110 110 122 122 122 101 101 101 152 152 152 137 137 137 102 102 102 107 107 107 153 153 153 112 112 112 145 145 145 157 157 157 146 146 146 140 140 140 148 148 148 136 136 136 104 104 104 131 131 131 112 112 112 100 100 100 139 139 139 114 114 114 152 152 152 102 102 102 139 139 139 132 132 132 145 145 145 141 141 141 128 128 128 113 113 113 150 150 150 108 108 108 126 126 126 113 113 113 112 112 112 119 119 119 154 154 154 118 118 118 130 130 130 151 151 151 134 134 134 119 119 119 149 149 149 
121 121 121 100 100 100 140 140 140 101 101 101 106 106 106 112 112 112 115 115 115 111 111 111 155 155 155 133 133 133 104 104 104 100 100 100 115 115 115 141 141 141 147 147 147 158 158 158 110 110 110 102 102 102 149 149 149 120 120 120 132 132 132 106 106 106 136 136 136 155 155 155 101 101 101 156 156 156 128 128 128 154 154 154 131 131 131 149 149 149 146 146 146 155 155 155 154 154 154 255 255 255 226 226 226 228 228 228 255 255 255 243 243 243 243 243 243 255 255 255 255 255 255 250 250 250 255 255 255 237 237 237 232 232 232 255 255 255 237 237 237 244 244 244 255 255 255 227 227 227 255 255 255 240 240 240 237 237 237 246 246 246 238 238 238 243 243 243 243 243 243 255 255 255 240 240 240 255 255 255 255 255 255 228 228 228 255 255 255 255 255 255 255 255 255 255 255 255 255 255 255 246 246 246 110 110 110 155 155 155 101 101 101 105 105 105 119 119 119 147 147 147 118 118 118 128 128 128 122 122 122 132 132 132 149 149 149 103 103 103 136 136 136 131 131 131 120 120 120 149 149 149 154 154 154 133 133 133 108 108 108 114 114 114 117 117 117 123 123 123 107 107 107 155 155 155 128 128 128 98 98 98 129 129 129 104 104 104 151 151 151 107 107 107 127 127 127 104 104 104 103 103 103 130 130 130 112 112 112 124 124 124 120 120 120 134 134 134 156 156 156 146 146 146 107 107 107 146 146 146 153 153 153 147 147 147 120 120 120 114 114 114 137 137 137 118 118 118 149 149 149 149 149 149 134 134 134 110 110 110 114 114 114 143 143 143 108 108 108 146 146 146 145 145 145 140 140 140 152 152 152 137 137 137 149 149 149 122 122 122 145 145 145 154 154 154 157 157 157 100 100 100 121 121 121 118 118 118 136 136 136 118 118 118 108 108 108 147 147 147 107 107 107 102 102 102 136 136 136 131 131 131 119 119 119 116 116 116 151 151 151 111 111 111 109 109 109 128 128 128 125 125 125 125 125 125 114 114 114 138 138 138 114 114 114 100 100 100 119 119 119 110 110 110 141 141 141 111 111 111 134 134 134 128 128 128 108 108 108 132 132 132 130 130 130 133 133 133 155 155 155 110 110 110 155 155 155 104 104 104 100 100 100 103 103 103 110 110 110 140 140 140 138 138 138 131 131 131 98 98 98 133 133 133 147 147 147 111 111 111 102 102 102 113 113 113 138 138 138 121 121 121 155 155 155 156 156 156 123 123 123 115 115 115 107 107 107 108 108 108 130 130 130 146 146 146 140 140 140 142 142 142 119 119 119 111 111 111 116 116 116 117 117 117 125 125 125 112 112 112 
125 125 125 128 128 128 119 119 119 138 138 138 109 109 109 99 99 99 112 112 112 111 111 111 136 136 136 100 100 100 124 124 124 142 142 142 118 118 118 105 105 105 104 104 104 114 114 114 105 105 105 132 132 132 134 134 134 114 114 114 142 142 142 107 107 107 101 101 101 123 123 123 152 152 152 125 125 125 138 138 138 109 109 109 146 146 146 107 107 107 124 124 124 113 113 113 137 137 137 145 145 145 255 255 255 255 255 255 255 255 255 235 235 235 232 232 232 252 252 252 238 238 238 255 255 255 236 236 236 255 255 255 255 255 255 244 244 244 255 255 255 255 255 255 255 255 255 255 255 255 232 232 232 255 255 255 255 255 255 238 238 238 227 227 227 255 255 255 255 255 255 255 255 255 255 255 255 254 254 254 255 255 255 240 240 240 255 255 255 255 255 255 229 229 229 255 255 255 250 250 250 152 152 152 149 149 149 132 132 132 121 121 121 103 103 103 107 107 107 132 132 132 138 138 138 150 150 150 151 151 151 132 132 132 141 141 141 146 146 146 104 104 104 150 150 150 123 123 123 146 146 146 102 102 102 126 126 126 120 120 120 144 144 144 112 112 112 109 109 109 113 113 113 105 105 105 125 125 125 98 98 98 139 139 139 129 129 129 139 139 139 105 105 105 122 122 122 129 129 129 140 140 140 145 145 145 134 134 134 149 149 149 120 120 120 115 115 115 142 142 142 115 115 115 149 149 149 126 126 126 104 104 104 157 157 157 117 117 117 129 129 129 144 144 144 122 122 122 98 98 98 107 107 107 109 109 109 112 112 112 119 119 119 126 126 126 119 119 119 146 146 146 127 127 127 101 101 101 116 116 116 107 107 107 109 109 109 142 142 142 140 140 140 153 153 153 131 131 131 117 117 117 143 143 143 155 155 155 134 134 134 128 128 128 113 113 113 126 126 126 156 156 156 119 119 119 125 125 125 114 114 114 151 151 151 110 110 110 140 140 140 151 151 151 120 120 120 152 152 152 105 105 105 143 143 143 119 119 119 128 128 128 130 130 130 150 150 150 132 132 132 150 150 150 100 100 100 145 145 145 133 133 133 142 142 142 139 139 139 107 107 107 100 100 100 125 125 125 104 104 104 136 136 136 157 157 157 119 119 119 106 106 106 154 154 154 141 141 141 133 133 133 111 111 111 135 135 135 147 147 147 154 154 154 127 127 127 110 110 110 149 149 149 136 136 136 155 155 155 109 109 109 106 106 106 128 128 128 103 103 103 142 142 142 119 119 119 105 105 105 128 128 128 157 157 157 150 150 150 110 110 110 105 105 105 154 154 154 139 139 139 113 113 113 134 134 134 137 137 137 
135 135 135 142 142 142 132 132 132 119 119 119 118 118 118 145 145 145 158 158 158 108 108 108 142 142 142 128 128 128 123 123 123 132 132 132 106 106 106 119 119 119 146 146 146 116 116 116 152 152 152 151 151 151 101 101 101 112 112 112 99 99 99 131 131 131 110 110 110 153 153 153 145 145 145 120 120 120 149 149 149 125 125 125 135 135 135 124 124 124 103 103 103 113 113 113 109 109 109 139 139 139 134 134 134 255 255 255 254 254 254 255 255 255 255 255 255 238 238 238 232 232 232 232 232 232 255 255 255 240 240 240 255 255 255 255 255 255 255 255 255 249 249 249 255 255 255 255 255 255 255 255 255 255 255 255 237 237 237 255 255 255 253 253 253 225 225 225 241 241 241 243 243 243 252 252 252 255 255 255 255 255 255 255 255 255 235 235 235 255 255 255 239 239 239 255 255 255 127 127 127 143 143 143 123 123 123 112 112 112 158 158 158 130 130 130 121 121 121 147 147 147 147 147 147 152 152 152 124 124 124 121 121 121 115 115 115 157 157 157 100 100 100 156 156 156 130 130 130 114 114 114 150 150 150 99 99 99 114 114 114 107 107 107 118 118 118 141 141 141 101 101 101 103 103 103 116 116 116 111 111 111 102 102 102 132 132 132 99 99 99 133 133 133 116 116 116 124 124 124 147 147 147 118 118 118 156 156 156 110 110 110 108 108 108 146 146 146 105 105 105 136 136 136 110 110 110 123 123 123 134 134 134 112 112 112 122 122 122 107 107 107 128 128 128 115 115 115 111 111 111 146 146 146 124 124 124 131 131 131 130 130 130 129 129 129 138 138 138 148 148 148 143 143 143 142 142 142 121 121 121 144 144 144 119 119 119 141 141 141 111 111 111 109 109 109 100 100 100 110 110 110 121 121 121 110 110 110 158 158 158 129 129 129 151 151 151 109 109 109 156 156 156 128 128 128 123 123 123 121 121 121 138 138 138 155 155 155 140 140 140 153 153 153 142 142 142 107 107 107 125 125 125 113 113 113 138 138 138 106 106 106 104 104 104 122 122 122 153 153 153 127 127 127 109 109 109 113 113 113 111 111 111 122 122 122 124 124 124 116 116 116 134 134 134 150 150 150 130 130 130 135 135 135 122 122 122 122 122 122 146 146 146 121 121 121 153 153 153 112 112 112 144 144 144 134 134 134 108 108 108 127 127 127 128 128 128 154 154 154 136 136 136 157 157 157 110 110 110 115 115 115 104 104 104 116 116 116 142 142 142 98 98 98 147 147 147 153 153 153 113 113 113 102 102 102 119 119 119 142 142 142 120 120 120 157 157 157 133 133 133 154 154 154 134 134 134 157 157 157 
118 118 118 121 121 121 119 119 119 114 114 114 136 136 136 106 106 106 150 150 150 148 148 148 135 135 135 121 121 121 146 146 146 114 114 114 119 119 119 158 158 158 133 133 133 125 125 125 118 118 118 116 116 116 128 128 128 108 108 108 113 113 113 145 145 145 112 112 112 134 134 134 128 128 128 136 136 136 132 132 132 102 102 102 132 132 132 107 107 107 102 102 102 152 152 152 133 133 133 125 125 125 107 107 107 110 110 110 255 255 255 227 227 227 228 228 228 238 238 238 250 250 250 255 255 255 254 254 254 255 255 255 255 255 255 231 231 231 239 239 239 239 239 239 249 249 249 255 255 255 251 251 251 255 255 255 255 255 255 255 255 255 241 241 241 227 227 227 243 243 243 255 255 255 234 234 234 255 255 255 226 226 226 240 240 240 255 255 255 255 255 255 255 255 255 156 156 156 148 148 148 117 117 117 99 99 99 154 154 154 131 131 131 124 124 124 146 146 146 101 101 101 111 111 111 140 140 140 107 107 107 128 128 128 156 156 156 134 134 134 113 113 113 124 124 124 112 112 112 148 148 148 104 104 104 131 131 131 151 151 151 124 124 124 123 123 123 101 101 101 118 118 118 124 124 124 116 116 116 106 106 106 102 102 102 98 98 98 106 106 106 154 154 154 118 118 118 109 109 109 151 151 151 153 153 153 138 138 138 141 141 141 158 158 158 153 153 153 124 124 124 107 107 107 122 122 122 122 122 122 145 145 145 140 140 140 148 148 148 100 100 100 129 129 129 156 156 156 133 133 133 123 123 123 123 123 123 158 158 158 126 126 126 145 145 145 126 126 126 145 145 145 156 156 156 132 132 132 145 145 145 105 105 105 129 129 129 106 106 106 116 116 116 122 122 122 100 100 100 156 156 156 104 104 104 100 100 100 151 151 151 130 130 130 111 111 111 116 116 116 156 156 156 158 158 158 99 99 99 147 147 147 99 99 99 131 131 131 146 146 146 137 137 137 158 158 158 113 113 113 136 136 136 126 126 126 99 99 99 105 105 105 112 112 112 98 98 98 139 139 139 100 100 100 105 105 105 110 110 110 111 111 111 124 124 124 136 136 136 115 115 115 123 123 123 144 144 144 117 117 117 117 117 117 117 117 117 132 132 132 136 136 136 117 117 117 133 133 133 137 137 137 107 107 107 137 137 137 111 111 111 156 156 156 115 115 115 111 111 111 112 112 112 155 155 155 141 141 141 113 113 113 102 102 102 155 155 155 114 114 114 145 145 145 98 98 98 123 123 123 98 98 98 111 111 111 151 151 151 136 136 136 129 129 129 116 116 116 123 123 123 150 150 150 135 135 135 143 143 143 
126 126 126 114 114 114 101 101 101 100 100 100 156 156 156 110 110 110 141 141 141 108 108 108 109 109 109 158 158 158 123 123 123 123 123 123 157 157 157 105 105 105 141 141 141 100 100 100 103 103 103 98 98 98 147 147 147 106 106 106 123 123 123 150 150 150 119 119 119 116 116 116 127 127 127 152 152 152 136 136 136 153 153 153 146 146 146 112 112 112 139 139 139 113 113 113 131 131 131 144 144 144 117 117 117 128 128 128 158 158 158 229 229 229 255 255 255 236 236 236 228 228 228 232 232 232 255 255 255 228 228 228 241 241 241 247 247 247 230 230 230 247 247 247 247 247 247 255 255 255 255 255 255 255 255 255 255 255 255 255 255 255 232 232 232 243 243 243 255 255 255 255 255 255 239 239 239 255 255 255 225 225 225 255 255 255 255 255 255 255 255 255 140 140 140 109 109 109 100 100 100 140 140 140 113 113 113 145 145 145 153 153 153 119 119 119 154 154 154 132 132 132 122 122 122 109 109 109 155 155 155 130 130 130 133 133 133 116 116 116 128 128 128 104 104 104 105 105 105 117 117 117 158 158 158 112 112 112 137 137 137 146 146 146 157 157 157 154 154 154 121 121 121 158 158 158 150 150 150 113 113 113 132 132 132 134 134 134 126 126 126 137 137 137 115 115 115 144 144 144 123 123 123 111 111 111 104 104 104 118 118 118 145 145 145 130 130 130 131 131 131 141 141 141 101 101 101 106 106 106 99 99 99 133 133 133 112 112 112 106 106 106 152 152 152 113 113 113 123 123 123 133 133 133 100 100 100 121 121 121 128 128 128 125 125 125 122 122 122 121 121 121 142 142 142 157 157 157 157 157 157 112 112 112 137 137 137 113 113 113 158 158 158 101 101 101 128 128 128 103 103 103 123 123 123 115 115 115 137 137 137 156 156 156 99 99 99 141 141 141 105 105 105 100 100 100 117 117 117 120 120 120 111 111 111 113 113 113 135 135 135 138 138 138 148 148 148 140 140 140 100 100 100 117 117 117 108 108 108 127 127 127 142 142 142 155 155 155 127 127 127 141 141 141 108 108 108 105 105 105 158 158 158 107 107 107 108 108 108 128 128 128 114 114 114 135 135 135 147 147 147 153 153 153 132 132 132 148 148 148 137 137 137 140 140 140 153 153 153 157 157 157 103 103 103 107 107 107 113 113 113 142 142 142 147 147 147 102 102 102 125 125 125 149 149 149 123 123 123 136 136 136 119 119 119 106 106 106 134 134 134 148 148 148 149 149 149 144 144 144 155 155 155 149 149 149 155 155 155 106 106 106 120 120 120 112 112 112 143 143 143 108 108 108 106 106 106 119 119 119 
158 158 158 148 148 148 102 102 102 154 154 154 146 146 146 109 109 109 102 102 102 100 100 100 153 153 153 151 151 151 106 106 106 122 122 122 144 144 144 131 131 131 101 101 101 104 104 104 141 141 141 137 137 137 157 157 157 134 134 134 124 124 124 153 153 153 126 126 126 122 122 122 103 103 103 148 148 148 136 136 136 150 150 150 99 99 99 144 144 144 112 112 112 100 100 100 133 133 133 116 116 116 157 157 157 122 122 122 129 129 129 100 100 100 253 253 253 253 253 253 255 255 255 255 255 255 255 255 255 255 255 255 237 237 237 255 255 255 255 255 255 255 255 255 255 255 255 255 255 255 255 255 255 227 227 227 255 255 255 255 255 255 251 251 251 255 255 255 255 255 255 228 228 228 255 255 255 255 255 255 255 255 255 255 255 255 255 255 255 124 124 124 114 114 114 151 151 151 150 150 150 148 148 148 154 154 154 120 120 120 115 115 115 153 153 153 158 158 158 108 108 108 135 135 135 110 110 110 104 104 104 125 125 125 107 107 107 139 139 139 114 114 114 138 138 138 141 141 141 99 99 99 138 138 138 108 108 108 150 150 150 129 129 129 111 111 111 133 133 133 119 119 119 101 101 101 129 129 129 113 113 113 129 129 129 148 148 148 108 108 108 121 121 121 137 137 137 105 105 105 145 145 145 154 154 154 99 99 99 144 144 144 103 103 103 136 136 136 158 158 158 109 109 109 104 104 104 106 106 106 152 152 152 120 120 120 148 148 148 136 136 136 121 121 121 129 129 129 146 146 146 114 114 114 99 99 99 100 100 100 150 150 150 122 122 122 103 103 103 122 122 122 140 140 140 137 137 137 113 113 113 150 150 150 99 99 99 152 152 152 157 157 157 148 148 148 149 149 149 158 158 158 135 135 135 156 156 156 137 137 137 135 135 135 108 108 108 143 143 143 145 145 145 103 103 103 107 107 107 137 137 137 141 141 141 130 130 130 109 109 109 130 130 130 149 149 149 113 113 113 132 132 132 142 142 142 137 137 137 140 140 140 105 105 105 120 120 120 118 118 118 123 123 123 111 111 111 121 121 121 116 116 116 111 111 111 110 110 110 109 109 109 112 112 112 147 147 147 106 106 106 151 151 151 125 125 125 119 119 119 136 136 136 112 112 112 124 124 124 145 145 145 153 153 153 109 109 109 118 118 118 103 103 103 141 141 141 110 110 110 120 120 120 117 117 117 154 154 154 99 99 99 98 98 98 103 103 103 123 123 123 118 118 118 128 128 128 137 137 137 143 143 143 148 148 148 152 152 152 155 155 155 98 98 98 106 106 106 145 145 145 109 109 109 98 98 98 112 112 112 
132 132 132 138 138 138 128 128 128 158 158 158 126 126 126 122 122 122 110 110 110 149 149 149 129 129 129 154 154 154 100 100 100 152 152 152 114 114 114 98 98 98 155 155 155 114 114 114 103 103 103 119 119 119 136 136 136 135 135 135 99 99 99 122 122 122 124 124 124 154 154 154 118 118 118 127 127 127 101 101 101 104 104 104 138 138 138 103 103 103 118 118 118 111 111 111 144 144 144 150 150 150 112 112 112 113 113 113 113 113 113 125 125 125 103 103 103 147 147 147 249 249 249 235 235 235 255 255 255 255 255 255 235 235 235 255 255 255 255 255 255 242 242 242 229 229 229 255 255 255 255 255 255 231 231 231 225 225 225 246 246 246 228 228 228 247 247 247 255 255 255 231 231 231 255 255 255 255 255 255 238 238 238 149 149 149 144 144 144 157 157 157 142 142 142 100 100 100 112 112 112 99 99 99 127 127 127 119 119 119 148 148 148 153 153 153 129 129 129 133 133 133 134 134 134 141 141 141 114 114 114 133 133 133 99 99 99 118 118 118 111 111 111 155 155 155 126 126 126 113 113 113 116 116 116 129 129 129 137 137 137 107 107 107 137 137 137 106 106 106 139 139 139 151 151 151 98 98 98 126 126 126 149 149 149 143 143 143 128 128 128 104 104 104 144 144 144 157 157 157 128 128 128 133 133 133 153 153 153 100 100 100 109 109 109 130 130 130 144 144 144 125 125 125 104 104 104 145 145 145 147 147 147 119 119 119 142 142 142 115 115 115 134 134 134 101 101 101 148 148 148 112 112 112 110 110 110 127 127 127 123 123 123 153 153 153 119 119 119 123 123 123 121 121 121 111 111 111 107 107 107 151 151 151 118 118 118 153 153 153 152 152 152 150 150 150 129 129 129 146 146 146 152 152 152 140 140 140 118 118 118 139 139 139 108 108 108 126 126 126 126 126 126 99 99 99 148 148 148 111 111 111 118 118 118 125 125 125 114 114 114 107 107 107 142 142 142 128 128 128 136 136 136 106 106 106 123 123 123 157 157 157 131 131 131 146 146 146 110 110 110 141 141 141 138 138 138 132 132 132 137 137 137 133 133 133 123 123 123 108 108 108 121 121 121 118 118 118 150 150 150 143 143 143 99 99 99 102 102 102 110 110 110 129 129 129 103 103 103 101 101 101 142 142 142 123 123 123 131 131 131 99 99 99 132 132 132 116 116 116 131 131 131 112 112 112 126 126 126 156 156 156 110 110 110 98 98 98 145 145 145 124 124 124 143 143 143 127 127 127 158 158 158 122 122 122 101 101 101 124 124 124 134 134 134 124 124 124 145 145 145 127 127 127 110 110 110 146 146 146 
131 131 131 125 125 125 116 116 116 138 138 138 128 128 128 101 101 101 104 104 104 102 102 102 102 102 102 141 141 141 120 120 120 137 137 137 155 155 155 148 148 148 135 135 135 108 108 108 151 151 151 123 123 123 135 135 135 137 137 137 152 152 152 134 134 134 102 102 102 156 156 156 102 102 102 138 138 138 123 123 123 149 149 149 109 109 109 136 136 136 136 136 136 142 142 142 104 104 104 156 156 156 124 124 124 136 136 136 98 98 98 130 130 130 141 141 141 104 104 104 112 112 112 104 104 104 255 255 255 237 237 237 255 255 255 248 248 248 248 248 248 255 255 255 255 255 255 255 255 255 255 255 255 255 255 255 255 255 255 255 255 255 255 255 255 255 255 255 242 242 242 233 233 233 255 255 255 126 126 126 146 146 146 108 108 108 112 112 112 152 152 152 105 105 105 138 138 138 129 129 129 107 107 107 111 111 111 113 113 113 115 115 115 128 128 128 120 120 120 102 102 102 140 140 140 120 120 120 125 125 125 102 102 102 112 112 112 115 115 115 101 101 101 145 145 145 99 99 99 141 141 141 122 122 122 142 142 142 121 121 121 142 142 142 150 150 150 153 153 153 109 109 109 137 137 137 104 104 104 125 125 125 132 132 132 114 114 114 106 106 106 103 103 103 123 123 123 122 122 122 118 118 118 143 143 143 152 152 152 142 142 142 147 147 147 133 133 133 103 103 103 115 115 115 140 140 140 119 119 119 133 133 133 145 145 145 106 106 106 136 136 136 127 127 127 130 130 130 119 119 119 151 151 151 113 113 113 111 111 111 147 147 147 127 127 127 152 152 152 155 155 155 154 154 154 128 128 128 110 110 110 104 104 104 135 135 135 138 138 138 128 128 128 157 157 157 122 122 122 123 123 123 141 141 141 110 110 110 158 158 158 148 148 148 127 127 127 141 141 141 109 109 109 103 103 103 128 128 128 117 117 117 141 141 141 157 157 157 149 149 149 102 102 102 151 151 151 106 106 106 117 117 117 141 141 141 135 135 135 112 112 112 138 138 138 132 132 132 142 142 142 150 150 150 138 138 138 118 118 118 129 129 129 109 109 109 119 119 119 153 153 153 134 134 134 101 101 101 106 106 106 136 136 136 153 153 153 138 138 138 118 118 118 103 103 103 145 145 145 148 148 148 122 122 122 128 128 128 149 149 149 115 115 115 134 134 134 143 143 143 123 123 123 155 155 155 126 126 126 101 101 101 108 108 108 105 105 105 135 135 135 155 155 155 98 98 98 117 117 117 116 116 116 130 130 130 130 130 130 137 137 137 126 126 126 106 106 106 142 142 142 137 137 137 146 146 146 137 137 137 
118 118 118 107 107 107 142 142 142 104 104 104 99 99 99 108 108 108 136 136 136 150 150 150 127 127 127 111 111 111 136 136 136 154 154 154 107 107 107 103 103 103 157 157 157 120 120 120 112 112 112 133 133 133 118 118 118 113 113 113 154 154 154 136 136 136 147 147 147 126 126 126 115 115 115 114 114 114 136 136 136 98 98 98 155 155 155 125 125 125 139 139 139 114 114 114 134 134 134 123 123 123 123 123 123 135 135 135 135 135 135 100 100 100 128 128 128 103 103 103 116 116 116 106 106 106 98 98 98 125 125 125 240 240 240 225 225 225 255 255 255 255 255 255 255 255 255 235 235 235 255 255 255 255 255 255 255 255 255 255 255 255 227 227 227 232 232 232 255 255 255 140 140 140 107 107 107 148 148 148 106 106 106 149 149 149 105 105 105 142 142 142 115 115 115 130 130 130 121 121 121 152 152 152 133 133 133 153 153 153 98 98 98 151 151 151 102 102 102 100 100 100 119 119 119 118 118 118 100 100 100 110 110 110 148 148 148 137 137 137 122 122 122 134 134 134 111 111 111 112 112 112 108 108 108 113 113 113 119 119 119 100 100 100 155 155 155 131 131 131 150 150 150 104 104 104 123 123 123 158 158 158 151 151 151 140 140 140 131 131 131 113 113 113 135 135 135 105 105 105 109 109 109 135 135 135 99 99 99 114 114 114 139 139 139 121 121 121 134 134 134 141 141 141 135 135 135 125 125 125 121 121 121 100 100 100 102 102 102 135 135 135 115 115 115 114 114 114 152 152 152 138 138 138 116 116 116 149 149 149 110 110 110 110 110 110 157 157 157 137 137 137 111 111 111 149 149 149 118 118 118 144 144 144 103 103 103 157 157 157 154 154 154 115 115 115 133 133 133 155 155 155 133 133 133 115 115 115 119 119 119 108 108 108 158 158 158 156 156 156 137 137 137 121 121 121 98 98 98 141 141 141 99 99 99 117 117 117 157 157 157 153 153 153 157 157 157 116 116 116 145 145 145 111 111 111 130 130 130 144 144 144 150 150 150 143 143 143 134 134 134 110 110 110 131 131 131 142 142 142 110 110 110 126 126 126 100 100 100 146 146 146 122 122 122 135 135 135 102 102 102 144 144 144 147 147 147 104 104 104 143 143 143 125 125 125 129 129 129 145 145 145 109 109 109 130 130 130 103 103 103 107 107 107 126 126 126 104 104 104 127 127 127 113 113 113 117 117 117 99 99 99 100 100 100 108 108 108 146 146 146 138 138 138 122 122 122 118 118 118 121 121 121 135 135 135 146 146 146 125 125 125 124 124 124 112 112 112 101 101 101 130 130 130 99 99 99 150 150 150 
138 138 138 144 144 144 116 116 116 108 108 108 133 133 133 127 127 127 142 142 142 140 140 140 138 138 138 110 110 110 146 146 146 109 109 109 127 127 127 104 104 104 112 112 112 131 131 131 117 117 117 99 99 99 110 110 110 143 143 143 122 122 122 136 136 136 121 121 121 111 111 111 102 102 102 147 147 147 125 125 125 106 106 106 121 121 121 128 128 128 99 99 99 100 100 100 116 116 116 118 118 118 113 113 113 151 151 151 149 149 149 157 157 157 132 132 132 131 131 131 110 110 110 122 122 122 142 142 142 139 139 139 130 130 130 158 158 158 113 113 113 149 149 149 100 100 100 126 126 126 136 136 136 124 124 124 103 103 103 98 98 98 138 138 138 107 107 107 150 150 150 106 106 106 117 117 117 112 112 112 139 139 139 119 119 119 116 116 116 157 157 157 141 141 141 131 131 131 151 151 151 131 131 131 132 132 132 124 124 124 105 105 105 144 144 144 150 150 150 151 151 151 127 127 127 122 122 122 150 150 150 142 142 142 114 114 114 153 153 153 111 111 111 152 152 152 120 120 120 116 116 116 155 155 155 101 101 101 128 128 128 146 146 146 110 110 110 147 147 147 101 101 101 151 151 151 109 109 109 119 119 119 151 151 151 152 152 152 155 155 155 143 143 143 127 127 127 128 128 128 110 110 110 134 134 134 115 115 115 102 102 102 127 127 127 144 144 144 126 126 126 120 120 120 128 128 128 144 144 144 116 116 116 141 141 141 138 138 138 139 139 139 101 101 101 134 134 134 142 142 142 131 131 131 123 123 123 156 156 156 121 121 121 126 126 126 150 150 150 133 133 133 149 149 149 142 142 142 128 128 128 145 145 145 126 126 126 157 157 157 116 116 116 141 141 141 135 135 135 134 134 134 145 145 145 105 105 105 119 119 119 114 114 114 127 127 127 151 151 151 99 99 99 148 148 148 136 136 136 141 141 141 128 128 128 139 139 139 116 116 116 113 113 113 113 113 113 141 141 141 111 111 111 138 138 138 110 110 110 104 104 104 114 114 114 101 101 101 149 149 149 145 145 145 148 148 148 118 118 118 145 145 145 108 108 108 100 100 100 121 121 121 144 144 144 149 149 149 128 128 128 106 106 106 104 104 104 99 99 99 99 99 99 108 108 108 149 149 149 137 137 137 151 151 151 120 120 120 119 119 119 111 111 111 135 135 135 136 136 136 154 154 154 150 150 150 115 115 115 108 108 108 157 157 157 134 134 134 111 111 111 149 149 149 122 122 122 102 102 102 108 108 108 108 108 108 112 112 112 113 113 113 132 132 132 158 158 158 103 103 103 103 103 103 106 106 106 112 112 112 
106 106 106 109 109 109 122 122 122 157 157 157 150 150 150 114 114 114 120 120 120 110 110 110 129 129 129 99 99 99 150 150 150 127 127 127 151 151 151 108 108 108 137 137 137 151 151 151 144 144 144 150 150 150 143 143 143 107 107 107 154 154 154 156 156 156 118 118 118 110 110 110 110 110 110 154 154 154 109 109 109 117 117 117 100 100 100 119 119 119 131 131 131 109 109 109 132 132 132 157 157 157 109 109 109 123 123 123 113 113 113 132 132 132 137 137 137 144 144 144 133 133 133 128 128 128 112 112 112 127 127 127 139 139 139 153 153 153 122 122 122 124 124 124 144 144 144 106 106 106 136 136 136 142 142 142 103 103 103 156 156 156 154 154 154 115 115 115 153 153 153 106 106 106 137 137 137 157 157 157 130 130 130 109 109 109 107 107 107 103 103 103 108 108 108 121 121 121 129 129 129 125 125 125 155 155 155 107 107 107 112 112 112 131 131 131 140 140 140 129 129 129 101 101 101 120 120 120 123 123 123 125 125 125 148 148 148 111 111 111 136 136 136 125 125 125 155 155 155 141 141 141 124 124 124 152 152 152 100 100 100 118 118 118 99 99 99 139 139 139 117 117 117 131 131 131 152 152 152 128 128 128 139 139 139 103 103 103 151 151 151 111 111 111 130 130 130 149 149 149 122 122 122 147 147 147 123 123 123 103 103 103 117 117 117 129 129 129 125 125 125 144 144 144 156 156 156 115 115 115 157 157 157 135 135 135 144 144 144 155 155 155 118 118 118 110 110 110 148 148 148 122 122 122 132 132 132 152 152 152 104 104 104 153 153 153 124 124 124 158 158 158 123 123 123 106 106 106 103 103 103 117 117 117 119 119 119 137 137 137 110 110 110 144 144 144 125 125 125 135 135 135 149 149 149 146 146 146 107 107 107 118 118 118 134 134 134 107 107 107 137 137 137 134 134 134 144 144 144 122 122 122 131 131 131 105 105 105 136 136 136 122 122 122 129 129 129 110 110 110 115 115 115 135 135 135 106 106 106 142 142 142 137 137 137 133 133 133 152 152 152 144 144 144 153 153 153 113 113 113 122 122 122 106 106 106 100 100 100 152 152 152 145 145 145 153 153 153 141 141 141 155 155 155 114 114 114 118 118 118 103 103 103 153 153 153 155 155 155 149 149 149 119 119 119 127 127 127 157 157 157 98 98 98 153 153 153 129 129 129 110 110 110 110 110 110 108 108 108 121 121 121 156 156 156 147 147 147 156 156 156 149 149 149 134 134 134 152 152 152 105 105 105 99 99 99 99 99 99 107 107 107 153 153 153 147 147 147 104 104 104 138 138 138 143 143 143 120 120 120 
158 158 158 150 150 150 115 115 115 154 154 154 140 140 140 138 138 138 124 124 124 140 140 140 138 138 138 119 119 119 113 113 113 153 153 153 133 133 133 123 123 123 117 117 117 130 130 130 113 113 113 114 114 114 120 120 120 149 149 149 108 108 108 128 128 128 150 150 150 109 109 109 139 139 139 147 147 147 99 99 99 145 145 145 128 128 128 146 146 146 107 107 107 129 129 129 137 137 137 126 126 126 125 125 125 121 121 121 107 107 107 153 153 153 104 104 104 149 149 149 115 115 115 119 119 119 143 143 143 150 150 150 144 144 144 103 103 103 121 121 121 98 98 98 120 120 120 146 146 146 151 151 151 130 130 130 117 117 117 145 145 145 143 143 143 158 158 158 135 135 135 147 147 147 147 147 147 104 104 104 134 134 134 156 156 156 135 135 135 115 115 115 125 125 125 103 103 103 138 138 138 134 134 134 100 100 100 144 144 144 124 124 124 119 119 119 107 107 107 111 111 111 113 113 113 153 153 153 116 116 116 138 138 138 156 156 156 138 138 138 125 125 125 148 148 148 111 111 111 146 146 146 136 136 136 98 98 98 146 146 146 112 112 112 147 147 147 136 136 136 120 120 120 122 122 122 135 135 135 99 99 99 141 141 141 101 101 101 104 104 104 120 120 120 139 139 139 108 108 108 108 108 108 104 104 104 130 130 130 117 117 117 119 119 119 147 147 147 113 113 113 140 140 140 126 126 126 110 110 110 121 121 121 154 154 154 102 102 102 135 135 135 141 141 141 142 142 142 135 135 135 130 130 130 157 157 157 125 125 125 109 109 109 120 120 120 149 149 149 146 146 146 121 121 121 132 132 132 149 149 149 130 130 130 156 156 156 129 129 129 140 140 140 107 107 107 138 138 138 113 113 113 128 128 128 100 100 100 103 103 103 144 144 144 142 142 142 132 132 132 158 158 158 105 105 105 129 129 129 103 103 103 144 144 144 113 113 113 148 148 148 122 122 122 148 148 148 148 148 148 149 149 149 98 98 98 111 111 111 141 141 141 147 147 147 135 135 135 116 116 116 139 139 139 106 106 106 116 116 116 112 112 112 150 150 150 125 125 125 154 154 154 107 107 107 158 158 158 156 156 156 112 112 112 145 145 145 140 140 140 148 148 148 146 146 146 149 149 149 118 118 118 152 152 152 134 134 134 134 134 134 143 143 143 99 99 99 123 123 123 134 134 134 150 150 150 125 125 125 147 147 147 134 134 134 113 113 113 123 123 123 153 153 153 157 157 157 133 133 133 110 110 110 110 110 110 127 127 127 139 139 139 105 105 105 138 138 138 138 138 138 104 104 104 154 154 154 126 126 126 
148 148 148 144 144 144 114 114 114 138 138 138 103 103 103 109 109 109 115 115 115 141 141 141 154 154 154 116 116 116 107 107 107 131 131 131 109 109 109 135 135 135 119 119 119 146 146 146 152 152 152 147 147 147 140 140 140 150 150 150 123 123 123 154 154 154 103 103 103 152 152 152 136 136 136 112 112 112 133 133 133 116 116 116 119 119 119 129 129 129 144 144 144 108 108 108 114 114 114 101 101 101 151 151 151 121 121 121 112 112 112 107 107 107 104 104 104 107 107 107 128 128 128 115 115 115 142 142 142 139 139 139 154 154 154 105 105 105 128 128 128 148 148 148 154 154 154 109 109 109 141 141 141 120 120 120 106 106 106 149 149 149 116 116 116 145 145 145 102 102 102 151 151 151 104 104 104 125 125 125 121 121 121 152 152 152 138 138 138 139 139 139 156 156 156 130 130 130 102 102 102 109 109 109 141 141 141 110 110 110 121 121 121 110 110 110 129 129 129 104 104 104 154 154 154 125 125 125 111 111 111 123 123 123 116 116 116 108 108 108 137 137 137 98 98 98 131 131 131 145 145 145 151 151 151 149 149 149 133 133 133 156 156 156 141 141 141 139 139 139 124 124 124 106 106 106 133 133 133 103 103 103 149 149 149 130 130 130 135 135 135 153 153 153 143 143 143 120 120 120 106 106 106 105 105 105 134 134 134 138 138 138 112 112 112 131 131 131 106 106 106 127 127 127 157 157 157 124 124 124 138 138 138 137 137 137 126 126 126 110 110 110 125 125 125 119 119 119 102 102 102 100 100 100 118 118 118 147 147 147 141 141 141 144 144 144 157 157 157 117 117 117 150 150 150 148 148 148 151 151 151 128 128 128 142 142 142 136 136 136 152 152 152 153 153 153 143 143 143 128 128 128 134 134 134 98 98 98 100 100 100 142 142 142 128 128 128 100 100 100 107 107 107 107 107 107 139 139 139 137 137 137 121 121 121 106 106 106 158 158 158 125 125 125 110 110 110 119 119 119 115 115 115 153 153 153 105 105 105 114 114 114 114 114 114 98 98 98 103 103 103 106 106 106 130 130 130 149 149 149 144 144 144 124 124 124 143 143 143 129 129 129 156 156 156 118 118 118 131 131 131 99 99 99 103 103 103 100 100 100 102 102 102 112 112 112 111 111 111 145 145 145 154 154 154 134 134 134 155 155 155 155 155 155 102 102 102 106 106 106 116 116 116 120 120 120 103 103 103 125 125 125 138 138 138 119 119 119 127 127 127 143 143 143 127 127 127 98 98 98 133 133 133 115 115 115 126 126 126 120 120 120 148 148 148 125 125 125 140 140 140 120 120 120 127 127 127 146 146 146 
123 123 123 133 133 133 101 101 101 136 136 136 121 121 121 157 157 157 114 114 114 118 118 118 156 156 156 120 120 120 126 126 126 113 113 113 144 144 144 131 131 131 140 140 140 123 123 123 154 154 154 108 108 108 107 107 107 125 125 125 110 110 110 145 145 145 142 142 142 141 141 141 106 106 106 131 131 131 107 107 107 150 150 150 153 153 153 138 138 138 139 139 139 119 119 119 114 114 114 143 143 143 99 99 99 138 138 138 143 143 143 117 117 117 99 99 99 142 142 142 139 139 139 129 129 129 157 157 157 125 125 125 104 104 104 140 140 140 150 150 150 99 99 99 152 152 152 101 101 101 126 126 126 104 104 104 150 150 150 109 109 109 149 149 149 158 158 158 144 144 144 158 158 158 149 149 149 141 141 141 140 140 140 132 132 132 101 101 101 156 156 156 118 118 118 104 104 104 135 135 135 102 102 102 123 123 123 138 138 138 147 147 147 104 104 104 109 109 109 147 147 147 133 133 133 115 115 115 131 131 131 126 126 126 116 116 116 124 124 124 129 129 129 147 147 147 132 132 132 122 122 122 158 158 158 122 122 122 121 121 121 146 146 146 124 124 124 114 114 114 128 128 128 105 105 105 148 148 148 133 133 133 102 102 102 107 107 107 140 140 140 142 142 142 113 113 113 104 104 104 121 121 121 103 103 103 112 112 112 132 132 132 155 155 155 149 149 149 149 149 149 127 127 127 117 117 117 109 109 109 153 153 153 150 150 150 158 158 158 129 129 129 114 114 114 98 98 98 155 155 155 139 139 139 146 146 146 120 120 120 157 157 157 117 117 117 127 127 127 146 146 146 153 153 153 134 134 134 157 157 157 134 134 134 119 119 119 114 114 114 142 142 142 142 142 142 121 121 121 98 98 98 118 118 118 117 117 117 149 149 149 110 110 110 146 146 146 109 109 109 121 121 121 143 143 143 103 103 103 122 122 122 115 115 115 121 121 121 125 125 125 111 111 111 101 101 101 112 112 112 134 134 134 100 100 100 132 132 132 104 104 104 150 150 150 128 128 128 140 140 140 151 151 151 103 103 103 102 102 102 106 106 106 147 147 147 147 147 147 129 129 129 149 149 149 108 108 108 151 151 151 142 142 142 120 120 120 138 138 138 153 153 153 146 146 146 124 124 124 99 99 99 111 111 111 141 141 141 122 122 122 138 138 138 157 157 157 128 128 128 155 155 155 132 132 132 130 130 130 130 130 130 140 140 140 123 123 123 99 99 99 124 124 124 115 115 115 104 104 104 128 128 128 125 125 125 155 155 155 116 116 116 98 98 98 146 146 146 126 126 126 151 151 151 131 131 131 151 151 151 
132 132 132 125 125 125 138 138 138 98 98 98 127 127 127 151 151 151 143 143 143 153 153 153 133 133 133 141 141 141 122 122 122 129 129 129 116 116 116 156 156 156 100 100 100 98 98 98 121 121 121 101 101 101 124 124 124 140 140 140 109 109 109 156 156 156 109 109 109 105 105 105 114 114 114 109 109 109 155 155 155 144 144 144 101 101 101 127 127 127 138 138 138 135 135 135 157 157 157 119 119 119 137 137 137 127 127 127 114 114 114 124 124 124 121 121 121 149 149 149 108 108 108 148 148 148 119 119 119 127 127 127 145 145 145 123 123 123 129 129 129 109 109 109 126 126 126 157 157 157 154 154 154 137 137 137 154 154 154 104 104 104 146 146 146 111 111 111 115 115 115 145 145 145 99 99 99 120 120 120 115 115 115 141 141 141 157 157 157 115 115 115 102 102 102 136 136 136 144 144 144 118 118 118 103 103 103 109 109 109 110 110 110 113 113 113 98 98 98 133 133 133 144 144 144 147 147 147 158 158 158 114 114 114 98 98 98 127 127 127 114 114 114 156 156 156 107 107 107 112 112 112 101 101 101 155 155 155 125 125 125 120 120 120 143 143 143 128 128 128 142 142 142 100 100 100 111 111 111 140 140 140 117 117 117 115 115 115 119 119 119 105 105 105 137 137 137 124 124 124 116 116 116 151 151 151 142 142 142 118 118 118 125 125 125 127 127 127 108 108 108 124 124 124 144 144 144 110 110 110 153 153 153 101 101 101 107 107 107 103 103 103 115 115 115 110 110 110 99 99 99 145 145 145 134 134 134 145 145 145 114 114 114 117 117 117 149 149 149 129 129 129 101 101 101 109 109 109 148 148 148 124 124 124 116 116 116 128 128 128 153 153 153 136 136 136 120 120 120 136 136 136 156 156 156 147 147 147 104 104 104 106 106 106 114 114 114 152 152 152 118 118 118 110 110 110 156 156 156 130 130 130 115 115 115 114 114 114 142 142 142 117 117 117 100 100 100 120 120 120 105 105 105 119 119 119 139 139 139 158 158 158 150 150 150 142 142 142 108 108 108 140 140 140 108 108 108 127 127 127 109 109 109 102 102 102 106 106 106 132 132 132 142 142 142 104 104 104 122 122 122 148 148 148 114 114 114 139 139 139 144 144 144 136 136 136 151 151 151 141 141 141 107 107 107 108 108 108 157 157 157 154 154 154 129 129 129 101 101 101 115 115 115 138 138 138 122 122 122 158 158 158 139 139 139 113 113 113 144 144 144 149 149 149 157 157 157 154 154 154 119 119 119 108 108 108 99 99 99 128 128 128 144 144 144 143 143 143 136 136 136 107 107 107 134 134 134 154 154 154 
148 148 148 119 119 119 133 133 133 141 141 141 103 103 103 145 145 145 153 153 153 104 104 104 140 140 140 125 125 125 107 107 107 98 98 98 104 104 104 131 131 131 99 99 99 145 145 145 148 148 148 145 145 145 137 137 137 147 147 147 142 142 142 98 98 98 98 98 98 145 145 145 130 130 130 144 144 144 131 131 131 107 107 107 153 153 153 107 107 107 104 104 104 145 145 145 130 130 130 139 139 139 127 127 127 136 136 136 125 125 125 123 123 123 142 142 142 108 108 108 150 150 150 153 153 153 110 110 110 158 158 158 125 125 125 112 112 112 146 146 146 116 116 116 100 100 100 124 124 124 104 104 104 145 145 145 126 126 126 104 104 104 133 133 133 99 99 99 152 152 152 106 106 106 110 110 110 147 147 147 115 115 115 116 116 116 133 133 133 149 149 149 158 158 158 103 103 103 126 126 126 126 126 126 130 130 130 111 111 111 137 137 137 123 123 123 105 105 105 149 149 149 124 124 124 134 134 134 104 104 104 111 111 111 153 153 153 109 109 109 139 139 139 100 100 100 156 156 156 109 109 109 109 109 109 132 132 132 110 110 110 102 102 102 140 140 140 123 123 123 153 153 153 98 98 98 141 141 141 129 129 129 150 150 150 142 142 142 136 136 136 119 119 119 110 110 110 107 107 107 133 133 133 151 151 151 134 134 134 140 140 140 143 143 143 99 99 99 116 116 116 150 150 150 112 112 112 110 110 110 100 100 100 156 156 156 114 114 114 99 99 99 106 106 106 125 125 125 133 133 133 118 118 118 132 132 132 117 117 117 143 143 143 126 126 126 117 117 117 128 128 128 99 99 99 110 110 110 111 111 111 137 137 137 132 132 132 125 125 125 149 149 149 106 106 106 117 117 117 124 124 124 148 148 148 102 102 102 126 126 126 107 107 107 156 156 156 142 142 142 121 121 121 158 158 158 139 139 139 138 138 138 100 100 100 147 147 147 104 104 104 137 137 137 109 109 109 140 140 140 158 158 158 156 156 156 108 108 108 117 117 117 125 125 125 111 111 111 131 131 131 141 141 141 150 150 150 106 106 106 107 107 107 142 142 142 114 114 114 129 129 129 108 108 108 106 106 106 133 133 133 138 138 138 115 115 115 130 130 130 121 121 121 139 139 139 131 131 131 104 104 104 120 120 120 135 135 135 155 155 155 128 128 128 115 115 115 105 105 105 110 110 110 115 115 115 105 105 105 122 122 122 136 136 136 132 132 132 135 135 135 108 108 108 116 116 116 126 126 126 117 117 117 128 128 128 112 112 112 135 135 135 98 98 98 122 122 122 145 145 145 135 135 135 103 103 103 104 104 104 
108 108 108 128 128 128 147 147 147 143 143 143 134 134 134 108 108 108 121 121 121 131 131 131 138 138 138 138 138 138 140 140 140 150 150 150 155 155 155 147 147 147 113 113 113 132 132 132 123 123 123 152 152 152 145 145 145 143 143 143 122 122 122 103 103 103 112 112 112 136 136 136 142 142 142 114 114 114 101 101 101 131 131 131 153 153 153 106 106 106 137 137 137 104 104 104 136 136 136 125 125 125 149 149 149 114 114 114 137 137 137 111 111 111 149 149 149 116 116 116 152 152 152 130 130 130 110 110 110 150 150 150 121 121 121 127 127 127 124 124 124 148 148 148 121 121 121 110 110 110 132 132 132 145 145 145 117 117 117 149 149 149 122 122 122 102 102 102 106 106 106 125 125 125 135 135 135 103 103 103 135 135 135 113 113 113 109 109 109 112 112 112 142 142 142 102 102 102 128 128 128 120 120 120 115 115 115 118 118 118 139 139 139 110 110 110 153 153 153 153 153 153 102 102 102 117 117 117 121 121 121 130 130 130 106 106 106 146 146 146 142 142 142 142 142 142 132 132 132 102 102 102 134 134 134 158 158 158 106 106 106 143 143 143 126 126 126 144 144 144 150 150 150 102 102 102 100 100 100 100 100 100 117 117 117 145 145 145 104 104 104 149 149 149 106 106 106 124 124 124 111 111 111 149 149 149 136 136 136 107 107 107 143 143 143 142 142 142 126 126 126 108 108 108 113 113 113 136 136 136 156 156 156 98 98 98 119 119 119 130 130 130 102 102 102 158 158 158 131 131 131 111 111 111 142 142 142 99 99 99 98 98 98 133 133 133 103 103 103 100 100 100 137 137 137 124 124 124 147 147 147 144 144 144 115 115 115 156 156 156 109 109 109 130 130 130 148 148 148 149 149 149 139 139 139 133 133 133 133 133 133 106 106 106 143 143 143 150 150 150 146 146 146 140 140 140 151 151 151 106 106 106 113 113 113 155 155 155 105 105 105 147 147 147 109 109 109 151 151 151 148 148 148 109 109 109 127 127 127 155 155 155 114 114 114 108 108 108 121 121 121 102 102 102 154 154 154 140 140 140 101 101 101 106 106 106 111 111 111 152 152 152 157 157 157 154 154 154 128 128 128 133 133 133 103 103 103 112 112 112 125 125 125 151 151 151 156 156 156 117 117 117 100 100 100 113 113 113 115 115 115 110 110 110 101 101 101 127 127 127 104 104 104 153 153 153 140 140 140 134 134 134 151 151 151 156 156 156 144 144 144 113 113 113 102 102 102 141 141 141 157 157 157 107 107 107 149 149 149 111 111 111 100 100 100 149 149 149 106 106 106 130 130 130 124 124 124 113 113 113 
146 146 146 151 151 151 105 105 105 146 146 146 111 111 111 108 108 108 100 100 100 128 128 128 120 120 120 105 105 105 98 98 98 126 126 126 101 101 101 143 143 143 103 103 103 154 154 154 142 142 142 151 151 151 109 109 109 148 148 148 135 135 135 109 109 109 158 158 158 125 125 125 123 123 123 101 101 101 118 118 118 133 133 133 134 134 134 144 144 144 149 149 149 123 123 123 138 138 138 156 156 156 112 112 112 153 153 153 107 107 107 114 114 114 124 124 124 131 131 131 123 123 123 127 127 127 101 101 101 126 126 126 111 111 111 108 108 108 124 124 124 157 157 157 101 101 101 137 137 137 147 147 147 138 138 138 148 148 148 146 146 146 107 107 107 112 112 112 151 151 151 127 127 127 150 150 150 128 128 128 114 114 114 140 140 140 154 154 154 156 156 156 139 139 139 107 107 107 152 152 152 149 149 149 126 126 126 117 117 117 123 123 123 153 153 153 146 146 146 126 126 126 121 121 121 100 100 100 137 137 137 149 149 149 99 99 99 142 142 142 127 127 127 150 150 150 123 123 123 116 116 116 139 139 139 134 134 134 133 133 133 131 131 131 104 104 104 124 124 124 101 101 101 122 122 122 105 105 105 98 98 98 119 119 119 148 148 148 109 109 109 114 114 114 138 138 138 137 137 137 134 134 134 105 105 105 134 134 134 123 123 123 133 133 133 98 98 98 128 128 128 113 113 113 149 149 149 129 129 129 98 98 98 117 117 117 122 122 122 126 126 126 135 135 135 102 102 102 101 101 101 109 109 109 137 137 137 110 110 110 137 137 137 140 140 140 134 134 134 146 146 146 140 140 140 158 158 158 136 136 136 152 152 152 113 113 113 117 117 117 132 132 132 151 151 151 124 124 124 107 107 107 116 116 116 101 101 101 107 107 107 146 146 146 118 118 118 158 158 158 118 118 118 121 121 121 118 118 118 144 144 144 149 149 149 156 156 156 148 148 148 154 154 154 108 108 108 126 126 126 105 105 105 150 150 150 110 110 110 144 144 144 137 137 137 152 152 152 143 143 143 114 114 114 147 147 147 99 99 99 136 136 136 123 123 123 153 153 153 101 101 101 132 132 132 110 110 110 106 106 106 144 144 144 99 99 99 127 127 127 145 145 145 121 121 121 150 150 150 105 105 105 106 106 106 142 142 142 104 104 104 158 158 158 139 139 139 116 116 116 125 125 125 149 149 149 107 107 107 137 137 137 134 134 134 147 147 147 133 133 133 120 120 120 104 104 104 123 123 123 121 121 121 142 142 142 148 148 148 115 115 115 148 148 148 122 122 122 129 129 129 156 156 156 109 109 109 132 132 132 
126 126 126 158 158 158 155 155 155 119 119 119 104 104 104 102 102 102 104 104 104 112 112 112 101 101 101 146 146 146 131 131 131 131 131 131 136 136 136 142 142 142 111 111 111 113 113 113 130 130 130 148 148 148 135 135 135 139 139 139 113 113 113 99 99 99 124 124 124 102 102 102 119 119 119 113 113 113 128 128 128 150 150 150 113 113 113 141 141 141 126 126 126 141 141 141 141 141 141 122 122 122 104 104 104 147 147 147 129 129 129 110 110 110 103 103 103 134 134 134 158 158 158 136 136 136 108 108 108 137 137 137 121 121 121 122 122 122 152 152 152 156 156 156 113 113 113 130 130 130 136 136 136 128 128 128 134 134 134 101 101 101 135 135 135 155 155 155 119 119 119 106 106 106 148 148 148 134 134 134 150 150 150 115 115 115 118 118 118 132 132 132 142 142 142 124 124 124 122 122 122 112 112 112 137 137 137 127 127 127 150 150 150 136 136 136 106 106 106 100 100 100 117 117 117 130 130 130 126 126 126 112 112 112 129 129 129 141 141 141 145 145 145 106 106 106 113 113 113 120 120 120 111 111 111 152 152 152 118 118 118 132 132 132 99 99 99 107 107 107 109 109 109 153 153 153 125 125 125 130 130 130 126 126 126 108 108 108 156 156 156 153 153 153 124 124 124 134 134 134 121 121 121 115 115 115 114 114 114 132 132 132 119 119 119 135 135 135 105 105 105 147 147 147 149 149 149 136 136 136 132 132 132 137 137 137 146 146 146 149 149 149 100 100 100 98 98 98 142 142 142 120 120 120 135 135 135 145 145 145 130 130 130 146 146 146 140 140 140 98 98 98 117 117 117 109 109 109 108 108 108 115 115 115 103 103 103 136 136 136 153 153 153 129 129 129 153 153 153 110 110 110 102 102 102 114 114 114 147 147 147 111 111 111 104 104 104 140 140 140 149 149 149 140 140 140 118 118 118 136 136 136 132 132 132 121 121 121 138 138 138 117 117 117 143 143 143 114 114 114 104 104 104 116 116 116 102 102 102 148 148 148 116 116 116 121 121 121 98 98 98 128 128 128 140 140 140 104 104 104 105 105 105 137 137 137 135 135 135 100 100 100 151 151 151 141 141 141 118 118 118 142 142 142 154 154 154 126 126 126 123 123 123 146 146 146 110 110 110 145 145 145 125 125 125 144 144 144 107 107 107 104 104 104 103 103 103 155 155 155 121 121 121 109 109 109 112 112 112 127 127 127 100 100 100 133 133 133 150 150 150 100 100 100 102 102 102 134 134 134 108 108 108 110 110 110 114 114 114 145 145 145 114 114 114 108 108 108 129 129 129 134 134 134 152 152 152 126 126 126 
103 103 103 118 118 118 113 113 113 115 115 115 105 105 105 140 140 140 101 101 101 114 114 114 147 147 147 106 106 106 112 112 112 111 111 111 119 119 119 127 127 127 140 140 140 121 121 121 103 103 103 133 133 133 123 123 123 107 107 107 110 110 110 134 134 134 119 119 119 126 126 126 122 122 122 135 135 135 139 139 139 156 156 156 112 112 112 132 132 132 123 123 123 118 118 118 153 153 153 139 139 139 135 135 135 101 101 101 122 122 122 140 140 140 119 119 119 110 110 110 148 148 148 134 134 134 123 123 123 110 110 110 104 104 104 106 106 106 133 133 133 109 109 109 142 142 142 100 100 100 118 118 118 154 154 154 138 138 138 142 142 142 124 124 124 103 103 103 120 120 120 104 104 104 100 100 100 135 135 135 138 138 138 126 126 126 157 157 157 134 134 134 108 108 108 135 135 135 139 139 139 132 132 132 117 117 117 100 100 100 145 145 145 108 108 108 136 136 136 111 111 111 121 121 121 142 142 142 120 120 120 158 158 158 155 155 155 105 105 105 101 101 101 116 116 116 100 100 100 141 141 141 99 99 99 126 126 126 147 147 147 122 122 122 132 132 132 151 151 151 100 100 100 114 114 114 118 118 118 100 100 100 152 152 152 130 130 130 137 137 137 133 133 133 104 104 104 158 158 158 137 137 137 153 153 153 110 110 110 114 114 114 107 107 107 133 133 133 99 99 99 131 131 131 134 134 134 156 156 156 138 138 138 138 138 138 113 113 113 141 141 141 120 120 120 117 117 117 110 110 110 110 110 110 143 143 143 145 145 145 103 103 103 147 147 147 102 102 102 125 125 125 149 149 149 158 158 158 158 158 158 129 129 129 134 134 134 103 103 103 129 129 129 112 112 112 99 99 99 141 141 141 128 128 128 108 108 108 117 117 117 131 131 131 142 142 142 155 155 155 130 130 130 121 121 121 134 134 134 148 148 148 103 103 103 98 98 98 106 106 106 116 116 116 110 110 110 153 153 153 104 104 104 117 117 117 141 141 141 110 110 110 145 145 145 133 133 133 109 109 109 146 146 146 103 103 103 148 148 148 153 153 153 136 136 136 101 101 101 154 154 154 118 118 118 134 134 134 103 103 103 139 139 139 106 106 106 147 147 147 136 136 136 139 139 139 112 112 112 113 113 113 128 128 128 119 119 119 113 113 113 138 138 138 139 139 139 128 128 128 132 132 132 145 145 145 147 147 147 116 116 116 98 98 98 135 135 135 151 151 151 112 112 112 122 122 122 158 158 158 101 101 101 118 118 118 136 136 136 106 106 106 113 113 113 158 158 158 142 142 142 119 119 119 139 139 139 151 151 151 
109 109 109 118 118 118 133 133 133 125 125 125 133 133 133 104 104 104 147 147 147 151 151 151 144 144 144 127 127 127 120 120 120 119 119 119 116 116 116 110 110 110 137 137 137 116 116 116 150 150 150 131 131 131 132 132 132 115 115 115 130 130 130 135 135 135 136 136 136 107 107 107 144 144 144 151 151 151 107 107 107 127 127 127 113 113 113 150 150 150 121 121 121 127 127 127 111 111 111 158 158 158 154 154 154 148 148 148 103 103 103 142 142 142 140 140 140 151 151 151 111 111 111 103 103 103 113 113 113 129 129 129 116 116 116 154 154 154 149 149 149 109 109 109 126 126 126 123 123 123 126 126 126 100 100 100 101 101 101 105 105 105 111 111 111 147 147 147 98 98 98 122 122 122 118 118 118 115 115 115 115 115 115 143 143 143 144 144 144 128 128 128 145 145 145 140 140 140 118 118 118 150 150 150 123 123 123 101 101 101 145 145 145 138 138 138 107 107 107 101 101 101 110 110 110 127 127 127 158 158 158 101 101 101 138 138 138 127 127 127 128 128 128 107 107 107 131 131 131 131 131 131 115 115 115 145 145 145 122 122 122 115 115 115 108 108 108 144 144 144 134 134 134 126 126 126 128 128 128 120 120 120 158 158 158 114 114 114 101 101 101 117 117 117 108 108 108 128 128 128 121 121 121 157 157 157 108 108 108 132 132 132 99 99 99 122 122 122 100 100 100 100 100 100 127 127 127 142 142 142 132 132 132 157 157 157 151 151 151 104 104 104 132 132 132 107 107 107 151 151 151 156 156 156 126 126 126 101 101 101 141 141 141 102 102 102 131 131 131 112 112 112 126 126 126 130 130 130 129 129 129 129 129 129 152 152 152 141 141 141 100 100 100 114 114 114 139 139 139 112 112 112 150 150 150 142 142 142 137 137 137 152 152 152 145 145 145 105 105 105 137 137 137 118 118 118 104 104 104 129 129 129 126 126 126 138 138 138 141 141 141 119 119 119 137 137 137 110 110 110 124 124 124 119 119 119 116 116 116 157 157 157 133 133 133 144 144 144 130 130 130 105 105 105 116 116 116 123 123 123 148 148 148 121 121 121 141 141 141 130 130 130 135 135 135 132 132 132 114 114 114 113 113 113 127 127 127 102 102 102 123 123 123 105 105 105 124 124 124 131 131 131 139 139 139 152 152 152 112 112 112 123 123 123 114 114 114 151 151 151 135 135 135 140 140 140 113 113 113 156 156 156 140 140 140 150 150 150 141 141 141 112 112 112 99 99 99 101 101 101 139 139 139 151 151 151 124 124 124 122 122 122 123 123 123 102 102 102 158 158 158 141 141 141 118 118 118 129 129 129 
147 147 147 145 145 145 138 138 138 112 112 112 117 117 117 118 118 118 107 107 107 131 131 131 143 143 143 124 124 124 125 125 125 122 122 122 105 105 105 142 142 142 119 119 119 150 150 150 133 133 133 103 103 103 105 105 105 136 136 136 108 108 108 146 146 146 129 129 129 134 134 134 111 111 111 154 154 154 139 139 139 111 111 111 138 138 138 100 100 100 142 142 142 126 126 126 149 149 149 121 121 121 140 140 140 107 107 107 144 144 144 151 151 151 142 142 142 130 130 130 116 116 116 110 110 110 154 154 154 126 126 126 154 154 154 116 116 116 117 117 117 130 130 130 124 124 124 126 126 126 108 108 108 134 134 134 113 113 113 139 139 139 112 112 112 127 127 127 136 136 136 155 155 155 140 140 140 115 115 115 98 98 98 125 125 125 143 143 143 149 149 149 150 150 150 126 126 126 99 99 99 135 135 135 120 120 120 143 143 143 107 107 107 139 139 139 157 157 157 104 104 104 108 108 108 152 152 152 125 125 125 127 127 127 125 125 125 151 151 151 157 157 157 135 135 135 128 128 128 111 111 111 117 117 117 142 142 142 140 140 140 155 155 155 138 138 138 123 123 123 111 111 111 138 138 138 152 152 152 158 158 158 128 128 128 144 144 144 127 127 127 131 131 131 122 122 122 150 150 150 115 115 115 133 133 133 132 132 132 115 115 115 140 140 140 142 142 142 108 108 108 106 106 106 112 112 112 136 136 136 100 100 100 110 110 110 114 114 114 130 130 130 123 123 123 134 134 134 114 114 114 107 107 107 130 130 130 156 156 156 134 134 134 146 146 146 138 138 138 130 130 130 147 147 147 109 109 109 115 115 115 118 118 118 143 143 143 141 141 141 109 109 109 101 101 101 116 116 116 145 145 145 119 119 119 99 99 99 128 128 128 129 129 129 109 109 109 144 144 144 108 108 108 111 111 111 156 156 156 127 127 127 145 145 145 122 122 122 102 102 102 102 102 102 133 133 133 136 136 136 100 100 100 109 109 109 125 125 125 140 140 140 141 141 141 116 116 116 151 151 151 99 99 99 136 136 136 137 137 137 144 144 144 149 149 149 141 141 141 101 101 101 135 135 135 101 101 101 102 102 102 106 106 106 134 134 134 113 113 113 152 152 152 147 147 147 128 128 128 149 149 149 115 115 115 115 115 115 112 112 112 121 121 121 119 119 119 148 148 148 100 100 100 123 123 123 100 100 100 128 128 128 106 106 106 145 145 145 148 148 148 101 101 101 148 148 148 125 125 125 140 140 140 133 133 133 117 117 117 122 122 122 137 137 137 156 156 156 125 125 125 143 143 143 103 103 103 103 103 103 
98 98 98 157 157 157 152 152 152 130 130 130 149 149 149 108 108 108 147 147 147 104 104 104 133 133 133 110 110 110 156 156 156 135 135 135 135 135 135 158 158 158 106 106 106 144 144 144 146 146 146 156 156 156 147 147 147 135 135 135 124 124 124 130 130 130 110 110 110 143 143 143 155 155 155 151 151 151 142 142 142 123 123 123 135 135 135 147 147 147 130 130 130 137 137 137 145 145 145 123 123 123 109 109 109 137 137 137 135 135 135 99 99 99 144 144 144 109 109 109 111 111 111 141 141 141 147 147 147 151 151 151 141 141 141 155 155 155 138 138 138 130 130 130 155 155 155 126 126 126 107 107 107 122 122 122 99 99 99 119 119 119 109 109 109 156 156 156 113 113 113 153 153 153 123 123 123 150 150 150 142 142 142 155 155 155 129 129 129 130 130 130 122 122 122 142 142 142 109 109 109 98 98 98 143 143 143 155 155 155 110 110 110 98 98 98 137 137 137 100 100 100 151 151 151 121 121 121 98 98 98 132 132 132 154 154 154 157 157 157 101 101 101 104 104 104 121 121 121 102 102 102 127 127 127 132 132 132 102 102 102 142 142 142 126 126 126 127 127 127 133 133 133 109 109 109 125 125 125 105 105 105 144 144 144 149 149 149 151 151 151 155 155 155 150 150 150 138 138 138 153 153 153 103 103 103 138 138 138 131 131 131 105 105 105 132 132 132 157 157 157 107 107 107 105 105 105 154 154 154 106 106 106 108 108 108 99 99 99 129 129 129 112 112 112 130 130 130 102 102 102 116 116 116 113 113 113 132 132 132 147 147 147 150 150 150 146 146 146 114 114 114 99 99 99 131 131 131 106 106 106 152 152 152 127 127 127 158 158 158 131 131 131 123 123 123 104 104 104 112 112 112 156 156 156 113 113 113 146 146 146 156 156 156 123 123 123 155 155 155 153 153 153 133 133 133 106 106 106 156 156 156 105 105 105 123 123 123 127 127 127 109 109 109 143 143 143 142 142 142 145 145 145 132 132 132 136 136 136 132 132 132 150 150 150 137 137 137 104 104 104 158 158 158 132 132 132 135 135 135 99 99 99 107 107 107 99 99 99 105 105 105 121 121 121 99 99 99 123 123 123 111 111 111 157 157 157 150 150 150 107 107 107 154 154 154 124 124 124 116 116 116 151 151 151 131 131 131 141 141 141 120 120 120 144 144 144 125 125 125 105 105 105 130 130 130 100 100 100 145 145 145 104 104 104 152 152 152 125 125 125 112 112 112 154 154 154 99 99 99 150 150 150 157 157 157 108 108 108 153 153 153 105 105 105 131 131 131 154 154 154 130 130 130 146 146 146 155 155 155 
121 121 121 156 156 156 150 150 150 149 149 149 115 115 115 142 142 142 121 121 121 158 158 158 105 105 105 108 108 108 126 126 126 113 113 113 141 141 141 131 131 131 99 99 99 149 149 149 126 126 126 127 127 127 102 102 102 121 121 121 130 130 130 156 156 156 119 119 119 140 140 140 151 151 151 129 129 129 114 114 114 146 146 146 100 100 100 102 102 102 144 144 144 126 126 126 101 101 101 135 135 135 116 116 116 118 118 118 119 119 119 142 142 142 119 119 119 128 128 128 152 152 152 149 149 149 143 143 143 136 136 136 121 121 121 147 147 147 126 126 126 150 150 150 117 117 117 133 133 133 114 114 114 149 149 149 130 130 130 138 138 138 132 132 132 124 124 124 108 108 108 150 150 150 114 114 114 110 110 110 156 156 156 99 99 99 138 138 138 98 98 98 137 137 137 98 98 98 118 118 118 99 99 99 142 142 142 141 141 141 129 129 129 137 137 137 132 132 132 116 116 116 115 115 115 157 157 157 106 106 106 145 145 145 148 148 148 125 125 125 119 119 119 106 106 106 115 115 115 154 154 154 146 146 146 151 151 151 119 119 119 156 156 156 142 142 142 137 137 137 107 107 107 140 140 140 139 139 139 150 150 150 142 142 142 117 117 117 152 152 152 104 104 104 120 120 120 135 135 135 147 147 147 153 153 153 113 113 113 122 122 122 110 110 110 130 130 130 121 121 121 118 118 118 119 119 119 112 112 112 145 145 145 140 140 140 120 120 120 103 103 103 137 137 137 107 107 107 158 158 158 100 100 100 104 104 104 144 144 144 139 139 139 116 116 116 125 125 125 119 119 119 109 109 109 108 108 108 140 140 140 102 102 102 114 114 114 101 101 101 139 139 139 105 105 105 157 157 157 156 156 156 129 129 129 110 110 110 130 130 130 152 152 152 131 131 131 151 151 151 108 108 108 119 119 119 134 134 134 130 130 130 127 127 127 113 113 113 140 140 140 126 126 126 115 115 115 148 148 148 113 113 113 156 156 156 105 105 105 140 140 140 119 119 119 116 116 116 153 153 153 100 100 100 122 122 122 110 110 110 106 106 106 102 102 102 119 119 119 104 104 104 102 102 102 151 151 151 118 118 118 134 134 134 146 146 146 151 151 151 128 128 128 156 156 156 114 114 114 103 103 103 130 130 130 145 145 145 120 120 120 111 111 111 114 114 114 137 137 137 102 102 102 130 130 130 137 137 137 110 110 110 113 113 113 158 158 158 130 130 130 107 107 107 101 101 101 155 155 155 122 122 122 109 109 109 100 100 100 143 143 143 117 117 117 104 104 104 137 137 137 138 138 138 142 142 142 125 125 125 
132 132 132 113 113 113 124 124 124 148 148 148 121 121 121 156 156 156 134 134 134 143 143 143 110 110 110 153 153 153 124 124 124 115 115 115 124 124 124 102 102 102 129 129 129 139 139 139 103 103 103 100 100 100 151 151 151 108 108 108 98 98 98 116 116 116 120 120 120 101 101 101 100 100 100 139 139 139 109 109 109 140 140 140 120 120 120 156 156 156 108 108 108 155 155 155 112 112 112 136 136 136 146 146 146 135 135 135 136 136 136 124 124 124 120 120 120 148 148 148 118 118 118 146 146 146 106 106 106 144 144 144 152 152 152 137 137 137 126 126 126 98 98 98 142 142 142 118 118 118 108 108 108 142 142 142 136 136 136 132 132 132 147 147 147 141 141 141 115 115 115 100 100 100 124 124 124 137 137 137 99 99 99 136 136 136 135 135 135 113 113 113 113 113 113 123 123 123 151 151 151 153 153 153 149 149 149 112 112 112 143 143 143 108 108 108 101 101 101 153 153 153 156 156 156 155 155 155 134 134 134 123 123 123 157 157 157 117 117 117 146 146 146 106 106 106 102 102 102 125 125 125 143 143 143 154 154 154 107 107 107 99 99 99 156 156 156 135 135 135 140 140 140 157 157 157 112 112 112 117 117 117 111 111 111 130 130 130 142 142 142 105 105 105 124 124 124 132 132 132 119 119 119 110 110 110 144 144 144 124 124 124 107 107 107 141 141 141 120 120 120 143 143 143 107 107 107 120 120 120 103 103 103 157 157 157 129 129 129 107 107 107 124 124 124 115 115 115 102 102 102 135 135 135 116 116 116 101 101 101 112 112 112 158 158 158 101 101 101 128 128 128 116 116 116 117 117 117 101 101 101 99 99 99 124 124 124 130 130 130 135 135 135 148 148 148 142 142 142 120 120 120 113 113 113 151 151 151 104 104 104 138 138 138 137 137 137 114 114 114 99 99 99 142 142 142 112 112 112 132 132 132 154 154 154 140 140 140 149 149 149 158 158 158 119 119 119 106 106 106 103 103 103 133 133 133 108 108 108 106 106 106 104 104 104 126 126 126 127 127 127 108 108 108 130 130 130 154 154 154 142 142 142 108 108 108 143 143 143 125 125 125 131 131 131 158 158 158 120 120 120 137 137 137 139 139 139 98 98 98 155 155 155 141 141 141 145 145 145 111 111 111 114 114 114 140 140 140 155 155 155 107 107 107 141 141 141 115 115 115 117 117 117 146 146 146 152 152 152 127 127 127 157 157 157 100 100 100 158 158 158 125 125 125 112 112 112 131 131 131 122 122 122 156 156 156 141 141 141 106 106 106 122 122 122 113 113 113 108 108 108 146 146 146 155 155 155 151 151 151 
149 149 149 153 153 153 133 133 133 135 135 135 107 107 107 152 152 152 118 118 118 104 104 104 102 102 102 100 100 100 121 121 121 121 121 121 151 151 151 117 117 117 153 153 153 151 151 151 119 119 119 152 152 152 117 117 117 133 133 133 124 124 124 144 144 144 130 130 130 106 106 106 154 154 154 156 156 156 124 124 124 105 105 105 146 146 146 122 122 122 98 98 98 136 136 136 116 116 116 135 135 135 114 114 114 126 126 126 128 128 128 134 134 134 134 134 134 134 134 134 138 138 138 98 98 98 158 158 158 130 130 130 117 117 117 152 152 152 122 122 122 140 140 140 147 147 147 144 144 144 114 114 114 112 112 112 129 129 129 148 148 148 122 122 122 124 124 124 148 148 148 150 150 150 132 132 132 135 135 135 113 113 113 134 134 134 112 112 112 132 132 132 110 110 110 130 130 130 101 101 101 143 143 143 107 107 107 139 139 139 118 118 118 149 149 149 139 139 139 119 119 119 121 121 121 100 100 100 112 112 112 147 147 147 144 144 144 102 102 102 134 134 134 102 102 102 118 118 118 106 106 106 152 152 152 143 143 143 135 135 135 141 141 141 134 134 134 110 110 110 119 119 119 150 150 150 146 146 146 135 135 135 125 125 125 99 99 99 106 106 106 130 130 130 144 144 144 117 117 117 112 112 112 106 106 106 108 108 108 153 153 153 127 127 127 133 133 133 157 157 157 144 144 144 123 123 123 143 143 143 148 148 148 99 99 99 147 147 147 108 108 108 109 109 109 142 142 142 155 155 155 146 146 146 127 127 127 132 132 132 99 99 99 148 148 148 123 123 123 147 147 147 125 125 125 152 152 152 151 151 151 135 135 135 125 125 125 136 136 136 155 155 155 139 139 139 144 144 144 106 106 106 136 136 136 115 115 115 141 141 141 136 136 136 100 100 100 105 105 105 122 122 122 152 152 152 108 108 108 110 110 110 103 103 103 122 122 122 157 157 157 99 99 99 109 109 109 125 125 125 134 134 134 113 113 113 116 116 116 100 100 100 101 101 101 145 145 145 157 157 157 156 156 156 122 122 122 123 123 123 134 134 134 120 120 120 106 106 106 121 121 121 128 128 128 146 146 146 138 138 138 110 110 110 123 123 123 142 142 142 119 119 119 148 148 148 136 136 136 132 132 132 101 101 101 141 141 141 156 156 156 101 101 101 143 143 143 108 108 108 128 128 128 120 120 120 123 123 123 149 149 149 122 122 122 129 129 129 135 135 135 120 120 120 126 126 126 100 100 100 148 148 148 101 101 101 122 122 122 158 158 158 127 127 127 154 154 154 145 145 145 106 106 106 107 107 107 111 111 111 
151 151 151 129 129 129 100 100 100 130 130 130 104 104 104 106 106 106 114 114 114 101 101 101 109 109 109 98 98 98 113 113 113 142 142 142 122 122 122 139 139 139 134 134 134 147 147 147 109 109 109 110 110 110 110 110 110 139 139 139 115 115 115 101 101 101 145 145 145 141 141 141 100 100 100 113 113 113 137 137 137 149 149 149 123 123 123 146 146 146 102 102 102 117 117 117 118 118 118 106 106 106 149 149 149 126 126 126 116 116 116 105 105 105 129 129 129 128 128 128 107 107 107 145 145 145 113 113 113 134 134 134 127 127 127 149 149 149 122 122 122 140 140 140 102 102 102 136 136 136 120 120 120 119 119 119 140 140 140 108 108 108 102 102 102 144 144 144 123 123 123 143 143 143 135 135 135 151 151 151 130 130 130 141 141 141 109 109 109 153 153 153 151 151 151 102 102 102 120 120 120 109 109 109 111 111 111 154 154 154 139 139 139 122 122 122 142 142 142 156 156 156 158 158 158 110 110 110 146 146 146 123 123 123 154 154 154 152 152 152 103 103 103 117 117 117 115 115 115 145 145 145 128 128 128 119 119 119 132 132 132 155 155 155 105 105 105 110 110 110 147 147 147 137 137 137 153 153 153 100 100 100 133 133 133 146 146 146 106 106 106 158 158 158 157 157 157 121 121 121 153 153 153 139 139 139 145 145 145 138 138 138 136 136 136 147 147 147 152 152 152 125 125 125 111 111 111 147 147 147 120 120 120 116 116 116 107 107 107 137 137 137 104 104 104 137 137 137 99 99 99 139 139 139 136 136 136 106 106 106 153 153 153 124 124 124 148 148 148 148 148 148 128 128 128 122 122 122 137 137 137 138 138 138 123 123 123 135 135 135 100 100 100 119 119 119 117 117 117 148 148 148 98 98 98 157 157 157 138 138 138 152 152 152 125 125 125 153 153 153 142 142 142 147 147 147 113 113 113 152 152 152 126 126 126 119 119 119 132 132 132 129 129 129 101 101 101 109 109 109 138 138 138 157 157 157 138 138 138 129 129 129 148 148 148 109 109 109 153 153 153 126 126 126 150 150 150 120 120 120 104 104 104 152 152 152 141 141 141 123 123 123 143 143 143 142 142 142 121 121 121 122 122 122 137 137 137 148 148 148 117 117 117 123 123 123 138 138 138 132 132 132 116 116 116 107 107 107 155 155 155 150 150 150 139 139 139 100 100 100 103 103 103 120 120 120 100 100 100 143 143 143 151 151 151 150 150 150 154 154 154 147 147 147 119 119 119 145 145 145 108 108 108 125 125 125 141 141 141 152 152 152 150 150 150 125 125 125 137 137 137 114 114 114 150 150 150 115 115 115 
103 103 103 110 110 110 140 140 140 143 143 143 144 144 144 99 99 99 155 155 155 142 142 142 154 154 154 135 135 135 144 144 144 98 98 98 157 157 157 148 148 148 145 145 145 149 149 149 139 139 139 142 142 142 139 139 139 99 99 99 131 131 131 150 150 150 128 128 128 113 113 113 145 145 145 119 119 119 140 140 140 123 123 123 135 135 135 131 131 131 142 142 142 142 142 142 143 143 143 126 126 126 129 129 129 130 130 130 129 129 129 125 125 125 116 116 116 124 124 124 101 101 101 101 101 101 126 126 126 101 101 101 152 152 152 112 112 112 154 154 154 134 134 134 157 157 157 134 134 134 138 138 138 129 129 129 125 125 125 107 107 107 144 144 144 111 111 111 131 131 131 127 127 127 138 138 138 107 107 107 102 102 102 124 124 124 154 154 154 149 149 149 152 152 152 124 124 124 121 121 121 122 122 122 151 151 151 139 139 139 151 151 151 154 154 154 144 144 144 118 118 118 98 98 98 139 139 139 133 133 133 154 154 154 117 117 117 133 133 133 129 129 129 157 157 157 105 105 105 98 98 98 107 107 107 153 153 153 113 113 113 140 140 140 121 121 121 154 154 154 152 152 152 125 125 125 121 121 121 147 147 147 116 116 116 114 114 114 112 112 112 141 141 141 140 140 140 104 104 104 123 123 123 132 132 132 101 101 101 108 108 108 153 153 153 101 101 101 152 152 152 129 129 129 98 98 98 110 110 110 105 105 105 129 129 129 108 108 108 114 114 114 129 129 129 119 119 119 108 108 108 147 147 147 101 101 101 133 133 133 142 142 142 155 155 155 102 102 102 104 104 104 145 145 145 122 122 122 122 122 122 98 98 98 104 104 104 103 103 103 106 106 106 131 131 131 140 140 140 109 109 109 141 141 141 136 136 136 114 114 114 136 136 136 108 108 108 114 114 114 148 148 148 115 115 115 147 147 147 99 99 99 131 131 131 120 120 120 121 121 121 143 143 143 108 108 108 124 124 124 117 117 117 152 152 152 122 122 122 123 123 123 99 99 99 108 108 108 147 147 147 125 125 125 108 108 108 153 153 153 132 132 132 118 118 118 125 125 125 113 113 113 131 131 131 110 110 110 153 153 153 147 147 147 150 150 150 102 102 102 104 104 104 140 140 140 121 121 121 153 153 153 141 141 141 156 156 156 114 114 114 105 105 105 142 142 142 124 124 124 131 131 131 101 101 101 119 119 119 157 157 157 126 126 126 122 122 122 106 106 106 117 117 117 149 149 149 118 118 118 113 113 113 125 125 125 138 138 138 143 143 143 142 142 142 110 110 110 155 155 155 137 137 137 100 100 100 148 148 148 
143 143 143 106 106 106 129 129 129 106 106 106 103 103 103 114 114 114 105 105 105 121 121 121 121 121 121 150 150 150 148 148 148 157 157 157 155 155 155 110 110 110 155 155 155 124 124 124 137 137 137 103 103 103 143 143 143 127 127 127 125 125 125 98 98 98 156 156 156 105 105 105 143 143 143 140 140 140 119 119 119 141 141 141 118 118 118 122 122 122 130 130 130 102 102 102 132 132 132 103 103 103 112 112 112 137 137 137 119 119 119 120 120 120 100 100 100 142 142 142 113 113 113 152 152 152 142 142 142 109 109 109 105 105 105 139 139 139 135 135 135 144 144 144 146 146 146 120 120 120 115 115 115 112 112 112 122 122 122 112 112 112 121 121 121 106 106 106 154 154 154 143 143 143 149 149 149 115 115 115 108 108 108 122 122 122 120 120 120 142 142 142 127 127 127 136 136 136 123 123 123 148 148 148 99 99 99 127 127 127 134 134 134 114 114 114 122 122 122 117 117 117 125 125 125 129 129 129 99 99 99 102 102 102 115 115 115 147 147 147 126 126 126 134 134 134 101 101 101 150 150 150 148 148 148 126 126 126 99 99 99 144 144 144 110 110 110 150 150 150 100 100 100 122 122 122 113 113 113 124 124 124 108 108 108 145 145 145 104 104 104 135 135 135 136 136 136 105 105 105 103 103 103 113 113 113 122 122 122 129 129 129 135 135 135 151 151 151 99 99 99 136 136 136 157 157 157 118 118 118 125 125 125 124 124 124 156 156 156 130 130 130 117 117 117 146 146 146 158 158 158 118 118 118 133 133 133 112 112 112 111 111 111 135 135 135 138 138 138 129 129 129 103 103 103 148 148 148 115 115 115 111 111 111 124 124 124 153 153 153 118 118 118 131 131 131 108 108 108 144 144 144 101 101 101 147 147 147 137 137 137 105 105 105 124 124 124 137 137 137 127 127 127 153 153 153 105 105 105 125 125 125 126 126 126 124 124 124 114 114 114 126 126 126 147 147 147 149 149 149 142 142 142 99 99 99 127 127 127 121 121 121 130 130 130 132 132 132 113 113 113 149 149 149 145 145 145 141 141 141 146 146 146 107 107 107 114 114 114 158 158 158 155 155 155 119 119 119 146 146 146 133 133 133 128 128 128 111 111 111 114 114 114 99 99 99 108 108 108 121 121 121 128 128 128 136 136 136 147 147 147 144 144 144 105 105 105 135 135 135 134 134 134 149 149 149 139 139 139 102 102 102 114 114 114 112 112 112 139 139 139 129 129 129 103 103 103 127 127 127 113 113 113 151 151 151 138 138 138 129 129 129 150 150 150 135 135 135 153 153 153 139 139 139 111 111 111 122 122 122 
152 152 152 127 127 127 123 123 123 101 101 101 150 150 150 155 155 155 142 142 142 141 141 141 140 140 140 149 149 149 119 119 119 115 115 115 140 140 140 99 99 99 122 122 122 158 158 158 114 114 114 104 104 104 130 130 130 119 119 119 133 133 133 145 145 145 113 113 113 113 113 113 118 118 118 106 106 106 150 150 150 112 112 112 147 147 147 102 102 102 138 138 138 142 142 142 132 132 132 103 103 103 148 148 148 125 125 125 99 99 99 131 131 131 107 107 107 144 144 144 121 121 121 129 129 129 102 102 102 104 104 104 130 130 130 126 126 126 103 103 103 148 148 148 132 132 132 137 137 137 108 108 108 109 109 109 124 124 124 125 125 125 126 126 126 144 144 144 133 133 133 117 117 117 99 99 99 121 121 121 123 123 123 139 139 139 105 105 105 98 98 98 146 146 146 157 157 157 126 126 126 150 150 150 129 129 129 135 135 135 135 135 135 152 152 152 107 107 107 139 139 139 98 98 98 142 142 142 109 109 109 105 105 105 131 131 131 145 145 145 145 145 145 142 142 142 156 156 156 112 112 112 110 110 110 123 123 123 99 99 99 146 146 146 144 144 144 100 100 100 110 110 110 111 111 111 141 141 141 119 119 119 111 111 111 131 131 131 117 117 117 141 141 141 122 122 122 148 148 148 118 118 118 98 98 98 142 142 142 129 129 129 141 141 141 144 144 144 112 112 112 152 152 152 151 151 151 146 146 146 141 141 141 137 137 137 131 131 131 138 138 138 151 151 151 143 143 143 105 105 105 154 154 154 130 130 130 153 153 153 156 156 156 145 145 145 105 105 105 141 141 141 105 105 105 119 119 119 113 113 113 125 125 125 101 101 101 137 137 137 116 116 116 123 123 123 139 139 139 101 101 101 157 157 157 121 121 121 147 147 147 110 110 110 117 117 117 142 142 142 158 158 158 99 99 99 122 122 122 130 130 130 141 141 141 117 117 117 117 117 117 150 150 150 112 112 112 149 149 149 145 145 145 110 110 110 137 137 137 154 154 154 153 153 153 145 145 145 116 116 116 107 107 107 113 113 113 122 122 122 148 148 148 133 133 133 147 147 147 128 128 128 137 137 137 145 145 145 153 153 153 125 125 125 99 99 99 113 113 113 110 110 110 98 98 98 116 116 116 135 135 135 133 133 133 101 101 101 154 154 154 152 152 152 153 153 153 107 107 107 144 144 144 141 141 141 119 119 119 123 123 123 139 139 139 115 115 115 111 111 111 157 157 157 126 126 126 128 128 128 120 120 120 115 115 115 102 102 102 111 111 111 147 147 147 141 141 141 99 99 99 144 144 144 110 110 110 100 100 100 
98 98 98 122 122 122 103 103 103 119 119 119 98 98 98 138 138 138 122 122 122 156 156 156 133 133 133 118 118 118 105 105 105 118 118 118 101 101 101 128 128 128 145 145 145 144 144 144 146 146 146 99 99 99 142 142 142 115 115 115 129 129 129 104 104 104 133 133 133 134 134 134 119 119 119 123 123 123 118 118 118 120 120 120 108 108 108 130 130 130 125 125 125 111 111 111 157 157 157 130 130 130 132 132 132 98 98 98 111 111 111 156 156 156 157 157 157 148 148 148 115 115 115 103 103 103 107 107 107 120 120 120 135 135 135 157 157 157 105 105 105 122 122 122 158 158 158 152 152 152 140 140 140 131 131 131 99 99 99 116 116 116 106 106 106 120 120 120 143 143 143 126 126 126 144 144 144 154 154 154 100 100 100 112 112 112 108 108 108 100 100 100 146 146 146 142 142 142 100 100 100 98 98 98 141 141 141 100 100 100 148 148 148 99 99 99 105 105 105 99 99 99 124 124 124 143 143 143 99 99 99 133 133 133 108 108 108 100 100 100 126 126 126 152 152 152 133 133 133 127 127 127 111 111 111 141 141 141 151 151 151 157 157 157 111 111 111 139 139 139 154 154 154 113 113 113 153 153 153 103 103 103 117 117 117 141 141 141 149 149 149 119 119 119 143 143 143 133 133 133 122 122 122 135 135 135 134 134 134 131 131 131 138 138 138 101 101 101 117 117 117 141 141 141 137 137 137 130 130 130 143 143 143 104 104 104 123 123 123 118 118 118 136 136 136 137 137 137 102 102 102 130 130 130 135 135 135 115 115 115 110 110 110 132 132 132 132 132 132 107 107 107 137 137 137 151 151 151 152 152 152 129 129 129 114 114 114 136 136 136 103 103 103 138 138 138 114 114 114 139 139 139 112 112 112 156 156 156 143 143 143 132 132 132 138 138 138 123 123 123 103 103 103 123 123 123 131 131 131 130 130 130 143 143 143 108 108 108 110 110 110 147 147 147 141 141 141 149 149 149 106 106 106 155 155 155 122 122 122 140 140 140 103 103 103 100 100 100 135 135 135 157 157 157 133 133 133 151 151 151 137 137 137 138 138 138 130 130 130 153 153 153 121 121 121 144 144 144 151 151 151 107 107 107 119 119 119 132 132 132 132 132 132 126 126 126 157 157 157 104 104 104 98 98 98 143 143 143 117 117 117 110 110 110 134 134 134 99 99 99 101 101 101 142 142 142 158 158 158 125 125 125 125 125 125 103 103 103 130 130 130 101 101 101 101 101 101 104 104 104 156 156 156 140 140 140 147 147 147 127 127 127 137 137 137 109 109 109 115 115 115 131 131 131 118 118 118 138 138 138 
104 104 104 154 154 154 106 106 106 105 105 105 101 101 101 108 108 108 152 152 152 120 120 120 122 122 122 127 127 127 123 123 123 127 127 127 112 112 112 123 123 123 157 157 157 142 142 142 128 128 128 128 128 128 145 145 145 133 133 133 136 136 136 143 143 143 117 117 117 126 126 126 113 113 113 158 158 158 137 137 137 132 132 132 130 130 130 98 98 98 114 114 114 138 138 138 156 156 156 124 124 124 147 147 147 99 99 99 134 134 134 141 141 141 121 121 121 158 158 158 111 111 111 147 147 147 127 127 127 128 128 128 111 111 111 125 125 125 111 111 111 143 143 143 157 157 157 99 99 99 117 117 117 136 136 136 146 146 146 138 138 138 104 104 104 103 103 103 137 137 137 145 145 145 137 137 137 108 108 108 148 148 148 155 155 155 151 151 151 145 145 145 120 120 120 141 141 141 146 146 146 156 156 156 125 125 125 111 111 111 158 158 158 139 139 139 101 101 101 128 128 128 110 110 110 114 114 114 157 157 157 123 123 123 100 100 100 157 157 157 126 126 126 119 119 119 136 136 136 114 114 114 99 99 99 144 144 144 119 119 119 140 140 140 131 131 131 99 99 99 153 153 153 122 122 122 157 157 157 145 145 145 108 108 108 120 120 120 127 127 127 98 98 98 118 118 118 157 157 157 113 113 113 119 119 119 137 137 137 116 116 116 149 149 149 151 151 151 134 134 134 149 149 149 115 115 115 136 136 136 147 147 147 145 145 145 98 98 98 124 124 124 100 100 100 101 101 101 110 110 110 123 123 123 144 144 144 145 145 145 127 127 127 138 138 138 108 108 108 127 127 127 126 126 126 120 120 120 149 149 149 157 157 157 122 122 122 110 110 110 155 155 155 137 137 137 131 131 131 135 135 135 157 157 157 123 123 123 127 127 127 132 132 132 113 113 113 144 144 144 109 109 109 103 103 103 131 131 131 112 112 112 132 132 132 135 135 135 115 115 115 144 144 144 102 102 102 100 100 100 132 132 132 131 131 131 140 140 140 144 144 144 99 99 99 109 109 109 105 105 105 152 152 152 108 108 108 132 132 132 104 104 104 104 104 104 112 112 112 137 137 137 142 142 142 111 111 111 104 104 104 110 110 110 147 147 147 121 121 121 98 98 98 100 100 100 127 127 127 133 133 133 114 114 114 100 100 100 111 111 111 131 131 131 148 148 148 115 115 115 134 134 134 121 121 121 148 148 148 117 117 117 108 108 108 151 151 151 131 131 131 115 115 115 147 147 147 141 141 141 151 151 151 153 153 153 147 147 147 105 105 105 133 133 133 132 132 132 120 120 120 139 139 139 147 147 147 108 108 108 
104 104 104 147 147 147 110 110 110 133 133 133 121 121 121 126 126 126 137 137 137 136 136 136 101 101 101 126 126 126 154 154 154 139 139 139 151 151 151 145 145 145 158 158 158 100 100 100 140 140 140 132 132 132 119 119 119 128 128 128 114 114 114 112 112 112 122 122 122 105 105 105 121 121 121 98 98 98 139 139 139 143 143 143 142 142 142 127 127 127 153 153 153 148 148 148 117 117 117 105 105 105 124 124 124 142 142 142 135 135 135 102 102 102 120 120 120 138 138 138 130 130 130 115 115 115 118 118 118 124 124 124 103 103 103 120 120 120 128 128 128 145 145 145 154 154 154 149 149 149 114 114 114 110 110 110 104 104 104 140 140 140 119 119 119 127 127 127 143 143 143 101 101 101 111 111 111 126 126 126 133 133 133 106 106 106 117 117 117 152 152 152 115 115 115 143 143 143 136 136 136 154 154 154 147 147 147 99 99 99 134 134 134 120 120 120 118 118 118 156 156 156 146 146 146 123 123 123 119 119 119 117 117 117 110 110 110 115 115 115 107 107 107 128 128 128 129 129 129 114 114 114 112 112 112 150 150 150 145 145 145 157 157 157 155 155 155 98 98 98 126 126 126 129 129 129 108 108 108 145 145 145 123 123 123 127 127 127 129 129 129 102 102 102 122 122 122 117 117 117 103 103 103 99 99 99 141 141 141 123 123 123 99 99 99 130 130 130 150 150 150 120 120 120 149 149 149 101 101 101 137 137 137 158 158 158 134 134 134 109 109 109 115 115 115 150 150 150 102 102 102 102 102 102 150 150 150 99 99 99 104 104 104 117 117 117 130 130 130 114 114 114 103 103 103 157 157 157 145 145 145 136 136 136 100 100 100 108 108 108 157 157 157 107 107 107 112 112 112 139 139 139 134 134 134 113 113 113 110 110 110 126 126 126 135 135 135 102 102 102 131 131 131 116 116 116 101 101 101 106 106 106 127 127 127 121 121 121 99 99 99 132 132 132 127 127 127 151 151 151 135 135 135 133 133 133 109 109 109 106 106 106 151 151 151 116 116 116 107 107 107 137 137 137 156 156 156 111 111 111 147 147 147 154 154 154 121 121 121 100 100 100 136 136 136 98 98 98 117 117 117 150 150 150 126 126 126 155 155 155 154 154 154 101 101 101 112 112 112 99 99 99 111 111 111 143 143 143 122 122 122 113 113 113 116 116 116 151 151 151 105 105 105 155 155 155 127 127 127 119 119 119 103 103 103 119 119 119 137 137 137 114 114 114 158 158 158 135 135 135 127 127 127 146 146 146 132 132 132 152 152 152 151 151 151 112 112 112 153 153 153 109 109 109 103 103 103 122 122 122 
107 107 107 101 101 101 127 127 127 123 123 123 102 102 102 141 141 141 108 108 108 128 128 128 156 156 156 128 128 128 120 120 120 104 104 104 125 125 125 151 151 151 125 125 125 132 132 132 111 111 111 104 104 104 148 148 148 110 110 110 143 143 143 116 116 116 99 99 99 118 118 118 112 112 112 152 152 152 132 132 132 108 108 108 105 105 105 138 138 138 132 132 132 116 116 116 143 143 143 101 101 101 142 142 142 147 147 147 146 146 146 152 152 152 116 116 116 143 143 143 123 123 123 140 140 140 149 149 149 150 150 150 132 132 132 116 116 116 123 123 123 145 145 145 124 124 124 114 114 114 98 98 98 110 110 110 135 135 135 99 99 99 130 130 130 149 149 149 156 156 156 104 104 104 98 98 98 102 102 102 146 146 146 134 134 134 120 120 120 130 130 130 139 139 139 105 105 105 118 118 118 126 126 126 100 100 100 138 138 138 112 112 112 126 126 126 121 121 121 105 105 105 117 117 117 157 157 157 125 125 125 145 145 145 143 143 143 153 153 153 102 102 102 143 143 143 104 104 104 139 139 139 146 146 146 136 136 136 131 131 131 143 143 143 144 144 144 133 133 133 147 147 147 131 131 131 111 111 111 111 111 111 104 104 104 152 152 152 120 120 120 126 126 126 122 122 122 123 123 123 107 107 107 138 138 138 151 151 151 130 130 130 147 147 147 111 111 111 128 128 128 113 113 113 99 99 99 114 114 114 107 107 107 104 104 104 100 100 100 115 115 115 147 147 147 149 149 149 156 156 156 122 122 122 133 133 133 141 141 141 157 157 157 124 124 124 116 116 116 109 109 109 139 139 139 124 124 124 105 105 105 100 100 100 153 153 153 131 131 131 127 127 127 101 101 101 112 112 112 119 119 119 134 134 134 101 101 101 135 135 135 105 105 105 116 116 116 136 136 136 122 122 122 128 128 128 144 144 144 124 124 124 145 145 145 135 135 135 114 114 114 144 144 144 98 98 98 152 152 152 129 129 129 98 98 98 117 117 117 147 147 147 110 110 110 158 158 158 112 112 112 119 119 119 101 101 101 108 108 108 154 154 154 131 131 131 114 114 114 107 107 107 154 154 154 150 150 150 110 110 110 130 130 130 98 98 98 131 131 131 110 110 110 122 122 122 100 100 100 156 156 156 151 151 151 149 149 149 134 134 134 108 108 108 135 135 135 134 134 134 101 101 101 105 105 105 135 135 135 120 120 120 156 156 156 149 149 149 121 121 121 111 111 111 111 111 111 125 125 125 124 124 124 106 106 106 158 158 158 140 140 140 117 117 117 155 155 155 133 133 133 130 130 130 127 127 127 133 133 133 
102 102 102 141 141 141 99 99 99 106 106 106 140 140 140 152 152 152 157 157 157 116 116 116 101 101 101 135 135 135 152 152 152 105 105 105 144 144 144 130 130 130 129 129 129 143 143 143 120 120 120 153 153 153 98 98 98 135 135 135 119 119 119 124 124 124 143 143 143 120 120 120 105 105 105 102 102 102 116 116 116 142 142 142 136 136 136 147 147 147 116 116 116 142 142 142 129 129 129 117 117 117 150 150 150 111 111 111 112 112 112 150 150 150 131 131 131 116 116 116 129 129 129 124 124 124 125 125 125 114 114 114 98 98 98 156 156 156 101 101 101 122 122 122 150 150 150 103 103 103 99 99 99 112 112 112 129 129 129 146 146 146 136 136 136 138 138 138 152 152 152 157 157 157 121 121 121 129 129 129 145 145 145 141 141 141 112 112 112 118 118 118 102 102 102 105 105 105 133 133 133 116 116 116 158 158 158 105 105 105 136 136 136 128 128 128 133 133 133 102 102 102 146 146 146 133 133 133 102 102 102 151 151 151 158 158 158 154 154 154 156 156 156 100 100 100 110 110 110 128 128 128 148 148 148 150 150 150 107 107 107 144 144 144 148 148 148 132 132 132 114 114 114 137 137 137 117 117 117 131 131 131 98 98 98 121 121 121 140 140 140 133 133 133 139 139 139 139 139 139 142 142 142 117 117 117 110 110 110 116 116 116 123 123 123 100 100 100 154 154 154 127 127 127 153 153 153 153 153 153 123 123 123 151 151 151 157 157 157 137 137 137 120 120 120 146 146 146 128 128 128 132 132 132 131 131 131 120 120 120 107 107 107 150 150 150 98 98 98 126 126 126 124 124 124 98 98 98 149 149 149 107 107 107 135 135 135 132 132 132 149 149 149 118 118 118 151 151 151 102 102 102 138 138 138 115 115 115 104 104 104 133 133 133 145 145 145 101 101 101 129 129 129 111 111 111 154 154 154 127 127 127 152 152 152 117 117 117 117 117 117 123 123 123 153 153 153 152 152 152 145 145 145 104 104 104 145 145 145 147 147 147 132 132 132 112 112 112 149 149 149 125 125 125 122 122 122 125 125 125 98 98 98 114 114 114 147 147 147 151 151 151 118 118 118 129 129 129 109 109 109 127 127 127 105 105 105 158 158 158 130 130 130 137 137 137 110 110 110 127 127 127 107 107 107 105 105 105 148 148 148 128 128 128 131 131 131 145 145 145 122 122 122 117 117 117 151 151 151 110 110 110 106 106 106 124 124 124 125 125 125 98 98 98 151 151 151 149 149 149 128 128 128 151 151 151 104 104 104 116 116 116 145 145 145 126 126 126 149 149 149 98 98 98 157 157 157 157 157 157 
158 158 158 128 128 128 137 137 137 112 112 112 98 98 98 148 148 148 119 119 119 149 149 149 118 118 118 152 152 152 137 137 137 144 144 144 111 111 111 129 129 129 156 156 156 121 121 121 155 155 155 122 122 122 123 123 123 150 150 150 114 114 114 153 153 153 144 144 144 122 122 122 113 113 113 133 133 133 151 151 151 103 103 103 133 133 133 149 149 149 101 101 101 132 132 132 121 121 121 142 142 142 146 146 146 121 121 121 132 132 132 107 107 107 113 113 113 152 152 152 102 102 102 152 152 152 139 139 139 117 117 117 122 122 122 136 136 136 142 142 142 121 121 121 102 102 102 107 107 107 114 114 114 118 118 118 101 101 101 99 99 99 143 143 143 116 116 116 136 136 136 135 135 135 122 122 122 110 110 110 127 127 127 127 127 127 145 145 145 150 150 150 113 113 113 134 134 134 115 115 115 147 147 147 145 145 145 132 132 132 142 142 142 152 152 152 126 126 126 122 122 122 110 110 110 152 152 152 101 101 101 155 155 155 116 116 116 105 105 105 103 103 103 132 132 132 126 126 126 108 108 108 136 136 136 112 112 112 127 127 127 113 113 113 151 151 151 153 153 153 128 128 128 119 119 119 121 121 121 116 116 116 113 113 113 136 136 136 152 152 152 130 130 130 126 126 126 141 141 141 103 103 103 111 111 111 134 134 134 133 133 133 135 135 135 148 148 148 129 129 129 141 141 141 144 144 144 147 147 147 148 148 148 151 151 151 123 123 123 117 117 117 101 101 101 102 102 102 131 131 131 132 132 132 117 117 117 123 123 123 126 126 126 147 147 147 147 147 147 151 151 151 104 104 104 101 101 101 131 131 131 100 100 100 135 135 135 98 98 98 145 145 145 142 142 142 114 114 114 120 120 120 117 117 117 153 153 153 109 109 109 148 148 148 135 135 135 158 158 158 138 138 138 127 127 127 152 152 152 102 102 102 146 146 146 155 155 155 106 106 106 121 121 121 130 130 130 128 128 128 148 148 148 158 158 158 118 118 118 136 136 136 153 153 153 127 127 127 139 139 139 125 125 125 129 129 129 117 117 117 127 127 127 115 115 115 101 101 101 143 143 143 139 139 139 120 120 120 138 138 138 152 152 152 111 111 111 116 116 116 151 151 151 153 153 153 145 145 145 145 145 145 158 158 158 135 135 135 143 143 143 107 107 107 158 158 158 115 115 115 137 137 137 147 147 147 116 116 116 99 99 99 125 125 125 110 110 110 128 128 128 107 107 107 137 137 137 98 98 98 127 127 127 108 108 108 117 117 117 132 132 132 153 153 153 158 158 158 156 156 156 134 134 134 153 153 153 108 108 108 
153 153 153 146 146 146 102 102 102 141 141 141 134 134 134 103 103 103 117 117 117 118 118 118 115 115 115 116 116 116 135 135 135 156 156 156 107 107 107 156 156 156 157 157 157 136 136 136 107 107 107 126 126 126 147 147 147 147 147 147 128 128 128 117 117 117 157 157 157 147 147 147 151 151 151 153 153 153 148 148 148 148 148 148 129 129 129 143 143 143 99 99 99 125 125 125 132 132 132 106 106 106 107 107 107 107 107 107 113 113 113 127 127 127 127 127 127 130 130 130 147 147 147 106 106 106 128 128 128 158 158 158 105 105 105 126 126 126 135 135 135 114 114 114 157 157 157 126 126 126 104 104 104 126 126 126 145 145 145 104 104 104 117 117 117 138 138 138 99 99 99 108 108 108 129 129 129 132 132 132 155 155 155 133 133 133 100 100 100 128 128 128 141 141 141 109 109 109 139 139 139 158 158 158 140 140 140 110 110 110 130 130 130 131 131 131 120 120 120 101 101 101 130 130 130 127 127 127 131 131 131 109 109 109 143 143 143 129 129 129 137 137 137 150 150 150 99 99 99 123 123 123 156 156 156 118 118 118 104 104 104 98 98 98 130 130 130 136 136 136 132 132 132 127 127 127 112 112 112 134 134 134 157 157 157 155 155 155 148 148 148 140 140 140 156 156 156 131 131 131 152 152 152 127 127 127 103 103 103 113 113 113 130 130 130 136 136 136 142 142 142 103 103 103 149 149 149 126 126 126 136 136 136 127 127 127 119 119 119 137 137 137 152 152 152 117 117 117 157 157 157 100 100 100 117 117 117 129 129 129 138 138 138 154 154 154 99 99 99 154 154 154 131 131 131 99 99 99 150 150 150 122 122 122 141 141 141 147 147 147 156 156 156 134 134 134 118 118 118 102 102 102 149 149 149 152 152 152 142 142 142 132 132 132 98 98 98 132 132 132 102 102 102 137 137 137 100 100 100 123 123 123 115 115 115 157 157 157 144 144 144 116 116 116 98 98 98 105 105 105 149 149 149 140 140 140 102 102 102 150 150 150 135 135 135 137 137 137 151 151 151 128 128 128 101 101 101 134 134 134 118 118 118 100 100 100 111 111 111 138 138 138 104 104 104 102 102 102 134 134 134 151 151 151 138 138 138 134 134 134 124 124 124 144 144 144 112 112 112 127 127 127 109 109 109 132 132 132 127 127 127 157 157 157 150 150 150 127 127 127 103 103 103 142 142 142 108 108 108 109 109 109 135 135 135 147 147 147 149 149 149 127 127 127 116 116 116 152 152 152 104 104 104 136 136 136 156 156 156 120 120 120 118 118 118 103 103 103 124 124 124 154 154 154 156 156 156 105 105 105 
131 131 131 122 122 122 152 152 152 148 148 148 153 153 153 104 104 104 121 121 121 121 121 121 102 102 102 114 114 114 152 152 152 110 110 110 158 158 158 101 101 101 121 121 121 134 134 134 152 152 152 111 111 111 104 104 104 109 109 109 106 106 106 113 113 113 149 149 149 103 103 103 135 135 135 110 110 110 109 109 109 102 102 102 105 105 105 106 106 106 109 109 109 141 141 141 132 132 132 102 102 102 130 130 130 126 126 126 108 108 108 153 153 153 151 151 151 115 115 115 110 110 110 144 144 144 127 127 127 111 111 111 149 149 149 150 150 150 147 147 147 142 142 142 105 105 105 155 155 155 155 155 155 115 115 115 111 111 111 146 146 146 121 121 121 150 150 150 158 158 158 134 134 134 154 154 154 107 107 107 144 144 144 107 107 107 150 150 150 118 118 118 113 113 113 123 123 123 148 148 148 124 124 124 119 119 119 143 143 143 143 143 143 131 131 131 130 130 130 111 111 111 144 144 144 121 121 121 104 104 104 134 134 134 106 106 106 113 113 113 132 132 132 103 103 103 131 131 131 146 146 146 151 151 151 154 154 154 137 137 137 152 152 152 131 131 131 135 135 135 100 100 100 116 116 116 144 144 144 154 154 154 138 138 138 98 98 98 118 118 118 130 130 130 126 126 126 139 139 139 114 114 114 110 110 110 111 111 111 146 146 146 125 125 125 98 98 98 110 110 110 134 134 134 134 134 134 119 119 119 149 149 149 108 108 108 124 124 124 121 121 121 158 158 158 118 118 118 118 118 118 136 136 136 111 111 111 153 153 153 114 114 114 116 116 116 111 111 111 101 101 101 111 111 111 153 153 153 104 104 104 134 134 134 124 124 124 132 132 132 114 114 114 140 140 140 147 147 147 130 130 130 130 130 130 115 115 115 130 130 130 142 142 142 151 151 151 108 108 108 102 102 102 144 144 144 118 118 118 130 130 130 108 108 108 117 117 117 150 150 150 129 129 129 157 157 157 105 105 105 125 125 125 115 115 115 123 123 123 138 138 138 118 118 118 138 138 138 135 135 135 124 124 124 113 113 113 100 100 100 100 100 100 132 132 132 145 145 145 151 151 151 105 105 105 116 116 116 109 109 109 139 139 139 99 99 99 102 102 102 149 149 149 106 106 106 148 148 148 110 110 110 138 138 138 99 99 99 131 131 131 132 132 132 130 130 130 132 132 132 139 139 139 99 99 99 149 149 149 105 105 105 139 139 139 110 110 110 145 145 145 117 117 117 139 139 139 102 102 102 120 120 120 141 141 141 136 136 136 108 108 108 135 135 135 143 143 143 126 126 126 146 146 146 125 125 125 129 129 129 
152 152 152 116 116 116 137 137 137 143 143 143 128 128 128 119 119 119 145 145 145 101 101 101 153 153 153 118 118 118 135 135 135 135 135 135 119 119 119 127 127 127 142 142 142 102 102 102 139 139 139 130 130 130 121 121 121 119 119 119 136 136 136 145 145 145 103 103 103 113 113 113 155 155 155 142 142 142 99 99 99 124 124 124 130 130 130 127 127 127 156 156 156 123 123 123 147 147 147 136 136 136 110 110 110 118 118 118 98 98 98 157 157 157 121 121 121 153 153 153 116 116 116 99 99 99 131 131 131 138 138 138 130 130 130 114 114 114 144 144 144 111 111 111 149 149 149 106 106 106 134 134 134 126 126 126 154 154 154 140 140 140 144 144 144 152 152 152 123 123 123 147 147 147 118 118 118 157 157 157 117 117 117 117 117 117 124 124 124 105 105 105 155 155 155 136 136 136 126 126 126 156 156 156 134 134 134 151 151 151 152 152 152 154 154 154 155 155 155 125 125 125 135 135 135 126 126 126 143 143 143 120 120 120 141 141 141 135 135 135 129 129 129 117 117 117 103 103 103 126 126 126 100 100 100 151 151 151 121 121 121 127 127 127 139 139 139 141 141 141 128 128 128 100 100 100 99 99 99 154 154 154 107 107 107 98 98 98 131 131 131 137 137 137 158 158 158 108 108 108 132 132 132 153 153 153 105 105 105 128 128 128 119 119 119 143 143 143 158 158 158 106 106 106 104 104 104 141 141 141 143 143 143 137 137 137 101 101 101 150 150 150 106 106 106 103 103 103 144 144 144 130 130 130 134 134 134 127 127 127 114 114 114 103 103 103 129 129 129 116 116 116 98 98 98 140 140 140 118 118 118 133 133 133 121 121 121 117 117 117 145 145 145 155 155 155 111 111 111 153 153 153 124 124 124 135 135 135 139 139 139 123 123 123 145 145 145 147 147 147 107 107 107 131 131 131 128 128 128 110 110 110 125 125 125 136 136 136 117 117 117 110 110 110 109 109 109 156 156 156 141 141 141 126 126 126 100 100 100 111 111 111 146 146 146 103 103 103 156 156 156 105 105 105 140 140 140 118 118 118 126 126 126 129 129 129 114 114 114 141 141 141 125 125 125 142 142 142 119 119 119 105 105 105 108 108 108 105 105 105 156 156 156 118 118 118 141 141 141 125 125 125 132 132 132 107 107 107 105 105 105 154 154 154 121 121 121 116 116 116 151 151 151 104 104 104 146 146 146 155 155 155 119 119 119 133 133 133 99 99 99 118 118 118 142 142 142 144 144 144 138 138 138 111 111 111 116 116 116 156 156 156 157 157 157 143 143 143 139 139 139 117 117 117 152 152 152 152 152 152 
127 127 127 149 149 149 111 111 111 109 109 109 116 116 116 147 147 147 120 120 120 123 123 123 142 142 142 145 145 145 143 143 143 136 136 136 153 153 153 131 131 131 133 133 133 116 116 116 107 107 107 136 136 136 136 136 136 154 154 154 123 123 123 118 118 118 106 106 106 141 141 141 117 117 117 104 104 104 125 125 125 100 100 100 126 126 126 118 118 118 154 154 154 155 155 155 109 109 109 108 108 108 107 107 107 129 129 129 157 157 157 131 131 131 156 156 156 143 143 143 119 119 119 140 140 140 122 122 122 114 114 114 114 114 114 98 98 98 132 132 132 126 126 126 137 137 137 111 111 111 121 121 121 103 103 103 133 133 133 131 131 131 147 147 147 153 153 153 140 140 140 115 115 115 155 155 155 107 107 107 136 136 136 150 150 150 105 105 105 149 149 149 101 101 101 116 116 116 121 121 121 101 101 101 151 151 151 118 118 118 146 146 146 111 111 111 99 99 99 112 112 112 127 127 127 116 116 116 112 112 112 102 102 102 144 144 144 151 151 151 118 118 118 108 108 108 98 98 98 153 153 153 141 141 141 147 147 147 147 147 147 122 122 122 103 103 103 145 145 145 133 133 133 143 143 143 138 138 138 142 142 142 135 135 135 141 141 141 99 99 99 158 158 158 145 145 145 152 152 152 117 117 117 134 134 134 107 107 107 119 119 119 148 148 148 138 138 138 139 139 139 102 102 102 143 143 143 126 126 126 157 157 157 102 102 102 136 136 136 157 157 157 98 98 98 118 118 118 147 147 147 150 150 150 145 145 145 153 153 153 136 136 136 119 119 119 139 139 139 118 118 118 103 103 103 116 116 116 100 100 100 106 106 106 115 115 115 149 149 149 102 102 102 135 135 135 125 125 125 111 111 111 158 158 158 114 114 114 151 151 151 138 138 138 120 120 120 137 137 137 107 107 107 121 121 121 143 143 143 145 145 145 119 119 119 144 144 144 106 106 106 108 108 108 137 137 137 155 155 155 104 104 104 116 116 116 116 116 116 145 145 145 136 136 136 123 123 123 104 104 104 139 139 139 133 133 133 122 122 122 129 129 129 137 137 137 100 100 100 158 158 158 152 152 152 99 99 99 116 116 116 147 147 147 141 141 141 138 138 138 125 125 125 150 150 150 102 102 102 112 112 112 138 138 138 126 126 126 158 158 158 146 146 146 136 136 136 138 138 138 143 143 143 144 144 144 156 156 156 102 102 102 132 132 132 134 134 134 129 129 129 139 139 139 116 116 116 105 105 105 104 104 104 149 149 149 147 147 147 106 106 106 149 149 149 140 140 140 109 109 109 106 106 106 128 128 128 154 154 154 
148 148 148 158 158 158 147 147 147 153 153 153 111 111 111 128 128 128 120 120 120 112 112 112 115 115 115 99 99 99 152 152 152 101 101 101 147 147 147 149 149 149 107 107 107 120 120 120 126 126 126 140 140 140 102 102 102 144 144 144 148 148 148 108 108 108 135 135 135 136 136 136 118 118 118 125 125 125 119 119 119 131 131 131 135 135 135 152 152 152 128 128 128 126 126 126 151 151 151 116 116 116 120 120 120 105 105 105 146 146 146 144 144 144 119 119 119 105 105 105 147 147 147 112 112 112 110 110 110 135 135 135 104 104 104 122 122 122 99 99 99 133 133 133 103 103 103 103 103 103 118 118 118 153 153 153 116 116 116 157 157 157 132 132 132 138 138 138 123 123 123 154 154 154 111 111 111 101 101 101 147 147 147 141 141 141 130 130 130 141 141 141 101 101 101 154 154 154 148 148 148 149 149 149 140 140 140 108 108 108 158 158 158 128 128 128 124 124 124 110 110 110 107 107 107 132 132 132 134 134 134 108 108 108 106 106 106 141 141 141 115 115 115 129 129 129 138 138 138 133 133 133 127 127 127 111 111 111 113 113 113 155 155 155 108 108 108 128 128 128 99 99 99 157 157 157 112 112 112 131 131 131 141 141 141 115 115 115 127 127 127 130 130 130 108 108 108 110 110 110 142 142 142 107 107 107 140 140 140 109 109 109 121 121 121 151 151 151 144 144 144 98 98 98 102 102 102 154 154 154 142 142 142 120 120 120 124 124 124 121 121 121 157 157 157 156 156 156 136 136 136 113 113 113 154 154 154 147 147 147 143 143 143 155 155 155 147 147 147 99 99 99 130 130 130 132 132 132 116 116 116 98 98 98 103 103 103 128 128 128 110 110 110 148 148 148 138 138 138 154 154 154 100 100 100 102 102 102 149 149 149 146 146 146 105 105 105 153 153 153 142 142 142 151 151 151 114 114 114 109 109 109 115 115 115 113 113 113 108 108 108 153 153 153 128 128 128 103 103 103 143 143 143 115 115 115 102 102 102 134 134 134 116 116 116 134 134 134 107 107 107 136 136 136 134 134 134 114 114 114 106 106 106 148 148 148 105 105 105 148 148 148 145 145 145 108 108 108 152 152 152 135 135 135 156 156 156 100 100 100 130 130 130 141 141 141 153 153 153 148 148 148 153 153 153 109 109 109 102 102 102 102 102 102 106 106 106 135 135 135 108 108 108 151 151 151 154 154 154 112 112 112 128 128 128 113 113 113 150 150 150 137 137 137 151 151 151 125 125 125 156 156 156 98 98 98 116 116 116 102 102 102 148 148 148 102 102 102 112 112 112 144 144 144 142 142 142 110 110 110 
146 146 146 113 113 113 153 153 153 143 143 143 102 102 102 149 149 149 154 154 154 109 109 109 154 154 154 103 103 103 148 148 148 105 105 105 98 98 98 145 145 145 121 121 121 128 128 128 99 99 99 112 112 112 109 109 109 152 152 152 141 141 141 106 106 106 155 155 155 98 98 98 110 110 110 146 146 146 104 104 104 125 125 125 131 131 131 148 148 148 139 139 139 121 121 121 104 104 104 135 135 135 107 107 107 111 111 111 128 128 128 104 104 104 124 124 124 123 123 123 110 110 110 113 113 113 132 132 132 110 110 110 99 99 99 155 155 155 142 142 142 102 102 102 110 110 110 153 153 153 156 156 156 153 153 153 100 100 100 154 154 154 155 155 155 115 115 115 142 142 142 100 100 100 144 144 144 116 116 116 153 153 153 126 126 126 141 141 141 98 98 98 102 102 102 150 150 150 113 113 113 132 132 132 157 157 157 139 139 139 98 98 98 110 110 110 156 156 156 132 132 132 124 124 124 98 98 98 130 130 130 107 107 107 102 102 102 144 144 144 102 102 102 102 102 102 140 140 140 106 106 106 158 158 158 136 136 136 125 125 125 143 143 143 141 141 141 110 110 110 101 101 101 137 137 137 138 138 138 144 144 144 139 139 139 145 145 145 138 138 138 155 155 155 120 120 120 138 138 138 135 135 135 121 121 121 150 150 150 133 133 133 157 157 157 115 115 115 133 133 133 131 131 131 124 124 124 140 140 140 118 118 118 130 130 130 144 144 144 100 100 100 141 141 141 143 143 143 140 140 140 107 107 107 128 128 128 124 124 124 120 120 120 133 133 133 102 102 102 99 99 99 120 120 120 144 144 144 146 146 146 99 99 99 142 142 142 110 110 110 139 139 139 118 118 118 133 133 133 130 130 130 155 155 155 133 133 133 149 149 149 132 132 132 107 107 107 117 117 117 113 113 113 128 128 128 149 149 149 98 98 98 130 130 130 131 131 131 145 145 145 111 111 111 141 141 141 116 116 116 140 140 140 102 102 102 151 151 151 144 144 144 105 105 105 113 113 113 131 131 131 156 156 156 116 116 116 114 114 114 107 107 107 158 158 158 137 137 137 144 144 144 131 131 131 135 135 135 120 120 120 124 124 124 110 110 110 130 130 130 143 143 143 125 125 125 99 99 99 133 133 133 127 127 127 131 131 131 108 108 108 114 114 114 146 146 146 151 151 151 134 134 134 127 127 127 157 157 157 129 129 129 115 115 115 105 105 105 146 146 146 148 148 148 104 104 104 103 103 103 106 106 106 115 115 115 104 104 104 147 147 147 100 100 100 138 138 138 125 125 125 123 123 123 103 103 103 138 138 138 
155 155 155 148 148 148 104 104 104 156 156 156 124 124 124 136 136 136 130 130 130 134 134 134 152 152 152 117 117 117 128 128 128 129 129 129 149 149 149 128 128 128 99 99 99 105 105 105 136 136 136 147 147 147 157 157 157 142 142 142 153 153 153 106 106 106 99 99 99 98 98 98 155 155 155 103 103 103 140 140 140 124 124 124 130 130 130 147 147 147 103 103 103 126 126 126 138 138 138 111 111 111 125 125 125 104 104 104 149 149 149 98 98 98 142 142 142 144 144 144 120 120 120 112 112 112 115 115 115 110 110 110 142 142 142 116 116 116 119 119 119 121 121 121 105 105 105 117 117 117 107 107 107 101 101 101 126 126 126 110 110 110 103 103 103 124 124 124 115 115 115 146 146 146 150 150 150 148 148 148 136 136 136 157 157 157 117 117 117 116 116 116 110 110 110 147 147 147 124 124 124 102 102 102 147 147 147 107 107 107 149 149 149 108 108 108 121 121 121 105 105 105 122 122 122 107 107 107 125 125 125 143 143 143 132 132 132 134 134 134 104 104 104 141 141 141 137 137 137 132 132 132 153 153 153 143 143 143 99 99 99 110 110 110 132 132 132 152 152 152 101 101 101 109 109 109 152 152 152 120 120 120 129 129 129 105 105 105 110 110 110 155 155 155 110 110 110 101 101 101 104 104 104 100 100 100 113 113 113 129 129 129 109 109 109 138 138 138 140 140 140 138 138 138 124 124 124 114 114 114 114 114 114 130 130 130 157 157 157 153 153 153 105 105 105 152 152 152 139 139 139 107 107 107 105 105 105 112 112 112 102 102 102 108 108 108 126 126 126 156 156 156 132 132 132 157 157 157 103 103 103 147 147 147 154 154 154 117 117 117 150 150 150 101 101 101 119 119 119 104 104 104 132 132 132 132 132 132 146 146 146 114 114 114 111 111 111 112 112 112 130 130 130 129 129 129 144 144 144 130 130 130 124 124 124 152 152 152 123 123 123 106 106 106 102 102 102 132 132 132 123 123 123 106 106 106 142 142 142 151 151 151 103 103 103 118 118 118 151 151 151 110 110 110 106 106 106 146 146 146 129 129 129 158 158 158 149 149 149 152 152 152 105 105 105 125 125 125 127 127 127 154 154 154 143 143 143 143 143 143 107 107 107 114 114 114 113 113 113 155 155 155 148 148 148 141 141 141 150 150 150 113 113 113 150 150 150 154 154 154 147 147 147 114 114 114 103 103 103 133 133 133 108 108 108 111 111 111 155 155 155 100 100 100 123 123 123 104 104 104 151 151 151 157 157 157 103 103 103 143 143 143 150 150 150 112 112 112 109 109 109 121 121 121 107 107 107 154 154 154 
105 105 105 116 116 116 111 111 111 120 120 120 115 115 115 101 101 101 103 103 103 106 106 106 118 118 118 157 157 157 104 104 104 108 108 108 112 112 112 109 109 109 145 145 145 124 124 124 122 122 122 143 143 143 126 126 126 150 150 150 149 149 149 120 120 120 148 148 148 156 156 156 105 105 105 141 141 141 110 110 110 118 118 118 103 103 103 119 119 119 116 116 116 112 112 112 140 140 140 131 131 131 137 137 137 157 157 157 136 136 136 144 144 144 106 106 106 156 156 156 142 142 142 112 112 112 108 108 108 158 158 158 126 126 126 157 157 157 123 123 123 150 150 150 142 142 142 153 153 153 143 143 143 132 132 132 115 115 115 132 132 132 130 130 130 124 124 124 117 117 117 142 142 142 146 146 146 124 124 124 104 104 104 103 103 103 139 139 139 146 146 146 137 137 137 119 119 119 146 146 146 116 116 116 104 104 104 155 155 155 114 114 114 148 148 148 110 110 110 126 126 126 149 149 149 138 138 138 124 124 124 115 115 115 132 132 132 109 109 109 111 111 111 116 116 116 144 144 144 130 130 130 153 153 153 117 117 117 156 156 156 111 111 111 100 100 100 144 144 144 137 137 137 108 108 108 151 151 151 119 119 119 157 157 157 131 131 131 140 140 140 146 146 146 150 150 150 148 148 148 144 144 144 107 107 107 139 139 139 157 157 157 135 135 135 129 129 129 138 138 138 102 102 102 148 148 148 111 111 111 114 114 114 101 101 101 130 130 130 101 101 101 133 133 133 124 124 124 120 120 120 131 131 131 139 139 139 124 124 124 118 118 118 119 119 119 134 134 134 110 110 110 141 141 141 134 134 134 146 146 146 124 124 124 122 122 122 137 137 137 114 114 114 109 109 109 146 146 146 155 155 155 107 107 107 124 124 124 128 128 128 148 148 148 130 130 130 117 117 117 102 102 102 146 146 146 120 120 120 136 136 136 151 151 151 156 156 156 103 103 103 112 112 112 130 130 130 144 144 144 138 138 138 150 150 150 105 105 105 116 116 116 103 103 103 150 150 150 152 152 152 151 151 151 117 117 117 117 117 117 129 129 129 133 133 133 129 129 129 118 118 118 132 132 132 140 140 140 144 144 144 101 101 101 131 131 131 116 116 116 120 120 120 136 136 136 105 105 105 143 143 143 113 113 113 98 98 98 142 142 142 119 119 119 114 114 114 113 113 113 106 106 106 157 157 157 106 106 106 115 115 115 114 114 114 111 111 111 106 106 106 107 107 107 106 106 106 126 126 126 129 129 129 139 139 139 102 102 102 99 99 99 99 99 99 136 136 136 141 141 141 147 147 147 139 139 139 114 114 114 
106 106 106 103 103 103 154 154 154 116 116 116 148 148 148 108 108 108 118 118 118 133 133 133 131 131 131 134 134 134 148 148 148 142 142 142 132 132 132 156 156 156 98 98 98 148 148 148 110 110 110 107 107 107 99 99 99 118 118 118 137 137 137 130 130 130 99 99 99 141 141 141 133 133 133 102 102 102 119 119 119 115 115 115 151 151 151 101 101 101 133 133 133 101 101 101 106 106 106 128 128 128 119 119 119 158 158 158 141 141 141 139 139 139 132 132 132 115 115 115 114 114 114 121 121 121 98 98 98 151 151 151 120 120 120 101 101 101 142 142 142 135 135 135 112 112 112 145 145 145 155 155 155 151 151 151 118 118 118 158 158 158 135 135 135 153 153 153 103 103 103 158 158 158 112 112 112 98 98 98 101 101 101 147 147 147 101 101 101 111 111 111 119 119 119 124 124 124 111 111 111 103 103 103 104 104 104 147 147 147 122 122 122 122 122 122 110 110 110 125 125 125 116 116 116 134 134 134 128 128 128 100 100 100 110 110 110 142 142 142 149 149 149 109 109 109 136 136 136 109 109 109 110 110 110 112 112 112 103 103 103 116 116 116 114 114 114 117 117 117 118 118 118 117 117 117 108 108 108 121 121 121 132 132 132 131 131 131 147 147 147 145 145 145 138 138 138 155 155 155 136 136 136 101 101 101 120 120 120 148 148 148 128 128 128 139 139 139 125 125 125 158 158 158 143 143 143 138 138 138 143 143 143 133 133 133 151 151 151 120 120 120 144 144 144 102 102 102 137 137 137 150 150 150 122 122 122 153 153 153 110 110 110 142 142 142 113 113 113 122 122 122 104 104 104 147 147 147 157 157 157 155 155 155 136 136 136 136 136 136 153 153 153 113 113 113 140 140 140 115 115 115 104 104 104 109 109 109 158 158 158 131 131 131 109 109 109 142 142 142 112 112 112 154 154 154 118 118 118 106 106 106 118 118 118 104 104 104 111 111 111 157 157 157 158 158 158 135 135 135 151 151 151 111 111 111 121 121 121 107 107 107 136 136 136 129 129 129 158 158 158 134 134 134 126 126 126 135 135 135 112 112 112 122 122 122 152 152 152 156 156 156 141 141 141 158 158 158 106 106 106 140 140 140 133 133 133 119 119 119 125 125 125 149 149 149 117 117 117 146 146 146 158 158 158 137 137 137 154 154 154 112 112 112 135 135 135 153 153 153 151 151 151 129 129 129 107 107 107 113 113 113 140 140 140 145 145 145 145 145 145 139 139 139 123 123 123 114 114 114 118 118 118 139 139 139 140 140 140 111 111 111 136 136 136 123 123 123 113 113 113 146 146 146 106 106 106 150 150 150 
107 107 107 134 134 134 142 142 142 126 126 126 123 123 123 143 143 143 104 104 104 118 118 118 157 157 157 143 143 143 112 112 112 152 152 152 115 115 115 121 121 121 108 108 108 98 98 98 110 110 110 157 157 157 139 139 139 137 137 137 114 114 114 98 98 98 119 119 119 157 157 157 112 112 112 98 98 98 123 123 123 129 129 129 146 146 146 131 131 131 120 120 120 157 157 157 108 108 108 103 103 103 124 124 124 133 133 133 149 149 149 132 132 132 153 153 153 149 149 149 118 118 118 108 108 108 144 144 144 137 137 137 134 134 134 155 155 155 137 137 137 148 148 148 155 155 155 118 118 118 126 126 126 111 111 111 118 118 118 149 149 149 109 109 109 134 134 134 149 149 149 136 136 136 104 104 104 136 136 136 108 108 108 128 128 128 135 135 135 121 121 121 134 134 134 102 102 102 156 156 156 126 126 126 139 139 139 153 153 153 118 118 118 98 98 98 102 102 102 104 104 104 138 138 138 140 140 140 102 102 102 116 116 116 129 129 129 98 98 98 138 138 138 157 157 157 113 113 113 100 100 100 147 147 147 124 124 124 136 136 136 139 139 139 103 103 103 145 145 145 117 117 117 116 116 116 114 114 114 156 156 156 139 139 139 152 152 152 101 101 101 138 138 138 121 121 121 142 142 142 132 132 132 142 142 142 145 145 145 139 139 139 150 150 150 124 124 124 120 120 120 156 156 156 144 144 144 152 152 152 158 158 158 126 126 126 152 152 152 113 113 113 128 128 128 143 143 143 141 141 141 105 105 105 123 123 123 147 147 147 154 154 154 144 144 144 104 104 104 110 110 110 143 143 143 147 147 147 105 105 105 147 147 147 126 126 126 129 129 129 132 132 132 102 102 102 114 114 114 118 118 118 143 143 143 107 107 107 146 146 146 104 104 104 106 106 106 132 132 132 158 158 158 105 105 105 99 99 99 154 154 154 120 120 120 129 129 129 138 138 138 105 105 105 138 138 138 104 104 104 154 154 154 136 136 136 151 151 151 101 101 101 150 150 150 137 137 137 150 150 150 157 157 157 125 125 125 119 119 119 129 129 129 101 101 101 123 123 123 147 147 147 121 121 121 107 107 107 158 158 158 109 109 109 116 116 116 105 105 105 145 145 145 115 115 115 113 113 113 148 148 148 112 112 112 137 137 137 120 120 120 152 152 152 144 144 144 99 99 99 98 98 98 141 141 141 139 139 139 153 153 153 144 144 144 130 130 130 131 131 131 137 137 137 129 129 129 100 100 100 100 100 100 101 101 101 103 103 103 125 125 125 151 151 151 126 126 126 137 137 137 150 150 150 139 139 139 155 155 155 
99 99 99 125 125 125 113 113 113 114 114 114 114 114 114 128 128 128 155 155 155 138 138 138 123 123 123 143 143 143 140 140 140 125 125 125 125 125 125 122 122 122 119 119 119 111 111 111 155 155 155 153 153 153 152 152 152 127 127 127 157 157 157 154 154 154 130 130 130 101 101 101 123 123 123 124 124 124 131 131 131 101 101 101 116 116 116 114 114 114 99 99 99 117 117 117 141 141 141 114 114 114 135 135 135 99 99 99 146 146 146 133 133 133 139 139 139 111 111 111 117 117 117 122 122 122 138 138 138 145 145 145 147 147 147 101 101 101 99 99 99 145 145 145 158 158 158 153 153 153 113 113 113 156 156 156 149 149 149 145 145 145 98 98 98 115 115 115 111 111 111 133 133 133 118 118 118 131 131 131 149 149 149 119 119 119 152 152 152 134 134 134 137 137 137 130 130 130 137 137 137 125 125 125 104 104 104 119 119 119 140 140 140 124 124 124 146 146 146 119 119 119 110 110 110 136 136 136 122 122 122 113 113 113 122 122 122 121 121 121 107 107 107 139 139 139 120 120 120 99 99 99 125 125 125 122 122 122 116 116 116 140 140 140 158 158 158 138 138 138 114 114 114 150 150 150 100 100 100 109 109 109 127 127 127 140 140 140 141 141 141 107 107 107 108 108 108 150 150 150 129 129 129 150 150 150 115 115 115 118 118 118 112 112 112 129 129 129 156 156 156 139 139 139 144 144 144 121 121 121 103 103 103 155 155 155 101 101 101 126 126 126 157 157 157 130 130 130 152 152 152 116 116 116 114 114 114 151 151 151 157 157 157 130 130 130 145 145 145 100 100 100 144 144 144 113 113 113 144 144 144 126 126 126 123 123 123 154 154 154 119 119 119 156 156 156 147 147 147 136 136 136 115 115 115 103 103 103 108 108 108 114 114 114 144 144 144 156 156 156 137 137 137 151 151 151 153 153 153 140 140 140 120 120 120 151 151 151 113 113 113 114 114 114 110 110 110 129 129 129 108 108 108 108 108 108 103 103 103 155 155 155 113 113 113 149 149 149 112 112 112 98 98 98 118 118 118 139 139 139 155 155 155 140 140 140 138 138 138 145 145 145 119 119 119 157 157 157 150 150 150 130 130 130 112 112 112 137 137 137 127 127 127 151 151 151 132 132 132 121 121 121 134 134 134 154 154 154 115 115 115 149 149 149 111 111 111 128 128 128 122 122 122 122 122 122 140 140 140 127 127 127 120 120 120 157 157 157 117 117 117 136 136 136 158 158 158 139 139 139 118 118 118 156 156 156 120 120 120 158 158 158 142 142 142 142 142 142 156 156 156 136 136 136 115 115 115 109 109 109 
116 116 116 146 146 146 103 103 103 150 150 150 111 111 111 141 141 141 146 146 146 128 128 128 134 134 134 100 100 100 99 99 99 158 158 158 124 124 124 144 144 144 128 128 128 149 149 149 142 142 142 149 149 149 126 126 126 143 143 143 129 129 129 147 147 147 140 140 140 154 154 154 148 148 148 124 124 124 139 139 139 146 146 146 103 103 103 156 156 156 98 98 98 121 121 121 143 143 143 106 106 106 113 113 113 156 156 156 151 151 151 102 102 102 128 128 128 126 126 126 104 104 104 131 131 131 127 127 127 133 133 133 118 118 118 157 157 157 123 123 123 104 104 104 147 147 147 151 151 151 149 149 149 118 118 118 141 141 141 131 131 131 113 113 113 131 131 131 98 98 98 154 154 154 120 120 120 103 103 103 153 153 153 122 122 122 126 126 126 139 139 139 130 130 130 143 143 143 139 139 139 125 125 125 147 147 147 108 108 108 153 153 153 156 156 156 143 143 143 122 122 122 130 130 130 105 105 105 122 122 122 155 155 155 111 111 111 111 111 111 149 149 149 103 103 103 133 133 133 132 132 132 136 136 136 150 150 150 104 104 104 138 138 138 147 147 147 128 128 128 145 145 145 141 141 141 152 152 152 113 113 113 121 121 121 126 126 126 158 158 158 101 101 101 153 153 153 149 149 149 113 113 113 149 149 149 146 146 146 100 100 100 114 114 114 117 117 117 107 107 107 139 139 139 115 115 115 120 120 120 154 154 154 105 105 105 127 127 127 128 128 128 139 139 139 105 105 105 119 119 119 147 147 147 147 147 147 107 107 107 116 116 116 134 134 134 152 152 152 112 112 112 151 151 151 114 114 114 140 140 140 152 152 152 120 120 120 136 136 136 142 142 142 137 137 137 128 128 128 131 131 131 139 139 139 145 145 145 152 152 152 148 148 148 127 127 127 108 108 108 111 111 111 122 122 122 118 118 118 141 141 141 152 152 152 98 98 98 150 150 150 114 114 114 150 150 150 138 138 138 125 125 125 109 109 109 115 115 115 120 120 120 123 123 123 107 107 107 136 136 136 106 106 106 101 101 101 99 99 99 146 146 146 147 147 147 139 139 139 116 116 116 122 122 122 119 119 119 102 102 102 115 115 115 109 109 109 131 131 131 128 128 128 122 122 122 157 157 157 148 148 148 104 104 104 152 152 152 150 150 150 156 156 156 107 107 107 141 141 141 138 138 138 136 136 136 153 153 153 155 155 155 158 158 158 119 119 119 104 104 104 137 137 137 128 128 128 109 109 109 141 141 141 117 117 117 158 158 158 121 121 121 135 135 135 121 121 121 144 144 144 141 141 141 141 141 141 157 157 157 
115 115 115 110 110 110 121 121 121 113 113 113 99 99 99 129 129 129 106 106 106 151 151 151 129 129 129 117 117 117 136 136 136 110 110 110 155 155 155 130 130 130 106 106 106 156 156 156 151 151 151 114 114 114 137 137 137 122 122 122 125 125 125 119 119 119 142 142 142 127 127 127 142 142 142 120 120 120 152 152 152 129 129 129 103 103 103 136 136 136 128 128 128 120 120 120 148 148 148 153 153 153 136 136 136 151 151 151 125 125 125 146 146 146 146 146 146 156 156 156 105 105 105 123 123 123 107 107 107 103 103 103 157 157 157 118 118 118 103 103 103 151 151 151 136 136 136 142 142 142 115 115 115 105 105 105 102 102 102 100 100 100 134 134 134 148 148 148 122 122 122 129 129 129 118 118 118 129 129 129 107 107 107 150 150 150 152 152 152 98 98 98 144 144 144 131 131 131 152 152 152 111 111 111 120 120 120 141 141 141 110 110 110 127 127 127 105 105 105 122 122 122 135 135 135 105 105 105 142 142 142 140 140 140 158 158 158 121 121 121 125 125 125 116 116 116 128 128 128 129 129 129 120 120 120 103 103 103 120 120 120 145 145 145 137 137 137 142 142 142 117 117 117 148 148 148 134 134 134 110 110 110 148 148 148 121 121 121 145 145 145 141 141 141 134 134 134 107 107 107 125 125 125 149 149 149 138 138 138 132 132 132 112 112 112 116 116 116 141 141 141 158 158 158 99 99 99 141 141 141 120 120 120 126 126 126 100 100 100 151 151 151 98 98 98 123 123 123 158 158 158 122 122 122 111 111 111 136 136 136 106 106 106 130 130 130 125 125 125 144 144 144 145 145 145 117 117 117 108 108 108 131 131 131 99 99 99 145 145 145 142 142 142 129 129 129 135 135 135 124 124 124 102 102 102 151 151 151 144 144 144 148 148 148 150 150 150 146 146 146 130 130 130 111 111 111 115 115 115 132 132 132 105 105 105 116 116 116 98 98 98 105 105 105 140 140 140 111 111 111 145 145 145 150 150 150 144 144 144 114 114 114 137 137 137 130 130 130 133 133 133 148 148 148 104 104 104 136 136 136 136 136 136 151 151 151 106 106 106 114 114 114 116 116 116 113 113 113 106 106 106 103 103 103 102 102 102 158 158 158 151 151 151 136 136 136 112 112 112 108 108 108 109 109 109 120 120 120 128 128 128 110 110 110 129 129 129 111 111 111 125 125 125 115 115 115 105 105 105 110 110 110 131 131 131 144 144 144 142 142 142 105 105 105 133 133 133 149 149 149 144 144 144 112 112 112 141 141 141 152 152 152 128 128 128 100 100 100 106 106 106 136 136 136 105 105 105 110 110 110 
137 137 137 100 100 100 148 148 148 154 154 154 110 110 110 101 101 101 115 115 115 142 142 142 115 115 115 146 146 146 155 155 155 142 142 142 104 104 104 101 101 101 157 157 157 138 138 138 150 150 150 140 140 140 145 145 145 126 126 126 132 132 132 132 132 132 141 141 141 114 114 114 126 126 126 110 110 110 118 118 118 136 136 136 151 151 151 126 126 126 151 151 151 129 129 129 128 128 128 142 142 142 124 124 124 142 142 142 147 147 147 143 143 143 127 127 127 103 103 103 132 132 132 123 123 123 150 150 150 139 139 139 129 129 129 148 148 148 118 118 118 120 120 120 131 131 131 106 106 106 150 150 150 105 105 105 143 143 143 132 132 132 123 123 123 112 112 112 147 147 147 144 144 144 150 150 150 139 139 139 113 113 113 142 142 142 111 111 111 145 145 145 128 128 128 140 140 140 130 130 130 116 116 116 126 126 126 98 98 98 124 124 124 100 100 100 125 125 125 115 115 115 141 141 141 158 158 158 106 106 106 102 102 102 121 121 121 141 141 141 112 112 112 113 113 113 148 148 148 98 98 98 147 147 147 115 115 115 112 112 112 137 137 137 102 102 102 104 104 104 117 117 117 119 119 119 150 150 150 133 133 133 105 105 105 119 119 119 114 114 114 139 139 139 140 140 140 142 142 142 141 141 141 105 105 105 146 146 146 109 109 109 124 124 124 130 130 130 109 109 109 132 132 132 136 136 136 132 132 132 116 116 116 151 151 151 149 149 149 106 106 106 151 151 151 138 138 138 125 125 125 105 105 105 118 118 118 129 129 129 113 113 113 138 138 138 150 150 150 106 106 106 114 114 114 98 98 98 130 130 130 130 130 130 139 139 139 111 111 111 115 115 115 123 123 123 120 120 120 103 103 103 134 134 134 146 146 146 135 135 135 145 145 145 121 121 121 113 113 113 121 121 121 139 139 139 107 107 107 111 111 111 147 147 147 101 101 101 153 153 153 113 113 113 110 110 110 113 113 113 146 146 146 127 127 127 155 155 155 137 137 137 136 136 136 110 110 110 139 139 139 109 109 109 144 144 144 119 119 119 124 124 124 100 100 100 146 146 146 146 146 146 107 107 107 122 122 122 133 133 133 147 147 147 110 110 110 156 156 156 103 103 103 133 133 133 136 136 136 112 112 112 149 149 149 127 127 127 117 117 117 143 143 143 144 144 144 130 130 130 99 99 99 132 132 132 98 98 98 156 156 156 112 112 112 138 138 138 107 107 107 154 154 154 149 149 149 153 153 153 116 116 116 114 114 114 158 158 158 104 104 104 101 101 101 106 106 106 128 128 128 138 138 138 155 155 155 140 140 140 
135 135 135 99 99 99 117 117 117 113 113 113 115 115 115 107 107 107 142 142 142 135 135 135 154 154 154 129 129 129 108 108 108 156 156 156 102 102 102 108 108 108 155 155 155 117 117 117 151 151 151 106 106 106 114 114 114 143 143 143 102 102 102 132 132 132 99 99 99 101 101 101 138 138 138 104 104 104 112 112 112 109 109 109 145 145 145 110 110 110 154 154 154 123 123 123 114 114 114 112 112 112 138 138 138 131 131 131 123 123 123 123 123 123 109 109 109 118 118 118 155 155 155 119 119 119 117 117 117 100 100 100 132 132 132 116 116 116 121 121 121 124 124 124 124 124 124 137 137 137 110 110 110 128 128 128 111 111 111 113 113 113 134 134 134 153 153 153 120 120 120 148 148 148 106 106 106 108 108 108 101 101 101 101 101 101 133 133 133 117 117 117 117 117 117 115 115 115 153 153 153 142 142 142 142 142 142 103 103 103 103 103 103 138 138 138 127 127 127 125 125 125 141 141 141 102 102 102 143 143 143 103 103 103 130 130 130 108 108 108 145 145 145 142 142 142 140 140 140 99 99 99 158 158 158 115 115 115 154 154 154 121 121 121 106 106 106 103 103 103 131 131 131 110 110 110 106 106 106 107 107 107 131 131 131 125 125 125 126 126 126 125 125 125 110 110 110 110 110 110 133 133 133 116 116 116 150 150 150 101 101 101 145 145 145 134 134 134 105 105 105 129 129 129 142 142 142 137 137 137 141 141 141 128 128 128 122 122 122 124 124 124 131 131 131 121 121 121 144 144 144 126 126 126 144 144 144 152 152 152 132 132 132 116 116 116 105 105 105 142 142 142 128 128 128 139 139 139 111 111 111 156 156 156 105 105 105 123 123 123 107 107 107 140 140 140 143 143 143 101 101 101 145 145 145 129 129 129 139 139 139 154 154 154 101 101 101 124 124 124 134 134 134 146 146 146 156 156 156 98 98 98 112 112 112 128 128 128 121 121 121 158 158 158 98 98 98 107 107 107 153 153 153 134 134 134 127 127 127 100 100 100 117 117 117 98 98 98 141 141 141 130 130 130 98 98 98 150 150 150 156 156 156 107 107 107 134 134 134 142 142 142 112 112 112 120 120 120 113 113 113 154 154 154 118 118 118 118 118 118 119 119 119 154 154 154 106 106 106 117 117 117 156 156 156 122 122 122 149 149 149 121 121 121 121 121 121 149 149 149 132 132 132 115 115 115 124 124 124 102 102 102 119 119 119 144 144 144 103 103 103 101 101 101 117 117 117 103 103 103 154 154 154 116 116 116 114 114 114 129 129 129 100 100 100 129 129 129 153 153 153 117 117 117 126 126 126 112 112 112 
137 137 137 149 149 149 110 110 110 147 147 147 109 109 109 107 107 107 110 110 110 100 100 100 130 130 130 133 133 133 153 153 153 105 105 105 153 153 153 119 119 119 110 110 110 113 113 113 106 106 106 115 115 115 119 119 119 125 125 125 122 122 122 114 114 114 146 146 146 138 138 138 147 147 147 148 148 148 110 110 110 141 141 141 108 108 108 140 140 140 158 158 158 147 147 147 131 131 131 111 111 111 138 138 138 144 144 144 120 120 120 150 150 150 148 148 148 155 155 155 127 127 127 143 143 143 103 103 103 121 121 121 103 103 103 115 115 115 138 138 138 113 113 113 134 134 134 98 98 98 140 140 140 158 158 158 116 116 116 127 127 127 140 140 140 104 104 104 118 118 118 152 152 152 150 150 150 128 128 128 134 134 134 151 151 151 119 119 119 108 108 108 103 103 103 98 98 98 156 156 156 127 127 127 150 150 150 146 146 146 125 125 125 118 118 118 132 132 132 131 131 131 143 143 143 139 139 139 148 148 148 123 123 123 154 154 154 126 126 126 123 123 123 135 135 135 125 125 125 142 142 142 106 106 106 106 106 106 150 150 150 126 126 126 102 102 102 141 141 141 98 98 98 140 140 140 135 135 135 119 119 119 150 150 150 140 140 140 119 119 119 149 149 149 111 111 111 110 110 110 138 138 138 138 138 138 133 133 133 111 111 111 112 112 112 117 117 117 152 152 152 104 104 104 142 142 142 147 147 147 132 132 132 107 107 107 126 126 126 98 98 98 153 153 153 136 136 136 109 109 109 144 144 144 103 103 103 113 113 113 129 129 129 105 105 105 155 155 155 105 105 105 126 126 126 148 148 148 150 150 150 147 147 147 138 138 138 102 102 102 101 101 101 118 118 118 142 142 142 136 136 136 131 131 131 98 98 98 155 155 155 127 127 127 104 104 104 139 139 139 117 117 117 138 138 138 150 150 150 145 145 145 138 138 138 144 144 144 124 124 124 151 151 151 131 131 131 132 132 132 105 105 105 101 101 101 139 139 139 103 103 103 111 111 111 107 107 107 153 153 153 102 102 102 156 156 156 133 133 133 108 108 108 98 98 98 155 155 155 154 154 154 138 138 138 129 129 129 154 154 154 135 135 135 158 158 158 99 99 99 117 117 117 117 117 117 139 139 139 108 108 108 105 105 105 121 121 121 156 156 156 134 134 134 113 113 113 128 128 128 107 107 107 123 123 123 134 134 134 148 148 148 128 128 128 149 149 149 157 157 157 123 123 123 155 155 155 157 157 157 99 99 99 104 104 104 98 98 98 156 156 156 99 99 99 139 139 139 126 126 126 158 158 158 115 115 115 128 128 128 
98 98 98 134 134 134 149 149 149 142 142 142 146 146 146 158 158 158 106 106 106 143 143 143 133 133 133 121 121 121 114 114 114 142 142 142 146 146 146 152 152 152 132 132 132 116 116 116 142 142 142 132 132 132 143 143 143 138 138 138 130 130 130 144 144 144 144 144 144 133 133 133 143 143 143 148 148 148 113 113 113 110 110 110 149 149 149 130 130 130 142 142 142 149 149 149 107 107 107 132 132 132 134 134 134 155 155 155 132 132 132 142 142 142 141 141 141 106 106 106 107 107 107 157 157 157 153 153 153 155 155 155 151 151 151 126 126 126 114 114 114 134 134 134 101 101 101 100 100 100 116 116 116 136 136 136 146 146 146 103 103 103 110 110 110 132 132 132 155 155 155 125 125 125 147 147 147 145 145 145 98 98 98 130 130 130 138 138 138 107 107 107 104 104 104 113 113 113 105 105 105 138 138 138 99 99 99 148 148 148 148 148 148 108 108 108 146 146 146 142 142 142 104 104 104 140 140 140 111 111 111 123 123 123 118 118 118 115 115 115 125 125 125 136 136 136 153 153 153 115 115 115 141 141 141 104 104 104 151 151 151 138 138 138 133 133 133 139 139 139 124 124 124 133 133 133 111 111 111 105 105 105 144 144 144 117 117 117 121 121 121 151 151 151 98 98 98 122 122 122 142 142 142 150 150 150 132 132 132 131 131 131 136 136 136 140 140 140 113 113 113 149 149 149 106 106 106 133 133 133 107 107 107 136 136 136 110 110 110 103 103 103 155 155 155 155 155 155 109 109 109 147 147 147 134 134 134 146 146 146 128 128 128 102 102 102 120 120 120 141 141 141 109 109 109 105 105 105 101 101 101 134 134 134 99 99 99 103 103 103 99 99 99 143 143 143 157 157 157 133 133 133 116 116 116 134 134 134 117 117 117 131 131 131 127 127 127 127 127 127 107 107 107 136 136 136 104 104 104 121 121 121 142 142 142 100 100 100 117 117 117 155 155 155 150 150 150 156 156 156 143 143 143 121 121 121 101 101 101 106 106 106 103 103 103 112 112 112 116 116 116 108 108 108 151 151 151 117 117 117 115 115 115 152 152 152 104 104 104 113 113 113 127 127 127 122 122 122 152 152 152 148 148 148 157 157 157 120 120 120 116 116 116 107 107 107 99 99 99 123 123 123 130 130 130 145 145 145 127 127 127 149 149 149 144 144 144 120 120 120 148 148 148 128 128 128 143 143 143 151 151 151 138 138 138 150 150 150 107 107 107 156 156 156 99 99 99 99 99 99 117 117 117 118 118 118 153 153 153 125 125 125 136 136 136 123 123 123 149 149 149 129 129 129 112 112 112 149 149 149 
153 153 153 133 133 133 99 99 99 156 156 156 99 99 99 131 131 131 143 143 143 128 128 128 123 123 123 130 130 130 151 151 151 115 115 115 101 101 101 135 135 135 107 107 107 141 141 141 127 127 127 116 116 116 141 141 141 130 130 130 117 117 117 99 99 99 151 151 151 112 112 112 126 126 126 130 130 130 139 139 139 118 118 118 100 100 100 154 154 154 110 110 110 157 157 157 130 130 130 113 113 113 156 156 156 131 131 131 146 146 146 142 142 142 100 100 100 112 112 112 113 113 113 155 155 155 129 129 129 116 116 116 134 134 134 141 141 141 99 99 99 104 104 104 98 98 98 144 144 144 136 136 136 120 120 120 147 147 147 130 130 130 136 136 136 116 116 116 101 101 101 116 116 116 136 136 136 105 105 105 111 111 111 150 150 150 105 105 105 145 145 145 104 104 104 103 103 103 117 117 117 154 154 154 149 149 149 122 122 122 109 109 109 104 104 104 120 120 120 143 143 143 122 122 122 156 156 156 125 125 125 125 125 125 101 101 101 127 127 127 110 110 110 142 142 142 149 149 149 98 98 98 115 115 115 126 126 126 116 116 116 121 121 121 147 147 147 156 156 156 130 130 130 101 101 101 149 149 149 140 140 140 149 149 149 157 157 157 145 145 145 107 107 107 154 154 154 137 137 137 133 133 133 105 105 105 143 143 143 156 156 156 152 152 152 109 109 109 153 153 153 118 118 118 136 136 136 98 98 98 147 147 147 151 151 151 144 144 144 140 140 140 153 153 153 102 102 102 109 109 109 113 113 113 125 125 125 158 158 158 112 112 112 158 158 158 101 101 101 103 103 103 139 139 139 152 152 152 103 103 103 127 127 127 102 102 102 99 99 99 107 107 107 138 138 138 108 108 108 153 153 153 135 135 135 103 103 103 103 103 103 131 131 131 123 123 123 143 143 143 131 131 131 113 113 113 137 137 137 118 118 118 157 157 157 132 132 132 123 123 123 108 108 108 149 149 149 152 152 152 109 109 109 102 102 102 153 153 153 112 112 112 109 109 109 135 135 135 107 107 107 117 117 117 105 105 105 112 112 112 120 120 120 115 115 115 154 154 154 132 132 132 109 109 109 130 130 130 137 137 137 116 116 116 104 104 104 103 103 103 102 102 102 140 140 140 118 118 118 142 142 142 99 99 99 119 119 119 117 117 117 126 126 126 131 131 131 107 107 107 120 120 120 142 142 142 113 113 113 114 114 114 98 98 98 125 125 125 152 152 152 107 107 107 146 146 146 98 98 98 123 123 123 107 107 107 115 115 115 120 120 120 141 141 141 128 128 128 152 152 152 119 119 119 148 148 148 98 98 98 
124 124 124 153 153 153 142 142 142 146 146 146 136 136 136 143 143 143 106 106 106 157 157 157 111 111 111 139 139 139 105 105 105 135 135 135 125 125 125 122 122 122 151 151 151 125 125 125 149 149 149 146 146 146 136 136 136 136 136 136 147 147 147 103 103 103 147 147 147 105 105 105 125 125 125 129 129 129 136 136 136 121 121 121 150 150 150 125 125 125 123 123 123 117 117 117 121 121 121 106 106 106 105 105 105 100 100 100 153 153 153 115 115 115 98 98 98 105 105 105 98 98 98 105 105 105 144 144 144 125 125 125 130 130 130 137 137 137 154 154 154 122 122 122 124 124 124 133 133 133 102 102 102 114 114 114 138 138 138 151 151 151 122 122 122 107 107 107 124 124 124 101 101 101 130 130 130 115 115 115 130 130 130 157 157 157 137 137 137 154 154 154 104 104 104 146 146 146 158 158 158 98 98 98 102 102 102 98 98 98 108 108 108 104 104 104 107 107 107 154 154 154 133 133 133 141 141 141 134 134 134 128 128 128 105 105 105 102 102 102 105 105 105 111 111 111 118 118 118 147 147 147 105 105 105 144 144 144 156 156 156 131 131 131 149 149 149 129 129 129 151 151 151 121 121 121 129 129 129 129 129 129 118 118 118 135 135 135 116 116 116 117 117 117 138 138 138 122 122 122 119 119 119 150 150 150 129 129 129 129 129 129 147 147 147 103 103 103 111 111 111 123 123 123 136 136 136 118 118 118 127 127 127 145 145 145 133 133 133 149 149 149 133 133 133 141 141 141 135 135 135 133 133 133 115 115 115 125 125 125 103 103 103 107 107 107 150 150 150 137 137 137 140 140 140 111 111 111 115 115 115 99 99 99 133 133 133 155 155 155 124 124 124 154 154 154 148 148 148 157 157 157 124 124 124 137 137 137 101 101 101 140 140 140 103 103 103 141 141 141 101 101 101 134 134 134 127 127 127 137 137 137 126 126 126 104 104 104 121 121 121 102 102 102 139 139 139 138 138 138 132 132 132 146 146 146 150 150 150 125 125 125 124 124 124 131 131 131 141 141 141 142 142 142 133 133 133 117 117 117 140 140 140 100 100 100 114 114 114 130 130 130 98 98 98 141 141 141 110 110 110 103 103 103 122 122 122 117 117 117 147 147 147 127 127 127 153 153 153 117 117 117 105 105 105 122 122 122 123 123 123 128 128 128 127 127 127 105 105 105 110 110 110 102 102 102 156 156 156 103 103 103 131 131 131 121 121 121 136 136 136 115 115 115 106 106 106 112 112 112 134 134 134 149 149 149 114 114 114 151 151 151 122 122 122 114 114 114 135 135 135 136 136 136 122 122 122 100 100 100 
155 155 155 110 110 110 129 129 129 151 151 151 131 131 131 139 139 139 114 114 114 98 98 98 110 110 110 145 145 145 107 107 107 122 122 122 151 151 151 104 104 104 127 127 127 126 126 126 128 128 128 107 107 107 143 143 143 138 138 138 123 123 123 121 121 121 130 130 130 142 142 142 115 115 115 154 154 154 158 158 158 152 152 152 133 133 133 121 121 121 156 156 156 131 131 131 135 135 135 128 128 128 125 125 125 110 110 110 108 108 108 144 144 144 110 110 110 121 121 121 132 132 132 119 119 119 147 147 147 125 125 125 126 126 126 118 118 118 155 155 155 158 158 158 129 129 129 141 141 141 137 137 137 154 154 154 103 103 103 109 109 109 137 137 137 122 122 122 106 106 106 139 139 139 115 115 115 142 142 142 103 103 103 114 114 114 116 116 116 143 143 143 145 145 145 144 144 144 155 155 155 157 157 157 129 129 129 108 108 108 121 121 121 102 102 102 131 131 131 110 110 110 131 131 131 98 98 98 132 132 132 127 127 127 99 99 99 102 102 102 110 110 110 141 141 141 99 99 99 117 117 117 154 154 154 139 139 139 142 142 142 101 101 101 121 121 121 100 100 100 147 147 147 126 126 126 119 119 119 105 105 105 110 110 110 107 107 107 151 151 151 108 108 108 105 105 105 123 123 123 118 118 118 131 131 131 127 127 127 152 152 152 143 143 143 100 100 100 154 154 154 118 118 118 131 131 131 158 158 158 122 122 122 145 145 145 140 140 140 125 125 125 104 104 104 135 135 135 105 105 105 150 150 150 140 140 140 130 130 130 152 152 152 129 129 129 98 98 98 114 114 114 138 138 138 112 112 112 123 123 123 130 130 130 125 125 125 133 133 133 155 155 155 147 147 147 105 105 105 125 125 125 140 140 140 152 152 152 129 129 129 138 138 138 111 111 111 102 102 102 139 139 139 137 137 137 149 149 149 120 120 120 103 103 103 155 155 155 98 98 98 113 113 113 148 148 148 140 140 140 145 145 145 144 144 144 112 112 112 147 147 147 99 99 99 152 152 152 101 101 101 125 125 125 125 125 125 130 130 130 101 101 101 123 123 123 118 118 118 108 108 108 151 151 151 102 102 102 101 101 101 121 121 121 142 142 142 114 114 114 125 125 125 122 122 122 153 153 153 116 116 116 146 146 146 158 158 158 114 114 114 146 146 146 112 112 112 106 106 106 129 129 129 101 101 101 152 152 152 144 144 144 150 150 150 153 153 153 137 137 137 153 153 153 121 121 121 104 104 104 126 126 126 124 124 124 129 129 129 147 147 147 134 134 134 123 123 123 151 151 151 137 137 137 147 147 147 134 134 134 
155 155 155 115 115 115 99 99 99 151 151 151 135 135 135 149 149 149 153 153 153 154 154 154 138 138 138 106 106 106 101 101 101 108 108 108 109 109 109 155 155 155 156 156 156 103 103 103 151 151 151 137 137 137 158 158 158 114 114 114 143 143 143 126 126 126 140 140 140 115 115 115 116 116 116 118 118 118 143 143 143 108 108 108 98 98 98 131 131 131 146 146 146 156 156 156 150 150 150 149 149 149 150 150 150 127 127 127 139 139 139 144 144 144 122 122 122 118 118 118 155 155 155 125 125 125 130 130 130 107 107 107 123 123 123 128 128 128 112 112 112 115 115 115 106 106 106 112 112 112 131 131 131 153 153 153 142 142 142 115 115 115 111 111 111 101 101 101 137 137 137 156 156 156 111 111 111 137 137 137 130 130 130 98 98 98 136 136 136 122 122 122 151 151 151 128 128 128 151 151 151 131 131 131 113 113 113 116 116 116 153 153 153 109 109 109 145 145 145 124 124 124 119 119 119 109 109 109 156 156 156 133 133 133 128 128 128 103 103 103 149 149 149 103 103 103 99 99 99 134 134 134 120 120 120 113 113 113 137 137 137 98 98 98 110 110 110 152 152 152 139 139 139 143 143 143 154 154 154 117 117 117 106 106 106 146 146 146 149 149 149 100 100 100 120 120 120 103 103 103 118 118 118 114 114 114 117 117 117 106 106 106 141 141 141 140 140 140 119 119 119 140 140 140 114 114 114 149 149 149 146 146 146 107 107 107 154 154 154 147 147 147 145 145 145 117 117 117 103 103 103 126 126 126 119 119 119 116 116 116 119 119 119 100 100 100 102 102 102 117 117 117 121 121 121 112 112 112 104 104 104 111 111 111 116 116 116 127 127 127 116 116 116 136 136 136 145 145 145 137 137 137 146 146 146 129 129 129 118 118 118 106 106 106 111 111 111 137 137 137 157 157 157 100 100 100 146 146 146 155 155 155 151 151 151 134 134 134 113 113 113 157 157 157 101 101 101 135 135 135 116 116 116 125 125 125 139 139 139 120 120 120 144 144 144 101 101 101 136 136 136 150 150 150 114 114 114 154 154 154 120 120 120 134 134 134 133 133 133 107 107 107 113 113 113 120 120 120 140 140 140 135 135 135 130 130 130 153 153 153 113 113 113 128 128 128 155 155 155 100 100 100 126 126 126 148 148 148 139 139 139 142 142 142 148 148 148 142 142 142 120 120 120 105 105 105 108 108 108 102 102 102 129 129 129 154 154 154 105 105 105 108 108 108 148 148 148 123 123 123 103 103 103 109 109 109 98 98 98 138 138 138 120 120 120 115 115 115 101 101 101 104 104 104 153 153 153 133 133 133 
98 98 98 107 107 107 104 104 104 158 158 158 112 112 112 133 133 133 149 149 149 153 153 153 118 118 118 138 138 138 136 136 136 142 142 142 147 147 147 149 149 149 146 146 146 117 117 117 144 144 144 155 155 155 127 127 127 135 135 135 119 119 119 134 134 134 149 149 149 119 119 119 115 115 115 110 110 110 139 139 139 118 118 118 116 116 116 133 133 133 155 155 155 119 119 119 144 144 144 100 100 100 120 120 120 99 99 99 137 137 137 110 110 110 154 154 154 98 98 98 150 150 150 134 134 134 142 142 142 138 138 138 124 124 124 129 129 129 98 98 98 111 111 111 125 125 125 129 129 129 149 149 149 148 148 148 104 104 104 139 139 139 111 111 111 123 123 123 153 153 153 152 152 152 143 143 143 113 113 113 128 128 128 141 141 141 136 136 136 113 113 113 145 145 145 158 158 158 115 115 115 124 124 124 109 109 109 112 112 112 126 126 126 102 102 102 150 150 150 110 110 110 144 144 144 117 117 117 143 143 143 144 144 144 133 133 133 112 112 112 116 116 116 123 123 123 101 101 101 122 122 122 105 105 105 114 114 114 149 149 149 101 101 101 107 107 107 133 133 133 116 116 116 139 139 139 117 117 117 156 156 156 155 155 155 103 103 103 155 155 155 113 113 113 131 131 131 105 105 105 129 129 129 99 99 99 111 111 111 121 121 121 113 113 113 157 157 157 142 142 142 158 158 158 142 142 142 116 116 116 113 113 113 99 99 99 143 143 143 117 117 117 125 125 125 150 150 150 135 135 135 115 115 115 154 154 154 147 147 147 152 152 152 113 113 113 127 127 127 112 112 112 111 111 111 125 125 125 120 120 120 107 107 107 142 142 142 153 153 153 117 117 117 113 113 113 156 156 156 130 130 130 138 138 138 112 112 112 131 131 131 121 121 121 114 114 114 114 114 114 142 142 142 129 129 129 118 118 118 126 126 126 150 150 150 147 147 147 118 118 118 127 127 127 106 106 106 115 115 115 115 115 115 101 101 101 130 130 130 146 146 146 116 116 116 145 145 145 113 113 113 138 138 138 157 157 157 157 157 157 134 134 134 117 117 117 113 113 113 134 134 134 151 151 151 155 155 155 148 148 148 123 123 123 118 118 118 103 103 103 142 142 142 101 101 101 135 135 135 103 103 103 131 131 131 126 126 126 152 152 152 151 151 151 157 157 157 101 101 101 109 109 109 113 113 113 105 105 105 144 144 144 103 103 103 125 125 125 130 130 130 118 118 118 106 106 106 130 130 130 118 118 118 144 144 144 149 149 149 134 134 134 119 119 119 142 142 142 130 130 130 109 109 109 108 108 108 152 152 152 
116 116 116 152 152 152 157 157 157 155 155 155 157 157 157 130 130 130 125 125 125 153 153 153 124 124 124 123 123 123 156 156 156 136 136 136 141 141 141 104 104 104 121 121 121 146 146 146 133 133 133 155 155 155 107 107 107 141 141 141 127 127 127 127 127 127 127 127 127 119 119 119 104 104 104 150 150 150 104 104 104 139 139 139 102 102 102 115 115 115 134 134 134 121 121 121 110 110 110 133 133 133 119 119 119 111 111 111 106 106 106 146 146 146 105 105 105 134 134 134 111 111 111 104 104 104 111 111 111 156 156 156 113 113 113 136 136 136 145 145 145 148 148 148 133 133 133 154 154 154 133 133 133 103 103 103 122 122 122 101 101 101 124 124 124 129 129 129 153 153 153 133 133 133 111 111 111 158 158 158 150 150 150 147 147 147 122 122 122 103 103 103 123 123 123 143 143 143 116 116 116 131 131 131 131 131 131 123 123 123 109 109 109 146 146 146 132 132 132 122 122 122 145 145 145 147 147 147 102 102 102 131 131 131 136 136 136 139 139 139 126 126 126 110 110 110 146 146 146 152 152 152 115 115 115 111 111 111 122 122 122 112 112 112 146 146 146 137 137 137 113 113 113 139 139 139 126 126 126 137 137 137 145 145 145 151 151 151 121 121 121 102 102 102 126 126 126 156 156 156 130 130 130 137 137 137 145 145 145 103 103 103 102 102 102 131 131 131 154 154 154 108 108 108 103 103 103 131 131 131 149 149 149 133 133 133 146 146 146 136 136 136 127 127 127 104 104 104 152 152 152 153 153 153 118 118 118 141 141 141 204 204 204 205 205 205 196 196 196 171 171 171 185 185 185 184 184 184 226 226 226 211 211 211 190 190 190 195 195 195 208 208 208 222 222 222 175 175 175 195 195 195 229 229 229 180 180 180 230 230 230 224 224 224 192 192 192 177 177 177 199 199 199 185 185 185 212 212 212 188 188 188 223 223 223 180 180 180 194 194 194 218 218 218 175 175 175 217 217 217 203 203 203 211 211 211 193 193 193 229 229 229 212 212 212 209 209 209 184 184 184 209 209 209 189 189 189 204 204 204 174 174 174 229 229 229 198 198 198 179 179 179 195 195 195 198 198 198 191 191 191 195 195 195 194 194 194 214 214 214 202 202 202 223 223 223 229 229 229 185 185 185 182 182 182 223 223 223 196 196 196 208 208 208 213 213 213 203 203 203 194 194 194 113 113 113 111 111 111 146 146 146 113 113 113 155 155 155 126 126 126 129 129 129 133 133 133 145 145 145 102 102 102 139 139 139 143 143 143 132 132 132 151 151 151 110 110 110 100 100 100 111 111 111 135 135 135 124 124 124 
157 157 157 108 108 108 118 118 118 157 157 157 123 123 123 130 130 130 152 152 152 151 151 151 107 107 107 134 134 134 125 125 125 134 134 134 151 151 151 138 138 138 121 121 121 107 107 107 136 136 136 151 151 151 138 138 138 113 113 113 137 137 137 144 144 144 154 154 154 123 123 123 118 118 118 148 148 148 135 135 135 120 120 120 101 101 101 113 113 113 148 148 148 101 101 101 125 125 125 107 107 107 100 100 100 151 151 151 141 141 141 154 154 154 145 145 145 152 152 152 131 131 131 112 112 112 127 127 127 123 123 123 154 154 154 152 152 152 134 134 134 134 134 134 144 144 144 113 113 113 149 149 149 122 122 122 98 98 98 146 146 146 150 150 150 120 120 120 136 136 136 128 128 128 144 144 144 141 141 141 144 144 144 133 133 133 144 144 144 110 110 110 144 144 144 148 148 148 104 104 104 126 126 126 145 145 145 154 154 154 120 120 120 117 117 117 109 109 109 151 151 151 144 144 144 106 106 106 145 145 145 119 119 119 142 142 142 130 130 130 136 136 136 132 132 132 157 157 157 139 139 139 122 122 122 148 148 148 100 100 100 101 101 101 119 119 119 147 147 147 144 144 144 106 106 106 123 123 123 131 131 131 121 121 121 109 109 109 123 123 123 129 129 129 139 139 139 109 109 109 124 124 124 102 102 102 129 129 129 135 135 135 156 156 156 116 116 116 144 144 144 142 142 142 138 138 138 127 127 127 113 113 113 117 117 117 103 103 103 113 113 113 158 158 158 129 129 129 104 104 104 102 102 102 132 132 132 126 126 126 223 223 223 191 191 191 206 206 206 189 189 189 226 226 226 170 170 170 200 200 200 190 190 190 202 202 202 183 183 183 202 202 202 228 228 228 187 187 187 174 174 174 207 207 207 184 184 184 192 192 192 192 192 192 228 228 228 173 173 173 223 223 223 185 185 185 195 195 195 230 230 230 200 200 200 194 194 194 202 202 202 207 207 207 198 198 198 177 177 177 176 176 176 192 192 192 198 198 198 214 214 214 214 214 214 196 196 196 215 215 215 183 183 183 216 216 216 186 186 186 198 198 198 189 189 189 183 183 183 216 216 216 193 193 193 220 220 220 230 230 230 218 218 218 183 183 183 230 230 230 223 223 223 178 178 178 186 186 186 187 187 187 179 179 179 216 216 216 214 214 214 212 212 212 194 194 194 181 181 181 221 221 221 130 130 130 134 134 134 119 119 119 114 114 114 117 117 117 145 145 145 98 98 98 132 132 132 132 132 132 114 114 114 100 100 100 152 152 152 129 129 129 148 148 148 116 116 116 121 121 121 149 149 149 105 105 105 136 136 136 
148 148 148 98 98 98 144 144 144 105 105 105 115 115 115 156 156 156 154 154 154 100 100 100 139 139 139 117 117 117 112 112 112 129 129 129 152 152 152 150 150 150 150 150 150 107 107 107 110 110 110 138 138 138 107 107 107 146 146 146 112 112 112 125 125 125 148 148 148 105 105 105 156 156 156 139 139 139 125 125 125 118 118 118 130 130 130 133 133 133 157 157 157 121 121 121 133 133 133 144 144 144 129 129 129 152 152 152 143 143 143 124 124 124 155 155 155 123 123 123 145 145 145 110 110 110 157 157 157 138 138 138 103 103 103 148 148 148 147 147 147 115 115 115 130 130 130 158 158 158 104 104 104 144 144 144 124 124 124 155 155 155 151 151 151 124 124 124 137 137 137 119 119 119 146 146 146 108 108 108 154 154 154 144 144 144 132 132 132 130 130 130 132 132 132 102 102 102 124 124 124 116 116 116 130 130 130 122 122 122 144 144 144 116 116 116 136 136 136 142 142 142 157 157 157 143 143 143 133 133 133 147 147 147 101 101 101 104 104 104 147 147 147 107 107 107 152 152 152 114 114 114 105 105 105 146 146 146 140 140 140 145 145 145 107 107 107 128 128 128 155 155 155 102 102 102 115 115 115 128 128 128 135 135 135 149 149 149 134 134 134 102 102 102 109 109 109 105 105 105 126 126 126 157 157 157 124 124 124 105 105 105 142 142 142 124 124 124 150 150 150 116 116 116 112 112 112 153 153 153 125 125 125 102 102 102 101 101 101 118 118 118 119 119 119 109 109 109 106 106 106 100 100 100 158 158 158 117 117 117 202 202 202 226 226 226 193 193 193 222 222 222 198 198 198 230 230 230 214 214 214 175 175 175 175 175 175 225 225 225 183 183 183 203 203 203 225 225 225 211 211 211 212 212 212 208 208 208 178 178 178 205 205 205 229 229 229 194 194 194 199 199 199 195 195 195 199 199 199 205 205 205 217 217 217 220 220 220 218 218 218 227 227 227 224 224 224 217 217 217 185 185 185 196 196 196 214 214 214 211 211 211 187 187 187 183 183 183 210 210 210 170 170 170 189 189 189 216 216 216 228 228 228 204 204 204 190 190 190 224 224 224 186 186 186 174 174 174 202 202 202 194 194 194 209 209 209 200 200 200 218 218 218 180 180 180 227 227 227 186 186 186 215 215 215 215 215 215 177 177 177 204 204 204 214 214 214 171 171 171 192 192 192 157 157 157 127 127 127 103 103 103 137 137 137 146 146 146 117 117 117 119 119 119 146 146 146 136 136 136 106 106 106 145 145 145 111 111 111 128 128 128 139 139 139 127 127 127 132 132 132 112 112 112 151 151 151 113 113 113 
144 144 144 140 140 140 123 123 123 142 142 142 98 98 98 109 109 109 126 126 126 105 105 105 143 143 143 109 109 109 106 106 106 104 104 104 110 110 110 137 137 137 111 111 111 151 151 151 124 124 124 130 130 130 113 113 113 114 114 114 109 109 109 123 123 123 100 100 100 122 122 122 154 154 154 143 143 143 153 153 153 129 129 129 98 98 98 147 147 147 144 144 144 144 144 144 129 129 129 110 110 110 127 127 127 129 129 129 121 121 121 158 158 158 138 138 138 107 107 107 110 110 110 149 149 149 115 115 115 124 124 124 127 127 127 131 131 131 119 119 119 154 154 154 102 102 102 136 136 136 109 109 109 116 116 116 101 101 101 113 113 113 142 142 142 98 98 98 100 100 100 137 137 137 129 129 129 100 100 100 125 125 125 117 117 117 149 149 149 158 158 158 131 131 131 119 119 119 128 128 128 157 157 157 118 118 118 110 110 110 107 107 107 131 131 131 100 100 100 127 127 127 98 98 98 129 129 129 99 99 99 119 119 119 126 126 126 103 103 103 158 158 158 137 137 137 123 123 123 102 102 102 155 155 155 107 107 107 102 102 102 157 157 157 148 148 148 135 135 135 100 100 100 116 116 116 156 156 156 151 151 151 116 116 116 129 129 129 112 112 112 146 146 146 127 127 127 132 132 132 99 99 99 138 138 138 106 106 106 101 101 101 106 106 106 109 109 109 135 135 135 107 107 107 130 130 130 102 102 102 115 115 115 131 131 131 144 144 144 140 140 140 135 135 135 142 142 142 151 151 151 139 139 139 140 140 140 142 142 142 188 188 188 214 214 214 172 172 172 185 185 185 209 209 209 190 190 190 218 218 218 223 223 223 179 179 179 188 188 188 198 198 198 181 181 181 229 229 229 209 209 209 186 186 186 178 178 178 220 220 220 225 225 225 188 188 188 191 191 191 171 171 171 205 205 205 227 227 227 217 217 217 188 188 188 203 203 203 202 202 202 183 183 183 186 186 186 183 183 183 227 227 227 206 206 206 229 229 229 170 170 170 223 223 223 207 207 207 190 190 190 211 211 211 201 201 201 202 202 202 170 170 170 230 230 230 215 215 215 229 229 229 208 208 208 170 170 170 179 179 179 197 197 197 226 226 226 197 197 197 220 220 220 227 227 227 173 173 173 216 216 216 215 215 215 191 191 191 191 191 191 186 186 186 206 206 206 207 207 207 201 201 201 133 133 133 110 110 110 127 127 127 133 133 133 102 102 102 106 106 106 156 156 156 145 145 145 137 137 137 127 127 127 146 146 146 138 138 138 111 111 111 146 146 146 115 115 115 113 113 113 155 155 155 144 144 144 108 108 108 
123 123 123 136 136 136 106 106 106 126 126 126 121 121 121 153 153 153 150 150 150 144 144 144 108 108 108 125 125 125 120 120 120 141 141 141 101 101 101 134 134 134 112 112 112 137 137 137 141 141 141 120 120 120 136 136 136 129 129 129 100 100 100 104 104 104 116 116 116 141 141 141 119 119 119 106 106 106 99 99 99 134 134 134 104 104 104 148 148 148 147 147 147 130 130 130 125 125 125 155 155 155 158 158 158 150 150 150 150 150 150 151 151 151 136 136 136 101 101 101 120 120 120 99 99 99 145 145 145 123 123 123 138 138 138 100 100 100 103 103 103 122 122 122 122 122 122 141 141 141 153 153 153 126 126 126 147 147 147 113 113 113 110 110 110 109 109 109 121 121 121 114 114 114 146 146 146 129 129 129 103 103 103 134 134 134 100 100 100 132 132 132 132 132 132 102 102 102 125 125 125 125 125 125 155 155 155 102 102 102 131 131 131 118 118 118 106 106 106 119 119 119 144 144 144 148 148 148 121 121 121 149 149 149 111 111 111 147 147 147 132 132 132 107 107 107 116 116 116 122 122 122 122 122 122 129 129 129 134 134 134 147 147 147 147 147 147 123 123 123 118 118 118 154 154 154 100 100 100 122 122 122 127 127 127 136 136 136 126 126 126 154 154 154 103 103 103 125 125 125 100 100 100 138 138 138 145 145 145 110 110 110 98 98 98 132 132 132 99 99 99 121 121 121 123 123 123 114 114 114 111 111 111 98 98 98 123 123 123 129 129 129 124 124 124 150 150 150 99 99 99 99 99 99 138 138 138 150 150 150 198 198 198 171 171 171 217 217 217 200 200 200 196 196 196 185 185 185 178 178 178 224 224 224 183 183 183 185 185 185 192 192 192 185 185 185 225 225 225 179 179 179 199 199 199 227 227 227 215 215 215 200 200 200 191 191 191 179 179 179 218 218 218 204 204 204 181 181 181 184 184 184 174 174 174 208 208 208 175 175 175 178 178 178 211 211 211 218 218 218 230 230 230 179 179 179 219 219 219 219 219 219 209 209 209 184 184 184 173 173 173 219 219 219 180 180 180 186 186 186 175 175 175 202 202 202 203 203 203 230 230 230 213 213 213 171 171 171 228 228 228 198 198 198 203 203 203 188 188 188 209 209 209 190 190 190 224 224 224 221 221 221 207 207 207 170 170 170 198 198 198 214 214 214 180 180 180 178 178 178 201 201 201 109 109 109 117 117 117 118 118 118 158 158 158 157 157 157 134 134 134 101 101 101 147 147 147 144 144 144 119 119 119 153 153 153 116 116 116 153 153 153 154 154 154 98 98 98 156 156 156 152 152 152 128 128 128 129 129 129 
111 111 111 107 107 107 151 151 151 105 105 105 158 158 158 129 129 129 105 105 105 127 127 127 113 113 113 115 115 115 137 137 137 144 144 144 126 126 126 157 157 157 105 105 105 128 128 128 157 157 157 142 142 142 131 131 131 145 145 145 129 129 129 154 154 154 141 141 141 147 147 147 150 150 150 139 139 139 150 150 150 148 148 148 132 132 132 119 119 119 120 120 120 147 147 147 130 130 130 112 112 112 156 156 156 131 131 131 144 144 144 104 104 104 99 99 99 100 100 100 123 123 123 141 141 141 146 146 146 154 154 154 139 139 139 156 156 156 123 123 123 139 139 139 141 141 141 156 156 156 125 125 125 111 111 111 153 153 153 110 110 110 100 100 100 145 145 145 151 151 151 154 154 154 134 134 134 126 126 126 116 116 116 156 156 156 114 114 114 149 149 149 111 111 111 114 114 114 121 121 121 98 98 98 120 120 120 125 125 125 100 100 100 146 146 146 107 107 107 151 151 151 141 141 141 150 150 150 148 148 148 105 105 105 130 130 130 130 130 130 104 104 104 98 98 98 145 145 145 100 100 100 110 110 110 147 147 147 147 147 147 104 104 104 144 144 144 124 124 124 132 132 132 102 102 102 121 121 121 151 151 151 155 155 155 137 137 137 106 106 106 117 117 117 137 137 137 130 130 130 146 146 146 142 142 142 117 117 117 157 157 157 134 134 134 101 101 101 148 148 148 125 125 125 110 110 110 121 121 121 98 98 98 118 118 118 124 124 124 145 145 145 121 121 121 138 138 138 136 136 136 111 111 111 145 145 145 121 121 121 210 210 210 190 190 190 199 199 199 174 174 174 184 184 184 195 195 195 213 213 213 194 194 194 217 217 217 194 194 194 227 227 227 204 204 204 177 177 177 187 187 187 203 203 203 215 215 215 191 191 191 194 194 194 181 181 181 205 205 205 218 218 218 183 183 183 226 226 226 183 183 183 230 230 230 190 190 190 223 223 223 209 209 209 203 203 203 211 211 211 174 174 174 182 182 182 173 173 173 203 203 203 187 187 187 187 187 187 170 170 170 171 171 171 212 212 212 217 217 217 195 195 195 210 210 210 190 190 190 202 202 202 227 227 227 225 225 225 188 188 188 189 189 189 189 189 189 199 199 199 225 225 225 178 178 178 212 212 212 222 222 222 193 193 193 214 214 214 183 183 183 187 187 187 192 192 192 216 216 216 229 229 229 126 126 126 98 98 98 99 99 99 99 99 99 117 117 117 118 118 118 99 99 99 118 118 118 99 99 99 148 148 148 146 146 146 141 141 141 109 109 109 117 117 117 138 138 138 104 104 104 138 138 138 157 157 157 125 125 125 
106 106 106 153 153 153 133 133 133 151 151 151 144 144 144 158 158 158 136 136 136 98 98 98 114 114 114 99 99 99 145 145 145 112 112 112 128 128 128 147 147 147 115 115 115 131 131 131 105 105 105 136 136 136 134 134 134 127 127 127 137 137 137 123 123 123 114 114 114 122 122 122 134 134 134 136 136 136 101 101 101 142 142 142 115 115 115 101 101 101 108 108 108 125 125 125 157 157 157 145 145 145 117 117 117 144 144 144 144 144 144 157 157 157 145 145 145 100 100 100 98 98 98 133 133 133 116 116 116 128 128 128 121 121 121 134 134 134 100 100 100 130 130 130 111 111 111 136 136 136 100 100 100 152 152 152 100 100 100 117 117 117 115 115 115 138 138 138 157 157 157 120 120 120 122 122 122 115 115 115 124 124 124 132 132 132 142 142 142 124 124 124 119 119 119 103 103 103 111 111 111 106 106 106 101 101 101 158 158 158 108 108 108 101 101 101 134 134 134 129 129 129 131 131 131 98 98 98 104 104 104 135 135 135 132 132 132 119 119 119 112 112 112 135 135 135 112 112 112 116 116 116 156 156 156 132 132 132 157 157 157 154 154 154 154 154 154 122 122 122 110 110 110 119 119 119 156 156 156 156 156 156 147 147 147 118 118 118 100 100 100 100 100 100 129 129 129 104 104 104 101 101 101 139 139 139 109 109 109 138 138 138 111 111 111 145 145 145 140 140 140 117 117 117 121 121 121 114 114 114 138 138 138 138 138 138 151 151 151 155 155 155 156 156 156 148 148 148 130 130 130 156 156 156 145 145 145 125 125 125 191 191 191 170 170 170 221 221 221 191 191 191 228 228 228 209 209 209 213 213 213 170 170 170 211 211 211 183 183 183 178 178 178 217 217 217 227 227 227 189 189 189 196 196 196 179 179 179 175 175 175 177 177 177 199 199 199 201 201 201 195 195 195 180 180 180 180 180 180 187 187 187 178 178 178 177 177 177 178 178 178 210 210 210 177 177 177 227 227 227 179 179 179 198 198 198 227 227 227 230 230 230 219 219 219 225 225 225 210 210 210 204 204 204 227 227 227 193 193 193 217 217 217 174 174 174 179 179 179 213 213 213 195 195 195 207 207 207 223 223 223 201 201 201 216 216 216 193 193 193 173 173 173 181 181 181 205 205 205 183 183 183 200 200 200 216 216 216 192 192 192 209 209 209 197 197 197 199 199 199 205 205 205 134 134 134 158 158 158 132 132 132 135 135 135 148 148 148 126 126 126 115 115 115 121 121 121 122 122 122 140 140 140 108 108 108 128 128 128 151 151 151 153 153 153 153 153 153 127 127 127 147 147 147 125 125 125 112 112 112 
109 109 109 128 128 128 125 125 125 147 147 147 141 141 141 156 156 156 132 132 132 105 105 105 136 136 136 100 100 100 136 136 136 112 112 112 137 137 137 135 135 135 146 146 146 113 113 113 127 127 127 113 113 113 132 132 132 150 150 150 139 139 139 113 113 113 101 101 101 108 108 108 107 107 107 157 157 157 105 105 105 136 136 136 145 145 145 132 132 132 153 153 153 98 98 98 102 102 102 119 119 119 149 149 149 147 147 147 118 118 118 124 124 124 154 154 154 156 156 156 126 126 126 134 134 134 110 110 110 104 104 104 110 110 110 158 158 158 122 122 122 139 139 139 115 115 115 158 158 158 133 133 133 158 158 158 115 115 115 136 136 136 108 108 108 124 124 124 136 136 136 117 117 117 102 102 102 125 125 125 151 151 151 98 98 98 127 127 127 157 157 157 121 121 121 117 117 117 146 146 146 142 142 142 145 145 145 143 143 143 139 139 139 112 112 112 118 118 118 153 153 153 121 121 121 133 133 133 153 153 153 147 147 147 115 115 115 111 111 111 146 146 146 150 150 150 110 110 110 102 102 102 130 130 130 122 122 122 129 129 129 107 107 107 141 141 141 135 135 135 136 136 136 134 134 134 135 135 135 104 104 104 134 134 134 158 158 158 125 125 125 121 121 121 143 143 143 111 111 111 108 108 108 124 124 124 126 126 126 128 128 128 118 118 118 151 151 151 104 104 104 114 114 114 139 139 139 122 122 122 127 127 127 126 126 126 113 113 113 142 142 142 133 133 133 145 145 145 105 105 105 103 103 103 157 157 157 149 149 149 214 214 214 206 206 206 198 198 198 192 192 192 215 215 215 173 173 173 193 193 193 181 181 181 199 199 199 178 178 178 197 197 197 209 209 209 206 206 206 225 225 225 180 180 180 228 228 228 219 219 219 187 187 187 184 184 184 199 199 199 211 211 211 215 215 215 227 227 227 228 228 228 198 198 198 203 203 203 215 215 215 208 208 208 210 210 210 215 215 215 198 198 198 193 193 193 192 192 192 228 228 228 215 215 215 176 176 176 170 170 170 180 180 180 190 190 190 201 201 201 188 188 188 217 217 217 179 179 179 224 224 224 213 213 213 192 192 192 221 221 221 201 201 201 209 209 209 176 176 176 230 230 230 191 191 191 224 224 224 228 228 228 188 188 188 193 193 193 203 203 203 174 174 174 170 170 170 182 182 182 221 221 221 128 128 128 134 134 134 111 111 111 125 125 125 120 120 120 119 119 119 128 128 128 130 130 130 141 141 141 98 98 98 150 150 150 127 127 127 110 110 110 145 145 145 111 111 111 134 134 134 136 136 136 142 142 142 114 114 114 
144 144 144 143 143 143 135 135 135 137 137 137 143 143 143 155 155 155 100 100 100 115 115 115 101 101 101 100 100 100 127 127 127 152 152 152 133 133 133 104 104 104 106 106 106 99 99 99 129 129 129 128 128 128 131 131 131 102 102 102 110 110 110 134 134 134 155 155 155 142 142 142 148 148 148 141 141 141 155 155 155 123 123 123 120 120 120 141 141 141 139 139 139 106 106 106 125 125 125 115 115 115 147 147 147 111 111 111 113 113 113 151 151 151 128 128 128 116 116 116 156 156 156 99 99 99 112 112 112 130 130 130 107 107 107 120 120 120 133 133 133 138 138 138 150 150 150 106 106 106 143 143 143 104 104 104 142 142 142 141 141 141 148 148 148 131 131 131 123 123 123 146 146 146 158 158 158 148 148 148 128 128 128 138 138 138 158 158 158 156 156 156 157 157 157 146 146 146 108 108 108 111 111 111 141 141 141 141 141 141 132 132 132 138 138 138 144 144 144 146 146 146 109 109 109 153 153 153 107 107 107 144 144 144 133 133 133 101 101 101 154 154 154 119 119 119 107 107 107 139 139 139 101 101 101 98 98 98 113 113 113 128 128 128 146 146 146 112 112 112 117 117 117 116 116 116 152 152 152 116 116 116 115 115 115 150 150 150 106 106 106 127 127 127 105 105 105 149 149 149 109 109 109 139 139 139 128 128 128 157 157 157 126 126 126 141 141 141 152 152 152 137 137 137 128 128 128 128 128 128 140 140 140 124 124 124 149 149 149 149 149 149 104 104 104 152 152 152 151 151 151 120 120 120 121 121 121 139 139 139 208 208 208 213 213 213 170 170 170 202 202 202 172 172 172 187 187 187 195 195 195 180 180 180 216 216 216 204 204 204 170 170 170 230 230 230 186 186 186 202 202 202 228 228 228 216 216 216 184 184 184 221 221 221 195 195 195 215 215 215 190 190 190 176 176 176 182 182 182 180 180 180 230 230 230 190 190 190 175 175 175 224 224 224 214 214 214 199 199 199 204 204 204 192 192 192 183 183 183 204 204 204 226 226 226 187 187 187 223 223 223 192 192 192 198 198 198 209 209 209 227 227 227 200 200 200 208 208 208 182 182 182 174 174 174 207 207 207 170 170 170 188 188 188 200 200 200 195 195 195 174 174 174 220 220 220 203 203 203 186 186 186 172 172 172 202 202 202 209 209 209 179 179 179 196 196 196 192 192 192 208 208 208 99 99 99 142 142 142 151 151 151 136 136 136 137 137 137 108 108 108 128 128 128 99 99 99 138 138 138 108 108 108 158 158 158 109 109 109 148 148 148 111 111 111 113 113 113 125 125 125 111 111 111 132 132 132 155 155 155 
136 136 136 138 138 138 146 146 146 111 111 111 157 157 157 148 148 148 143 143 143 135 135 135 158 158 158 110 110 110 157 157 157 137 137 137 114 114 114 143 143 143 132 132 132 152 152 152 121 121 121 144 144 144 123 123 123 124 124 124 123 123 123 134 134 134 125 125 125 134 134 134 123 123 123 139 139 139 150 150 150 152 152 152 154 154 154 125 125 125 148 148 148 134 134 134 106 106 106 136 136 136 147 147 147 104 104 104 127 127 127 133 133 133 143 143 143 128 128 128 148 148 148 144 144 144 109 109 109 103 103 103 128 128 128 143 143 143 98 98 98 151 151 151 130 130 130 123 123 123 119 119 119 157 157 157 100 100 100 146 146 146 132 132 132 126 126 126 128 128 128 125 125 125 119 119 119 126 126 126 154 154 154 111 111 111 101 101 101 104 104 104 149 149 149 152 152 152 112 112 112 119 119 119 126 126 126 158 158 158 150 150 150 117 117 117 143 143 143 102 102 102 122 122 122 112 112 112 149 149 149 124 124 124 106 106 106 120 120 120 152 152 152 129 129 129 118 118 118 154 154 154 119 119 119 154 154 154 121 121 121 149 149 149 123 123 123 145 145 145 118 118 118 118 118 118 99 99 99 123 123 123 126 126 126 150 150 150 116 116 116 141 141 141 112 112 112 147 147 147 140 140 140 105 105 105 105 105 105 126 126 126 109 109 109 132 132 132 142 142 142 99 99 99 158 158 158 152 152 152 123 123 123 153 153 153 123 123 123 143 143 143 149 149 149 144 144 144 141 141 141 113 113 113 136 136 136 105 105 105 173 173 173 229 229 229 199 199 199 174 174 174 193 193 193 228 228 228 226 226 226 214 214 214 210 210 210 182 182 182 202 202 202 193 193 193 189 189 189 211 211 211 223 223 223 203 203 203 184 184 184 206 206 206 206 206 206 186 186 186 201 201 201 171 171 171 180 180 180 226 226 226 218 218 218 170 170 170 211 211 211 200 200 200 188 188 188 189 189 189 209 209 209 191 191 191 189 189 189 178 178 178 196 196 196 212 212 212 177 177 177 193 193 193 195 195 195 219 219 219 205 205 205 229 229 229 183 183 183 227 227 227 210 210 210 175 175 175 199 199 199 224 224 224 213 213 213 174 174 174 181 181 181 183 183 183 177 177 177 194 194 194 179 179 179 226 226 226 196 196 196 222 222 222 197 197 197 214 214 214 180 180 180 106 106 106 103 103 103 129 129 129 114 114 114 131 131 131 111 111 111 123 123 123 154 154 154 138 138 138 111 111 111 129 129 129 137 137 137 124 124 124 127 127 127 116 116 116 131 131 131 156 156 156 111 111 111 115 115 115 
101 101 101 125 125 125 130 130 130 109 109 109 149 149 149 141 141 141 106 106 106 114 114 114 133 133 133 135 135 135 100 100 100 145 145 145 143 143 143 105 105 105 116 116 116 100 100 100 138 138 138 131 131 131 125 125 125 135 135 135 110 110 110 140 140 140 107 107 107 151 151 151 107 107 107 136 136 136 110 110 110 142 142 142 135 135 135 126 126 126 98 98 98 139 139 139 153 153 153 131 131 131 152 152 152 145 145 145 115 115 115 101 101 101 102 102 102 150 150 150 138 138 138 104 104 104 139 139 139 123 123 123 113 113 113 157 157 157 127 127 127 155 155 155 131 131 131 155 155 155 132 132 132 143 143 143 138 138 138 141 141 141 138 138 138 148 148 148 121 121 121 150 150 150 133 133 133 158 158 158 117 117 117 134 134 134 140 140 140 113 113 113 108 108 108 133 133 133 99 99 99 125 125 125 138 138 138 104 104 104 119 119 119 118 118 118 112 112 112 99 99 99 145 145 145 128 128 128 99 99 99 113 113 113 126 126 126 132 132 132 111 111 111 99 99 99 116 116 116 152 152 152 145 145 145 156 156 156 143 143 143 109 109 109 150 150 150 117 117 117 108 108 108 108 108 108 155 155 155 153 153 153 124 124 124 106 106 106 129 129 129 127 127 127 134 134 134 109 109 109 133 133 133 157 157 157 129 129 129 150 150 150 158 158 158 117 117 117 119 119 119 98 98 98 132 132 132 147 147 147 134 134 134 148 148 148 151 151 151 154 154 154 141 141 141 139 139 139 154 154 154 127 127 127 150 150 150 145 145 145 220 220 220 173 173 173 229 229 229 217 217 217 228 228 228 194 194 194 225 225 225 199 199 199 226 226 226 202 202 202 212 212 212 202 202 202 200 200 200 184 184 184 193 193 193 201 201 201 203 203 203 216 216 216 203 203 203 178 178 178 205 205 205 178 178 178 228 228 228 199 199 199 174 174 174 212 212 212 181 181 181 230 230 230 180 180 180 172 172 172 218 218 218 172 172 172 177 177 177 216 216 216 219 219 219 175 175 175 182 182 182 215 215 215 206 206 206 177 177 177 189 189 189 189 189 189 209 209 209 219 219 219 203 203 203 174 174 174 192 192 192 177 177 177 220 220 220 225 225 225 185 185 185 196 196 196 173 173 173 183 183 183 227 227 227 179 179 179 227 227 227 177 177 177 180 180 180 177 177 177 179 179 179 156 156 156 109 109 109 117 117 117 143 143 143 158 158 158 124 124 124 155 155 155 144 144 144 99 99 99 103 103 103 102 102 102 120 120 120 145 145 145 154 154 154 153 153 153 149 149 149 115 115 115 99 99 99 140 140 140 
111 111 111 114 114 114 106 106 106 114 114 114 129 129 129 102 102 102 125 125 125 126 126 126 110 110 110 137 137 137 135 135 135 121 121 121 134 134 134 146 146 146 140 140 140 121 121 121 147 147 147 107 107 107 117 117 117 134 134 134 108 108 108 125 125 125 139 139 139 132 132 132 111 111 111 136 136 136 126 126 126 103 103 103 153 153 153 129 129 129 145 145 145 105 105 105 148 148 148 153 153 153 124 124 124 120 120 120 99 99 99 153 153 153 148 148 148 111 111 111 132 132 132 126 126 126 136 136 136 109 109 109 115 115 115 120 120 120 132 132 132 105 105 105 129 129 129 154 154 154 142 142 142 142 142 142 120 120 120 124 124 124 115 115 115 135 135 135 101 101 101 146 146 146 140 140 140 158 158 158 116 116 116 126 126 126 106 106 106 107 107 107 123 123 123 134 134 134 130 130 130 124 124 124 129 129 129 121 121 121 139 139 139 104 104 104 150 150 150 116 116 116 117 117 117 108 108 108 140 140 140 154 154 154 116 116 116 113 113 113 149 149 149 101 101 101 157 157 157 112 112 112 127 127 127 115 115 115 149 149 149 130 130 130 102 102 102 132 132 132 131 131 131 123 123 123 99 99 99 139 139 139 132 132 132 126 126 126 117 117 117 103 103 103 152 152 152 148 148 148 127 127 127 132 132 132 156 156 156 120 120 120 153 153 153 114 114 114 130 130 130 136 136 136 109 109 109 150 150 150 151 151 151 101 101 101 153 153 153 151 151 151 115 115 115 121 121 121 108 108 108 107 107 107 155 155 155 114 114 114 215 215 215 199 199 199 213 213 213 219 219 219 182 182 182 187 187 187 186 186 186 201 201 201 194 194 194 180 180 180 192 192 192 225 225 225 216 216 216 189 189 189 186 186 186 212 212 212 207 207 207 221 221 221 190 190 190 219 219 219 212 212 212 184 184 184 224 224 224 207 207 207 177 177 177 183 183 183 171 171 171 189 189 189 192 192 192 170 170 170 205 205 205 179 179 179 201 201 201 188 188 188 228 228 228 213 213 213 207 207 207 183 183 183 185 185 185 170 170 170 195 195 195 209 209 209 226 226 226 183 183 183 230 230 230 183 183 183 225 225 225 207 207 207 175 175 175 186 186 186 197 197 197 218 218 218 201 201 201 190 190 190 196 196 196 210 210 210 203 203 203 199 199 199 229 229 229 228 228 228 199 199 199 133 133 133 104 104 104 98 98 98 153 153 153 103 103 103 143 143 143 129 129 129 116 116 116 98 98 98 132 132 132 144 144 144 139 139 139 129 129 129 157 157 157 139 139 139 142 142 142 153 153 153 115 115 115 150 150 150 
111 111 111 144 144 144 137 137 137 144 144 144 105 105 105 104 104 104 123 123 123 139 139 139 135 135 135 123 123 123 138 138 138 104 104 104 158 158 158 146 146 146 104 104 104 153 153 153 151 151 151 151 151 151 125 125 125 110 110 110 151 151 151 98 98 98 156 156 156 132 132 132 129 129 129 156 156 156 114 114 114 115 115 115 153 153 153 133 133 133 106 106 106 105 105 105 118 118 118 147 147 147 151 151 151 125 125 125 155 155 155 117 117 117 107 107 107 131 131 131 142 142 142 147 147 147 137 137 137 143 143 143 136 136 136 145 145 145 139 139 139 128 128 128 138 138 138 106 106 106 141 141 141 132 132 132 106 106 106 140 140 140 107 107 107 140 140 140 140 140 140 123 123 123 98 98 98 134 134 134 158 158 158 106 106 106 143 143 143 119 119 119 157 157 157 135 135 135 147 147 147 153 153 153 154 154 154 158 158 158 125 125 125 139 139 139 149 149 149 106 106 106 123 123 123 126 126 126 153 153 153 104 104 104 157 157 157 134 134 134 114 114 114 141 141 141 110 110 110 124 124 124 124 124 124 119 119 119 105 105 105 105 105 105 147 147 147 105 105 105 143 143 143 148 148 148 115 115 115 127 127 127 109 109 109 113 113 113 105 105 105 99 99 99 107 107 107 102 102 102 98 98 98 137 137 137 143 143 143 149 149 149 145 145 145 108 108 108 117 117 117 141 141 141 116 116 116 117 117 117 117 117 117 132 132 132 101 101 101 129 129 129 99 99 99 127 127 127 152 152 152 107 107 107 137 137 137 140 140 140 188 188 188 195 195 195 204 204 204 208 208 208 225 225 225 215 215 215 223 223 223 173 173 173 218 218 218 174 174 174 178 178 178 218 218 218 213 213 213 223 223 223 209 209 209 199 199 199 174 174 174 230 230 230 181 181 181 194 194 194 188 188 188 202 202 202 230 230 230 191 191 191 174 174 174 171 171 171 222 222 222 229 229 229 182 182 182 200 200 200 212 212 212 200 200 200 228 228 228 185 185 185 179 179 179 222 222 222 171 171 171 172 172 172 225 225 225 219 219 219 178 178 178 172 172 172 209 209 209 223 223 223 228 228 228 187 187 187 191 191 191 171 171 171 188 188 188 204 204 204 198 198 198 208 208 208 178 178 178 197 197 197 170 170 170 182 182 182 198 198 198 222 222 222 180 180 180 210 210 210 194 194 194 153 153 153 110 110 110 119 119 119 107 107 107 119 119 119 112 112 112 111 111 111 123 123 123 108 108 108 101 101 101 131 131 131 111 111 111 140 140 140 123 123 123 110 110 110 98 98 98 146 146 146 113 113 113 116 116 116 
122 122 122 141 141 141 154 154 154 132 132 132 108 108 108 154 154 154 144 144 144 136 136 136 148 148 148 157 157 157 118 118 118 111 111 111 151 151 151 130 130 130 134 134 134 101 101 101 151 151 151 148 148 148 114 114 114 116 116 116 158 158 158 118 118 118 151 151 151 112 112 112 99 99 99 118 118 118 126 126 126 100 100 100 107 107 107 142 142 142 120 120 120 131 131 131 124 124 124 118 118 118 104 104 104 136 136 136 113 113 113 153 153 153 116 116 116 104 104 104 151 151 151 136 136 136 117 117 117 145 145 145 107 107 107 155 155 155 148 148 148 99 99 99 146 146 146 106 106 106 119 119 119 146 146 146 126 126 126 114 114 114 101 101 101 129 129 129 134 134 134 132 132 132 133 133 133 143 143 143 115 115 115 158 158 158 118 118 118 143 143 143 117 117 117 126 126 126 121 121 121 132 132 132 122 122 122 139 139 139 141 141 141 114 114 114 118 118 118 99 99 99 100 100 100 127 127 127 98 98 98 153 153 153 130 130 130 146 146 146 100 100 100 152 152 152 135 135 135 130 130 130 109 109 109 141 141 141 100 100 100 145 145 145 114 114 114 138 138 138 131 131 131 131 131 131 137 137 137 153 153 153 117 117 117 156 156 156 123 123 123 142 142 142 131 131 131 147 147 147 124 124 124 113 113 113 103 103 103 144 144 144 117 117 117 107 107 107 112 112 112 119 119 119 101 101 101 145 145 145 106 106 106 105 105 105 140 140 140 146 146 146 137 137 137 151 151 151 128 128 128 142 142 142 139 139 139 144 144 144 195 195 195 185 185 185 190 190 190 175 175 175 180 180 180 209 209 209 174 174 174 205 205 205 195 195 195 207 207 207 193 193 193 221 221 221 225 225 225 200 200 200 207 207 207 185 185 185 212 212 212 223 223 223 206 206 206 217 217 217 211 211 211 216 216 216 225 225 225 192 192 192 203 203 203 205 205 205 186 186 186 174 174 174 188 188 188 229 229 229 220 220 220 213 213 213 184 184 184 181 181 181 218 218 218 194 194 194 223 223 223 224 224 224 170 170 170 187 187 187 201 201 201 193 193 193 177 177 177 197 197 197 226 226 226 214 214 214 214 214 214 207 207 207 207 207 207 191 191 191 195 195 195 187 187 187 176 176 176 189 189 189 212 212 212 212 212 212 225 225 225 230 230 230 216 216 216 184 184 184 170 170 170 136 136 136 158 158 158 112 112 112 149 149 149 147 147 147 138 138 138 141 141 141 141 141 141 138 138 138 158 158 158 113 113 113 102 102 102 105 105 105 142 142 142 99 99 99 151 151 151 125 125 125 138 138 138 129 129 129 
146 146 146 103 103 103 149 149 149 154 154 154 122 122 122 132 132 132 137 137 137 118 118 118 131 131 131 125 125 125 135 135 135 131 131 131 104 104 104 134 134 134 147 147 147 155 155 155 124 124 124 128 128 128 138 138 138 106 106 106 107 107 107 139 139 139 123 123 123 114 114 114 148 148 148 106 106 106 117 117 117 141 141 141 133 133 133 158 158 158 113 113 113 122 122 122 102 102 102 103 103 103 118 118 118 128 128 128 137 137 137 98 98 98 149 149 149 112 112 112 125 125 125 127 127 127 147 147 147 133 133 133 102 102 102 138 138 138 130 130 130 128 128 128 107 107 107 111 111 111 139 139 139 119 119 119 152 152 152 103 103 103 135 135 135 142 142 142 112 112 112 156 156 156 126 126 126 149 149 149 155 155 155 141 141 141 113 113 113 100 100 100 147 147 147 135 135 135 131 131 131 127 127 127 137 137 137 123 123 123 143 143 143 104 104 104 152 152 152 132 132 132 141 141 141 158 158 158 111 111 111 112 112 112 129 129 129 120 120 120 125 125 125 109 109 109 143 143 143 121 121 121 117 117 117 119 119 119 104 104 104 133 133 133 119 119 119 132 132 132 123 123 123 115 115 115 116 116 116 140 140 140 118 118 118 104 104 104 118 118 118 151 151 151 136 136 136 158 158 158 117 117 117 120 120 120 105 105 105 110 110 110 156 156 156 148 148 148 111 111 111 110 110 110 104 104 104 142 142 142 135 135 135 131 131 131 156 156 156 119 119 119 156 156 156 116 116 116 143 143 143 103 103 103 151 151 151 103 103 103 211 211 211 189 189 189 192 192 192 230 230 230 173 173 173 214 214 214 177 177 177 193 193 193 208 208 208 215 215 215 194 194 194 227 227 227 179 179 179 203 203 203 180 180 180 176 176 176 193 193 193 195 195 195 189 189 189 199 199 199 179 179 179 228 228 228 173 173 173 178 178 178 188 188 188 171 171 171 196 196 196 172 172 172 176 176 176 190 190 190 179 179 179 220 220 220 211 211 211 202 202 202 219 219 219 214 214 214 187 187 187 226 226 226 179 179 179 226 226 226 211 211 211 205 205 205 224 224 224 220 220 220 178 178 178 176 176 176 228 228 228 203 203 203 201 201 201 188 188 188 173 173 173 212 212 212 185 185 185 176 176 176 220 220 220 204 204 204 179 179 179 187 187 187 208 208 208 188 188 188 207 207 207 146 146 146 105 105 105 118 118 118 119 119 119 154 154 154 103 103 103 136 136 136 151 151 151 114 114 114 133 133 133 131 131 131 150 150 150 129 129 129 122 122 122 99 99 99 135 135 135 120 120 120 132 132 132 107 107 107 
138 138 138 135 135 135 150 150 150 154 154 154 143 143 143 139 139 139 129 129 129 155 155 155 157 157 157 108 108 108 114 114 114 135 135 135 156 156 156 121 121 121 157 157 157 118 118 118 118 118 118 102 102 102 98 98 98 112 112 112 118 118 118 135 135 135 146 146 146 111 111 111 105 105 105 111 111 111 112 112 112 144 144 144 135 135 135 148 148 148 154 154 154 115 115 115 124 124 124 145 145 145 112 112 112 111 111 111 127 127 127 145 145 145 107 107 107 127 127 127 155 155 155 123 123 123 104 104 104 155 155 155 148 148 148 102 102 102 116 116 116 109 109 109 108 108 108 116 116 116 123 123 123 129 129 129 154 154 154 112 112 112 142 142 142 102 102 102 128 128 128 157 157 157 149 149 149 104 104 104 146 146 146 144 144 144 121 121 121 114 114 114 130 130 130 137 137 137 129 129 129 100 100 100 125 125 125 138 138 138 130 130 130 122 122 122 104 104 104 136 136 136 120 120 120 156 156 156 142 142 142 140 140 140 108 108 108 153 153 153 98 98 98 135 135 135 125 125 125 156 156 156 152 152 152 108 108 108 101 101 101 121 121 121 108 108 108 152 152 152 127 127 127 98 98 98 139 139 139 153 153 153 116 116 116 112 112 112 133 133 133 147 147 147 115 115 115 100 100 100 128 128 128 147 147 147 126 126 126 136 136 136 126 126 126 148 148 148 135 135 135 109 109 109 131 131 131 147 147 147 105 105 105 133 133 133 123 123 123 132 132 132 132 132 132 116 116 116 145 145 145 136 136 136 141 141 141 157 157 157 203 203 203 182 182 182 170 170 170 184 184 184 178 178 178 188 188 188 198 198 198 213 213 213 178 178 178 217 217 217 215 215 215 208 208 208 205 205 205 182 182 182 187 187 187 172 172 172 173 173 173 224 224 224 186 186 186 207 207 207 214 214 214 193 193 193 181 181 181 179 179 179 230 230 230 216 216 216 199 199 199 218 218 218 195 195 195 182 182 182 216 216 216 228 228 228 196 196 196 217 217 217 181 181 181 204 204 204 176 176 176 212 212 212 186 186 186 185 185 185 198 198 198 173 173 173 225 225 225 175 175 175 185 185 185 182 182 182 177 177 177 191 191 191 177 177 177 195 195 195 230 230 230 222 222 222 221 221 221 180 180 180 172 172 172 222 222 222 228 228 228 201 201 201 209 209 209 192 192 192 215 215 215 122 122 122 120 120 120 110 110 110 110 110 110 131 131 131 144 144 144 117 117 117 114 114 114 102 102 102 132 132 132 145 145 145 107 107 107 128 128 128 150 150 150 122 122 122 140 140 140 98 98 98 145 145 145 150 150 150 
124 124 124 144 144 144 143 143 143 114 114 114 157 157 157 145 145 145 105 105 105 156 156 156 117 117 117 146 146 146 120 120 120 104 104 104 111 111 111 142 142 142 116 116 116 124 124 124 116 116 116 104 104 104 143 143 143 133 133 133 108 108 108 118 118 118 119 119 119 117 117 117 148 148 148 112 112 112 143 143 143 132 132 132 112 112 112 132 132 132 125 125 125 140 140 140 119 119 119 111 111 111 156 156 156 117 117 117 99 99 99 104 104 104 117 117 117 118 118 118 154 154 154 139 139 139 126 126 126 107 107 107 124 124 124 145 145 145 133 133 133 142 142 142 153 153 153 119 119 119 118 118 118 104 104 104 141 141 141 141 141 141 123 123 123 130 130 130 155 155 155 109 109 109 105 105 105 109 109 109 145 145 145 134 134 134 151 151 151 106 106 106 147 147 147 151 151 151 127 127 127 148 148 148 98 98 98 146 146 146 110 110 110 155 155 155 128 128 128 138 138 138 105 105 105 154 154 154 126 126 126 140 140 140 138 138 138 120 120 120 102 102 102 158 158 158 126 126 126 145 145 145 141 141 141 153 153 153 116 116 116 137 137 137 106 106 106 126 126 126 150 150 150 153 153 153 101 101 101 145 145 145 102 102 102 151 151 151 137 137 137 132 132 132 142 142 142 139 139 139 119 119 119 154 154 154 137 137 137 152 152 152 136 136 136 144 144 144 147 147 147 103 103 103 125 125 125 126 126 126 128 128 128 131 131 131 128 128 128 156 156 156 117 117 117 112 112 112 153 153 153 138 138 138 151 151 151 100 100 100 177 177 177 217 217 217 229 229 229 182 182 182 203 203 203 175 175 175 176 176 176 183 183 183 209 209 209 221 221 221 224 224 224 171 171 171 216 216 216 205 205 205 225 225 225 195 195 195 190 190 190 214 214 214 201 201 201 220 220 220 183 183 183 170 170 170 192 192 192 213 213 213 230 230 230 212 212 212 227 227 227 226 226 226 191 191 191 222 222 222 230 230 230 200 200 200 210 210 210 170 170 170 214 214 214 182 182 182 175 175 175 221 221 221 197 197 197 214 214 214 211 211 211 192 192 192 217 217 217 198 198 198 227 227 227 212 212 212 226 226 226 187 187 187 197 197 197 196 196 196 176 176 176 210 210 210 198 198 198 200 200 200 195 195 195 199 199 199 181 181 181 193 193 193 195 195 195 204 204 204 184 184 184 124 124 124 103 103 103 154 154 154 124 124 124 148 148 148 105 105 105 129 129 129 140 140 140 134 134 134 112 112 112 122 122 122 157 157 157 101 101 101 152 152 152 153 153 153 143 143 143 147 147 147 109 109 109 111 111 111 
114 114 114 117 117 117 153 153 153 142 142 142 148 148 148 117 117 117 113 113 113 100 100 100 143 143 143 140 140 140 137 137 137 98 98 98 105 105 105 144 144 144 155 155 155 132 132 132 135 135 135 103 103 103 102 102 102 116 116 116 140 140 140 119 119 119 140 140 140 138 138 138 122 122 122 136 136 136 132 132 132 108 108 108 124 124 124 146 146 146 123 123 123 141 141 141 104 104 104 117 117 117 126 126 126 156 156 156 139 139 139 141 141 141 100 100 100 123 123 123 122 122 122 141 141 141 123 123 123 130 130 130 126 126 126 121 121 121 103 103 103 103 103 103 127 127 127 109 109 109 123 123 123 108 108 108 132 132 132 107 107 107 148 148 148 156 156 156 145 145 145 121 121 121 107 107 107 112 112 112 108 108 108 132 132 132 155 155 155 117 117 117 154 154 154 125 125 125 116 116 116 134 134 134 107 107 107 118 118 118 100 100 100 134 134 134 100 100 100 125 125 125 105 105 105 131 131 131 149 149 149 112 112 112 138 138 138 119 119 119 125 125 125 102 102 102 129 129 129 99 99 99 111 111 111 118 118 118 157 157 157 99 99 99 143 143 143 108 108 108 114 114 114 156 156 156 144 144 144 112 112 112 116 116 116 139 139 139 139 139 139 134 134 134 114 114 114 151 151 151 155 155 155 116 116 116 126 126 126 98 98 98 146 146 146 133 133 133 131 131 131 138 138 138 149 149 149 110 110 110 98 98 98 115 115 115 115 115 115 129 129 129 116 116 116 130 130 130 151 151 151 117 117 117 134 134 134 137 137 137 201 201 201 224 224 224 206 206 206 186 186 186 177 177 177 224 224 224 228 228 228 221 221 221 200 200 200 185 185 185 213 213 213 198 198 198 206 206 206 180 180 180 198 198 198 193 193 193 217 217 217 173 173 173 174 174 174 209 209 209 185 185 185 176 176 176 228 228 228 204 204 204 209 209 209 188 188 188 178 178 178 201 201 201 207 207 207 216 216 216 179 179 179 179 179 179 209 209 209 218 218 218 195 195 195 218 218 218 213 213 213 194 194 194 210 210 210 184 184 184 210 210 210 192 192 192 212 212 212 185 185 185 204 204 204 182 182 182 210 210 210 192 192 192 187 187 187 216 216 216 170 170 170 202 202 202 222 222 222 170 170 170 178 178 178 200 200 200 188 188 188 188 188 188 172 172 172 227 227 227 173 173 173 111 111 111 103 103 103 140 140 140 98 98 98 128 128 128 129 129 129 144 144 144 155 155 155 109 109 109 158 158 158 134 134 134 131 131 131 142 142 142 151 151 151 107 107 107 156 156 156 130 130 130 131 131 131 112 112 112 
117 117 117 134 134 134 144 144 144 108 108 108 134 134 134 154 154 154 138 138 138 152 152 152 111 111 111 140 140 140 148 148 148 114 114 114 153 153 153 153 153 153 158 158 158 156 156 156 124 124 124 129 129 129 141 141 141 120 120 120 140 140 140 140 140 140 158 158 158 114 114 114 125 125 125 150 150 150 123 123 123 122 122 122 123 123 123 157 157 157 136 136 136 142 142 142 132 132 132 124 124 124 154 154 154 109 109 109 119 119 119 133 133 133 102 102 102 135 135 135 116 116 116 152 152 152 151 151 151 113 113 113 148 148 148 151 151 151 110 110 110 113 113 113 123 123 123 153 153 153 138 138 138 104 104 104 136 136 136 139 139 139 120 120 120 105 105 105 131 131 131 148 148 148 129 129 129 158 158 158 146 146 146 109 109 109 144 144 144 121 121 121 135 135 135 139 139 139 134 134 134 158 158 158 116 116 116 138 138 138 136 136 136 134 134 134 133 133 133 131 131 131 149 149 149 122 122 122 125 125 125 102 102 102 139 139 139 150 150 150 98 98 98 120 120 120 156 156 156 137 137 137 101 101 101 117 117 117 146 146 146 136 136 136 106 106 106 116 116 116 137 137 137 156 156 156 129 129 129 122 122 122 120 120 120 107 107 107 105 105 105 156 156 156 109 109 109 123 123 123 137 137 137 147 147 147 98 98 98 111 111 111 119 119 119 152 152 152 135 135 135 146 146 146 156 156 156 118 118 118 137 137 137 157 157 157 140 140 140 134 134 134 137 137 137 145 145 145 156 156 156 124 124 124 122 122 122 105 105 105 216 216 216 173 173 173 175 175 175 187 187 187 199 199 199 199 199 199 196 196 196 206 206 206 199 199 199 209 209 209 172 172 172 177 177 177 198 198 198 173 173 173 191 191 191 219 219 219 229 229 229 230 230 230 209 209 209 226 226 226 191 191 191 187 187 187 226 226 226 175 175 175 226 226 226 204 204 204 222 222 222 225 225 225 230 230 230 188 188 188 171 171 171 218 218 218 193 193 193 178 178 178 176 176 176 222 222 222 208 208 208 204 204 204 200 200 200 178 178 178 183 183 183 202 202 202 185 185 185 211 211 211 207 207 207 208 208 208 201 201 201 207 207 207 210 210 210 179 179 179 205 205 205 170 170 170 199 199 199 200 200 200 175 175 175 194 194 194 174 174 174 230 230 230 188 188 188 175 175 175 187 187 187 119 119 119 153 153 153 138 138 138 128 128 128 98 98 98 131 131 131 107 107 107 133 133 133 102 102 102 115 115 115 146 146 146 137 137 137 132 132 132 128 128 128 115 115 115 110 110 110 98 98 98 153 153 153 152 152 152 
110 110 110 127 127 127 152 152 152 139 139 139 157 157 157 99 99 99 104 104 104 102 102 102 100 100 100 124 124 124 108 108 108 117 117 117 145 145 145 104 104 104 98 98 98 116 116 116 105 105 105 133 133 133 125 125 125 140 140 140 138 138 138 142 142 142 127 127 127 116 116 116 116 116 116 98 98 98 135 135 135 130 130 130 98 98 98 129 129 129 123 123 123 110 110 110 99 99 99 118 118 118 151 151 151 98 98 98 121 121 121 98 98 98 102 102 102 123 123 123 124 124 124 114 114 114 144 144 144 113 113 113 121 121 121 144 144 144 131 131 131 130 130 130 121 121 121 98 98 98 111 111 111 100 100 100 144 144 144 142 142 142 120 120 120 103 103 103 142 142 142 157 157 157 137 137 137 144 144 144 130 130 130 103 103 103 157 157 157 131 131 131 124 124 124 151 151 151 133 133 133 147 147 147 152 152 152 140 140 140 114 114 114 119 119 119 158 158 158 99 99 99 134 134 134 122 122 122 148 148 148 109 109 109 154 154 154 110 110 110 109 109 109 106 106 106 114 114 114 157 157 157 152 152 152 138 138 138 102 102 102 137 137 137 138 138 138 143 143 143 123 123 123 111 111 111 149 149 149 121 121 121 145 145 145 114 114 114 115 115 115 119 119 119 104 104 104 110 110 110 102 102 102 122 122 122 132 132 132 102 102 102 126 126 126 109 109 109 126 126 126 115 115 115 120 120 120 122 122 122 129 129 129 133 133 133 132 132 132 147 147 147 132 132 132 128 128 128 126 126 126 138 138 138 106 106 106 105 105 105 194 194 194 203 203 203 191 191 191 186 186 186 228 228 228 179 179 179 204 204 204 187 187 187 202 202 202 213 213 213 199 199 199 207 207 207 176 176 176 174 174 174 213 213 213 204 204 204 186 186 186 180 180 180 223 223 223 210 210 210 206 206 206 193 193 193 185 185 185 182 182 182 181 181 181 221 221 221 212 212 212 211 211 211 202 202 202 220 220 220 221 221 221 228 228 228 195 195 195 183 183 183 184 184 184 194 194 194 192 192 192 218 218 218 213 213 213 226 226 226 200 200 200 182 182 182 204 204 204 209 209 209 188 188 188 186 186 186 182 182 182 206 206 206 199 199 199 175 175 175 186 186 186 174 174 174 200 200 200 203 203 203 186 186 186 214 214 214 195 195 195 228 228 228 194 194 194 227 227 227 220 220 220 112 112 112 152 152 152 114 114 114 127 127 127 107 107 107 140 140 140 151 151 151 156 156 156 123 123 123 147 147 147 127 127 127 137 137 137 122 122 122 105 105 105 155 155 155 139 139 139 120 120 120 131 131 131 107 107 107 
125 125 125 149 149 149 113 113 113 157 157 157 123 123 123 132 132 132 140 140 140 148 148 148 131 131 131 106 106 106 144 144 144 120 120 120 122 122 122 137 137 137 138 138 138 152 152 152 147 147 147 120 120 120 144 144 144 146 146 146 147 147 147 134 134 134 114 114 114 125 125 125 98 98 98 124 124 124 123 123 123 141 141 141 146 146 146 156 156 156 150 150 150 114 114 114 148 148 148 106 106 106 112 112 112 112 112 112 140 140 140 157 157 157 101 101 101 113 113 113 104 104 104 147 147 147 137 137 137 128 128 128 128 128 128 119 119 119 123 123 123 118 118 118 141 141 141 109 109 109 107 107 107 131 131 131 147 147 147 125 125 125 158 158 158 147 147 147 151 151 151 122 122 122 129 129 129 138 138 138 122 122 122 122 122 122 156 156 156 111 111 111 133 133 133 110 110 110 128 128 128 114 114 114 110 110 110 133 133 133 131 131 131 116 116 116 124 124 124 112 112 112 148 148 148 154 154 154 133 133 133 113 113 113 115 115 115 117 117 117 126 126 126 124 124 124 150 150 150 114 114 114 151 151 151 151 151 151 105 105 105 146 146 146 114 114 114 136 136 136 127 127 127 140 140 140 102 102 102 125 125 125 156 156 156 137 137 137 139 139 139 125 125 125 155 155 155 151 151 151 101 101 101 130 130 130 108 108 108 127 127 127 144 144 144 99 99 99 122 122 122 120 120 120 114 114 114 141 141 141 141 141 141 142 142 142 106 106 106 134 134 134 100 100 100 101 101 101 126 126 126 107 107 107 151 151 151 144 144 144 219 219 219 191 191 191 200 200 200 223 223 223 220 220 220 197 197 197 203 203 203 200 200 200 226 226 226 200 200 200 194 194 194 229 229 229 171 171 171 206 206 206 198 198 198 219 219 219 208 208 208 224 224 224 182 182 182 224 224 224 207 207 207 225 225 225 210 210 210 217 217 217 202 202 202 214 214 214 222 222 222 230 230 230 223 223 223 214 214 214 217 217 217 211 211 211 175 175 175 186 186 186 206 206 206 227 227 227 215 215 215 178 178 178 197 197 197 212 212 212 210 210 210 221 221 221 211 211 211 213 213 213 197 197 197 180 180 180 201 201 201 176 176 176 173 173 173 215 215 215 171 171 171 212 212 212 209 209 209 211 211 211 201 201 201 182 182 182 194 194 194 192 192 192 181 181 181 188 188 188 178 178 178 98 98 98 99 99 99 113 113 113 116 116 116 135 135 135 109 109 109 103 103 103 145 145 145 136 136 136 145 145 145 125 125 125 129 129 129 127 127 127 109 109 109 158 158 158 137 137 137 143 143 143 103 103 103 143 143 143 
127 127 127 104 104 104 126 126 126 108 108 108 148 148 148 157 157 157 120 120 120 113 113 113 121 121 121 134 134 134 132 132 132 129 129 129 134 134 134 135 135 135 144 144 144 154 154 154 111 111 111 155 155 155 98 98 98 99 99 99 135 135 135 146 146 146 128 128 128 105 105 105 114 114 114 140 140 140 106 106 106 156 156 156 124 124 124 111 111 111 140 140 140 155 155 155 119 119 119 109 109 109 104 104 104 108 108 108 108 108 108 127 127 127 126 126 126 131 131 131 102 102 102 101 101 101 101 101 101 140 140 140 138 138 138 147 147 147 135 135 135 153 153 153 145 145 145 136 136 136 154 154 154 121 121 121 125 125 125 126 126 126 130 130 130 143 143 143 109 109 109 138 138 138 140 140 140 135 135 135 153 153 153 123 123 123 131 131 131 114 114 114 135 135 135 140 140 140 126 126 126 145 145 145 108 108 108 156 156 156 119 119 119 114 114 114 98 98 98 122 122 122 156 156 156 138 138 138 112 112 112 134 134 134 134 134 134 100 100 100 113 113 113 130 130 130 124 124 124 140 140 140 99 99 99 156 156 156 125 125 125 110 110 110 138 138 138 108 108 108 149 149 149 132 132 132 134 134 134 123 123 123 150 150 150 110 110 110 104 104 104 120 120 120 98 98 98 114 114 114 117 117 117 119 119 119 132 132 132 120 120 120 145 145 145 131 131 131 101 101 101 100 100 100 107 107 107 138 138 138 102 102 102 124 124 124 111 111 111 130 130 130 106 106 106 112 112 112 130 130 130 135 135 135 124 124 124 109 109 109 219 219 219 188 188 188 217 217 217 194 194 194 213 213 213 211 211 211 206 206 206 220 220 220 172 172 172 208 208 208 177 177 177 193 193 193 229 229 229 212 212 212 217 217 217 215 215 215 184 184 184 221 221 221 217 217 217 195 195 195 200 200 200 224 224 224 222 222 222 215 215 215 195 195 195 171 171 171 229 229 229 227 227 227 210 210 210 196 196 196 179 179 179 198 198 198 214 214 214 227 227 227 225 225 225 196 196 196 207 207 207 202 202 202 187 187 187 211 211 211 180 180 180 195 195 195 173 173 173 178 178 178 176 176 176 221 221 221 226 226 226 192 192 192 213 213 213 214 214 214 220 220 220 182 182 182 207 207 207 213 213 213 227 227 227 174 174 174 216 216 216 227 227 227 170 170 170 195 195 195 194 194 194 108 108 108 153 153 153 107 107 107 106 106 106 147 147 147 133 133 133 143 143 143 121 121 121 153 153 153 123 123 123 131 131 131 117 117 117 128 128 128 141 141 141 125 125 125 120 120 120 136 136 136 149 149 149 102 102 102 
122 122 122 138 138 138 116 116 116 98 98 98 120 120 120 114 114 114 102 102 102 105 105 105 110 110 110 105 105 105 132 132 132 136 136 136 117 117 117 129 129 129 145 145 145 125 125 125 117 117 117 122 122 122 109 109 109 142 142 142 116 116 116 136 136 136 114 114 114 135 135 135 105 105 105 99 99 99 103 103 103 130 130 130 139 139 139 154 154 154 134 134 134 102 102 102 134 134 134 153 153 153 103 103 103 158 158 158 110 110 110 109 109 109 107 107 107 125 125 125 116 116 116 143 143 143 102 102 102 137 137 137 113 113 113 150 150 150 103 103 103 135 135 135 115 115 115 116 116 116 118 118 118 133 133 133 154 154 154 137 137 137 111 111 111 103 103 103 138 138 138 116 116 116 135 135 135 118 118 118 111 111 111 112 112 112 125 125 125 149 149 149 108 108 108 130 130 130 151 151 151 121 121 121 143 143 143 99 99 99 148 148 148 103 103 103 144 144 144 154 154 154 142 142 142 99 99 99 147 147 147 148 148 148 136 136 136 103 103 103 105 105 105 158 158 158 140 140 140 103 103 103 136 136 136 153 153 153 108 108 108 117 117 117 112 112 112 147 147 147 140 140 140 126 126 126 102 102 102 106 106 106 118 118 118 113 113 113 140 140 140 110 110 110 138 138 138 124 124 124 111 111 111 129 129 129 131 131 131 99 99 99 124 124 124 115 115 115 102 102 102 113 113 113 106 106 106 142 142 142 120 120 120 115 115 115 141 141 141 102 102 102 122 122 122 121 121 121 98 98 98 132 132 132 140 140 140 113 113 113 194 194 194 195 195 195 215 215 215 199 199 199 203 203 203 174 174 174 216 216 216 184 184 184 187 187 187 195 195 195 213 213 213 202 202 202 228 228 228 187 187 187 205 205 205 193 193 193 204 204 204 209 209 209 210 210 210 214 214 214 192 192 192 174 174 174 173 173 173 177 177 177 178 178 178 197 197 197 200 200 200 180 180 180 173 173 173 183 183 183 195 195 195 197 197 197 209 209 209 181 181 181 228 228 228 183 183 183 186 186 186 215 215 215 198 198 198 205 205 205 181 181 181 182 182 182 176 176 176 178 178 178 199 199 199 212 212 212 202 202 202 175 175 175 192 192 192 183 183 183 221 221 221 217 217 217 187 187 187 224 224 224 224 224 224 197 197 197 191 191 191 195 195 195 210 210 210 194 194 194 210 210 210 102 102 102 151 151 151 118 118 118 116 116 116 151 151 151 132 132 132 132 132 132 135 135 135 101 101 101 106 106 106 147 147 147 113 113 113 114 114 114 157 157 157 144 144 144 158 158 158 128 128 128 149 149 149 120 120 120 
144 144 144 140 140 140 106 106 106 102 102 102 135 135 135 101 101 101 130 130 130 156 156 156 128 128 128 109 109 109 121 121 121 107 107 107 115 115 115 114 114 114 128 128 128 133 133 133 108 108 108 101 101 101 108 108 108 145 145 145 104 104 104 118 118 118 135 135 135 121 121 121 135 135 135 134 134 134 106 106 106 136 136 136 105 105 105 99 99 99 99 99 99 153 153 153 143 143 143 109 109 109 158 158 158 119 119 119 112 112 112 131 131 131 119 119 119 142 142 142 144 144 144 142 142 142 154 154 154 100 100 100 99 99 99 123 123 123 138 138 138 109 109 109 128 128 128 150 150 150 98 98 98 136 136 136 110 110 110 137 137 137 98 98 98 149 149 149 114 114 114 108 108 108 126 126 126 122 122 122 109 109 109 130 130 130 116 116 116 156 156 156 141 141 141 117 117 117 117 117 117 158 158 158 150 150 150 138 138 138 143 143 143 135 135 135 123 123 123 138 138 138 140 140 140 125 125 125 104 104 104 121 121 121 138 138 138 134 134 134 112 112 112 138 138 138 111 111 111 126 126 126 117 117 117 113 113 113 116 116 116 133 133 133 124 124 124 147 147 147 98 98 98 137 137 137 118 118 118 119 119 119 135 135 135 102 102 102 138 138 138 156 156 156 101 101 101 132 132 132 135 135 135 147 147 147 110 110 110 101 101 101 128 128 128 152 152 152 128 128 128 135 135 135 114 114 114 108 108 108 112 112 112 131 131 131 150 150 150 128 128 128 98 98 98 110 110 110 143 143 143 119 119 119 146 146 146 110 110 110 179 179 179 220 220 220 224 224 224 201 201 201 180 180 180 200 200 200 207 207 207 223 223 223 199 199 199 211 211 211 198 198 198 177 177 177 201 201 201 210 210 210 180 180 180 170 170 170 204 204 204 211 211 211 207 207 207 222 222 222 223 223 223 224 224 224 196 196 196 214 214 214 193 193 193 197 197 197 227 227 227 179 179 179 220 220 220 216 216 216 192 192 192 170 170 170 207 207 207 185 185 185 203 203 203 220 220 220 217 217 217 179 179 179 212 212 212 185 185 185 220 220 220 181 181 181 192 192 192 190 190 190 221 221 221 204 204 204 193 193 193 196 196 196 184 184 184 171 171 171 188 188 188 178 178 178 225 225 225 216 216 216 225 225 225 187 187 187 184 184 184 223 223 223 199 199 199 173 173 173 208 208 208 149 149 149 101 101 101 112 112 112 105 105 105 134 134 134 103 103 103 154 154 154 146 146 146 145 145 145 110 110 110 135 135 135 158 158 158 134 134 134 158 158 158 149 149 149 107 107 107 120 120 120 114 114 114 124 124 124 
121 121 121 134 134 134 132 132 132 118 118 118 120 120 120 126 126 126 137 137 137 134 134 134 118 118 118 105 105 105 138 138 138 158 158 158 156 156 156 143 143 143 114 114 114 104 104 104 121 121 121 119 119 119 101 101 101 108 108 108 108 108 108 113 113 113 147 147 147 107 107 107 151 151 151 148 148 148 158 158 158 100 100 100 109 109 109 116 116 116 126 126 126 135 135 135 152 152 152 101 101 101 157 157 157 113 113 113 132 132 132 135 135 135 152 152 152 154 154 154 143 143 143 133 133 133 156 156 156 142 142 142 117 117 117 111 111 111 149 149 149 142 142 142 134 134 134 154 154 154 154 154 154 144 144 144 109 109 109 143 143 143 156 156 156 103 103 103 134 134 134 157 157 157 105 105 105 146 146 146 114 114 114 135 135 135 124 124 124 110 110 110 141 141 141 122 122 122 125 125 125 114 114 114 98 98 98 120 120 120 111 111 111 145 145 145 155 155 155 108 108 108 129 129 129 114 114 114 121 121 121 121 121 121 99 99 99 99 99 99 116 116 116 156 156 156 147 147 147 129 129 129 142 142 142 144 144 144 135 135 135 117 117 117 143 143 143 142 142 142 106 106 106 100 100 100 121 121 121 134 134 134 112 112 112 103 103 103 99 99 99 142 142 142 121 121 121 102 102 102 103 103 103 136 136 136 149 149 149 100 100 100 147 147 147 119 119 119 118 118 118 111 111 111 142 142 142 121 121 121 112 112 112 102 102 102 118 118 118 101 101 101 133 133 133 103 103 103 149 149 149 109 109 109 125 125 125 135 135 135 228 228 228 207 207 207 210 210 210 190 190 190 183 183 183 224 224 224 197 197 197 184 184 184 209 209 209 222 222 222 188 188 188 215 215 215 199 199 199 179 179 179 219 219 219 187 187 187 202 202 202 180 180 180 203 203 203 188 188 188 203 203 203 217 217 217 192 192 192 224 224 224 222 222 222 227 227 227 170 170 170 213 213 213 180 180 180 197 197 197 189 189 189 177 177 177 174 174 174 170 170 170 199 199 199 189 189 189 225 225 225 228 228 228 203 203 203 205 205 205 219 219 219 224 224 224 191 191 191 189 189 189 174 174 174 179 179 179 209 209 209 208 208 208 189 189 189 181 181 181 226 226 226 223 223 223 230 230 230 187 187 187 218 218 218 222 222 222 186 186 186 218 218 218 206 206 206 198 198 198 187 187 187 155 155 155 133 133 133 121 121 121 156 156 156 103 103 103 140 140 140 152 152 152 100 100 100 114 114 114 126 126 126 151 151 151 109 109 109 148 148 148 109 109 109 113 113 113 157 157 157 150 150 150 154 154 154 118 118 118 
100 100 100 149 149 149 110 110 110 102 102 102 108 108 108 99 99 99 154 154 154 126 126 126 149 149 149 131 131 131 154 154 154 105 105 105 127 127 127 130 130 130 130 130 130 124 124 124 135 135 135 113 113 113 117 117 117 139 139 139 130 130 130 146 146 146 131 131 131 141 141 141 137 137 137 144 144 144 98 98 98 135 135 135 136 136 136 154 154 154 157 157 157 140 140 140 146 146 146 108 108 108 144 144 144 156 156 156 111 111 111 141 141 141 125 125 125 102 102 102 113 113 113 120 120 120 111 111 111 143 143 143 152 152 152 144 144 144 110 110 110 130 130 130 98 98 98 130 130 130 110 110 110 132 132 132 119 119 119 145 145 145 117 117 117 158 158 158 133 133 133 117 117 117 136 136 136 112 112 112 114 114 114 135 135 135 154 154 154 101 101 101 147 147 147 142 142 142 101 101 101 100 100 100 124 124 124 128 128 128 104 104 104 142 142 142 153 153 153 119 119 119 128 128 128 146 146 146 104 104 104 140 140 140 120 120 120 107 107 107 113 113 113 132 132 132 141 141 141 134 134 134 119 119 119 99 99 99 135 135 135 156 156 156 120 120 120 113 113 113 109 109 109 136 136 136 152 152 152 104 104 104 142 142 142 140 140 140 150 150 150 147 147 147 144 144 144 118 118 118 116 116 116 152 152 152 101 101 101 110 110 110 113 113 113 133 133 133 100 100 100 119 119 119 114 114 114 122 122 122 128 128 128 130 130 130 158 158 158 113 113 113 107 107 107 120 120 120 114 114 114 145 145 145 117 117 117 137 137 137 173 173 173 200 200 200 188 188 188 227 227 227 209 209 209 171 171 171 210 210 210 200 200 200 220 220 220 196 196 196 220 220 220 180 180 180 189 189 189 225 225 225 194 194 194 204 204 204 199 199 199 198 198 198 228 228 228 216 216 216 224 224 224 199 199 199 189 189 189 224 224 224 214 214 214 200 200 200 187 187 187 170 170 170 188 188 188 207 207 207 211 211 211 191 191 191 176 176 176 229 229 229 189 189 189 217 217 217 172 172 172 230 230 230 187 187 187 224 224 224 197 197 197 178 178 178 173 173 173 218 218 218 173 173 173 200 200 200 194 194 194 202 202 202 230 230 230 191 191 191 189 189 189 224 224 224 220 220 220 210 210 210 219 219 219 206 206 206 180 180 180 175 175 175 206 206 206 200 200 200 212 212 212 116 116 116 152 152 152 149 149 149 114 114 114 110 110 110 135 135 135 118 118 118 111 111 111 154 154 154 112 112 112 138 138 138 102 102 102 117 117 117 128 128 128 105 105 105 149 149 149 152 152 152 139 139 139 149 149 149 
112 112 112 100 100 100 142 142 142 103 103 103 140 140 140 130 130 130 141 141 141 152 152 152 135 135 135 116 116 116 122 122 122 117 117 117 136 136 136 115 115 115 109 109 109 155 155 155 129 129 129 146 146 146 114 114 114 143 143 143 142 142 142 128 128 128 124 124 124 146 146 146 150 150 150 156 156 156 155 155 155 140 140 140 149 149 149 137 137 137 130 130 130 104 104 104 139 139 139 113 113 113 112 112 112 123 123 123 147 147 147 155 155 155 116 116 116 124 124 124 115 115 115 142 142 142 145 145 145 153 153 153 100 100 100 156 156 156 149 149 149 132 132 132 145 145 145 105 105 105 118 118 118 128 128 128 137 137 137 146 146 146 117 117 117 128 128 128 144 144 144 115 115 115 110 110 110 134 134 134 155 155 155 144 144 144 143 143 143 137 137 137 99 99 99 157 157 157 101 101 101 150 150 150 153 153 153 122 122 122 115 115 115 109 109 109 105 105 105 103 103 103 104 104 104 108 108 108 100 100 100 157 157 157 144 144 144 150 150 150 103 103 103 105 105 105 119 119 119 145 145 145 153 153 153 141 141 141 114 114 114 138 138 138 99 99 99 128 128 128 116 116 116 158 158 158 116 116 116 100 100 100 137 137 137 119 119 119 98 98 98 142 142 142 110 110 110 155 155 155 105 105 105 128 128 128 106 106 106 115 115 115 135 135 135 114 114 114 125 125 125 138 138 138 112 112 112 112 112 112 131 131 131 120 120 120 119 119 119 152 152 152 106 106 106 113 113 113 136 136 136 124 124 124 156 156 156 138 138 138 229 229 229 187 187 187 209 209 209 186 186 186 191 191 191 189 189 189 207 207 207 193 193 193 173 173 173 219 219 219 189 189 189 182 182 182 190 190 190 199 199 199 199 199 199 228 228 228 215 215 215 228 228 228 209 209 209 230 230 230 181 181 181 181 181 181 193 193 193 202 202 202 176 176 176 201 201 201 220 220 220 217 217 217 227 227 227 219 219 219 198 198 198 227 227 227 177 177 177 176 176 176 182 182 182 198 198 198 198 198 198 221 221 221 221 221 221 201 201 201 212 212 212 181 181 181 215 215 215 171 171 171 211 211 211 184 184 184 170 170 170 197 197 197 181 181 181 211 211 211 196 196 196 193 193 193 224 224 224 221 221 221 227 227 227 170 170 170 191 191 191 218 218 218 219 219 219 190 190 190 206 206 206 114 114 114 114 114 114 141 141 141 122 122 122 129 129 129 110 110 110 150 150 150 119 119 119 100 100 100 122 122 122 100 100 100 114 114 114 107 107 107 104 104 104 157 157 157 121 121 121 106 106 106 123 123 123 132 132 132 
148 148 148 152 152 152 157 157 157 141 141 141 142 142 142 156 156 156 143 143 143 103 103 103 143 143 143 131 131 131 125 125 125 119 119 119 149 149 149 141 141 141 103 103 103 113 113 113 113 113 113 116 116 116 106 106 106 135 135 135 120 120 120 131 131 131 139 139 139 138 138 138 140 140 140 145 145 145 136 136 136 104 104 104 156 156 156 101 101 101 140 140 140 145 145 145 155 155 155 141 141 141 129 129 129 138 138 138 138 138 138 114 114 114 145 145 145 122 122 122 149 149 149 111 111 111 145 145 145 140 140 140 157 157 157 153 153 153 157 157 157 111 111 111 110 110 110 104 104 104 148 148 148 134 134 134 137 137 137 131 131 131 116 116 116 120 120 120 119 119 119 154 154 154 128 128 128 116 116 116 157 157 157 110 110 110 102 102 102 155 155 155 153 153 153 134 134 134 135 135 135 132 132 132 152 152 152 123 123 123 158 158 158 142 142 142 137 137 137 145 145 145 125 125 125 135 135 135 139 139 139 123 123 123 148 148 148 153 153 153 130 130 130 140 140 140 130 130 130 110 110 110 112 112 112 148 148 148 135 135 135 133 133 133 144 144 144 104 104 104 154 154 154 144 144 144 118 118 118 158 158 158 141 141 141 112 112 112 135 135 135 119 119 119 148 148 148 128 128 128 144 144 144 148 148 148 114 114 114 124 124 124 136 136 136 141 141 141 102 102 102 118 118 118 108 108 108 153 153 153 114 114 114 142 142 142 136 136 136 146 146 146 154 154 154 152 152 152 138 138 138 132 132 132 126 126 126 125 125 125 211 211 211 193 193 193 182 182 182 170 170 170 195 195 195 227 227 227 187 187 187 171 171 171 189 189 189 176 176 176 204 204 204 177 177 177 228 228 228 220 220 220 203 203 203 205 205 205 204 204 204 208 208 208 227 227 227 214 214 214 204 204 204 182 182 182 199 199 199 181 181 181 172 172 172 195 195 195 174 174 174 212 212 212 170 170 170 204 204 204 178 178 178 211 211 211 230 230 230 192 192 192 214 214 214 196 196 196 191 191 191 170 170 170 199 199 199 210 210 210 178 178 178 172 172 172 217 217 217 176 176 176 224 224 224 192 192 192 213 213 213 198 198 198 230 230 230 210 210 210 183 183 183 205 205 205 224 224 224 213 213 213 216 216 216 226 226 226 179 179 179 222 222 222 209 209 209 179 179 179 197 197 197 145 145 145 151 151 151 126 126 126 109 109 109 134 134 134 152 152 152 130 130 130 136 136 136 123 123 123 109 109 109 144 144 144 125 125 125 98 98 98 152 152 152 121 121 121 120 120 120 135 135 135 149 149 149 121 121 121 
116 116 116 103 103 103 156 156 156 111 111 111 146 146 146 143 143 143 107 107 107 157 157 157 136 136 136 146 146 146 108 108 108 104 104 104 135 135 135 100 100 100 133 133 133 146 146 146 138 138 138 128 128 128 119 119 119 117 117 117 153 153 153 130 130 130 102 102 102 122 122 122 132 132 132 98 98 98 145 145 145 154 154 154 135 135 135 137 137 137 118 118 118 155 155 155 142 142 142 117 117 117 107 107 107 132 132 132 101 101 101 118 118 118 132 132 132 141 141 141 108 108 108 142 142 142 148 148 148 145 145 145 146 146 146 122 122 122 134 134 134 125 125 125 154 154 154 155 155 155 146 146 146 149 149 149 128 128 128 151 151 151 112 112 112 104 104 104 151 151 151 100 100 100 101 101 101 129 129 129 139 139 139 122 122 122 127 127 127 122 122 122 141 141 141 138 138 138 158 158 158 147 147 147 100 100 100 132 132 132 129 129 129 110 110 110 115 115 115 120 120 120 98 98 98 103 103 103 146 146 146 136 136 136 132 132 132 142 142 142 132 132 132 120 120 120 134 134 134 103 103 103 114 114 114 150 150 150 109 109 109 108 108 108 152 152 152 115 115 115 141 141 141 132 132 132 139 139 139 109 109 109 156 156 156 123 123 123 151 151 151 158 158 158 111 111 111 153 153 153 131 131 131 145 145 145 106 106 106 148 148 148 108 108 108 106 106 106 155 155 155 157 157 157 144 144 144 131 131 131 142 142 142 119 119 119 155 155 155 117 117 117 127 127 127 110 110 110 108 108 108 140 140 140 122 122 122 101 101 101 229 229 229 176 176 176 209 209 209 211 211 211 189 189 189 208 208 208 176 176 176 181 181 181 207 207 207 191 191 191 176 176 176 179 179 179 177 177 177 184 184 184 171 171 171 188 188 188 195 195 195 230 230 230 188 188 188 182 182 182 202 202 202 171 171 171 204 204 204 198 198 198 192 192 192 174 174 174 212 212 212 202 202 202 216 216 216 175 175 175 207 207 207 217 217 217 183 183 183 185 185 185 197 197 197 202 202 202 223 223 223 203 203 203 214 214 214 200 200 200 225 225 225 222 222 222 211 211 211 173 173 173 177 177 177 212 212 212 193 193 193 204 204 204 212 212 212 213 213 213 217 217 217 185 185 185 214 214 214 192 192 192 214 214 214 175 175 175 196 196 196 197 197 197 209 209 209 183 183 183 205 205 205 113 113 113 99 99 99 146 146 146 130 130 130 127 127 127 118 118 118 123 123 123 101 101 101 103 103 103 155 155 155 156 156 156 157 157 157 135 135 135 101 101 101 105 105 105 119 119 119 126 126 126 140 140 140 100 100 100 
109 109 109 128 128 128 115 115 115 155 155 155 150 150 150 100 100 100 102 102 102 117 117 117 130 130 130 141 141 141 132 132 132 104 104 104 98 98 98 134 134 134 154 154 154 130 130 130 102 102 102 115 115 115 157 157 157 105 105 105 122 122 122 153 153 153 105 105 105 120 120 120 132 132 132 110 110 110 128 128 128 153 153 153 140 140 140 111 111 111 157 157 157 151 151 151 141 141 141 113 113 113 150 150 150 134 134 134 118 118 118 154 154 154 153 153 153 150 150 150 138 138 138 126 126 126 158 158 158 138 138 138 103 103 103 153 153 153 112 112 112 109 109 109 110 110 110 110 110 110 117 117 117 134 134 134 107 107 107 126 126 126 98 98 98 143 143 143 140 140 140 130 130 130 137 137 137 121 121 121 145 145 145 135 135 135 116 116 116 127 127 127 152 152 152 107 107 107 102 102 102 113 113 113 102 102 102 98 98 98 106 106 106 144 144 144 128 128 128 105 105 105 124 124 124 134 134 134 102 102 102 140 140 140 147 147 147 116 116 116 152 152 152 105 105 105 154 154 154 102 102 102 135 135 135 156 156 156 147 147 147 118 118 118 127 127 127 127 127 127 142 142 142 113 113 113 103 103 103 99 99 99 144 144 144 99 99 99 108 108 108 150 150 150 116 116 116 114 114 114 150 150 150 125 125 125 99 99 99 122 122 122 134 134 134 127 127 127 99 99 99 138 138 138 108 108 108 148 148 148 158 158 158 104 104 104 158 158 158 154 154 154 110 110 110 136 136 136 151 151 151 99 99 99 157 157 157 122 122 122 200 200 200 212 212 212 211 211 211 208 208 208 213 213 213 197 197 197 211 211 211 225 225 225 188 188 188 229 229 229 180 180 180 182 182 182 197 197 197 183 183 183 206 206 206 173 173 173 213 213 213 209 209 209 213 213 213 225 225 225 198 198 198 215 215 215 170 170 170 199 199 199 210 210 210 183 183 183 177 177 177 204 204 204 186 186 186 175 175 175 230 230 230 218 218 218 217 217 217 211 211 211 197 197 197 201 201 201 179 179 179 177 177 177 195 195 195 197 197 197 178 178 178 207 207 207 211 211 211 205 205 205 222 222 222 188 188 188 208 208 208 206 206 206 227 227 227 193 193 193 201 201 201 197 197 197 177 177 177 201 201 201 226 226 226 219 219 219 216 216 216 172 172 172 194 194 194 173 173 173 177 177 177 124 124 124 150 150 150 154 154 154 104 104 104 116 116 116 126 126 126 113 113 113 126 126 126 153 153 153 142 142 142 136 136 136 129 129 129 123 123 123 112 112 112 123 123 123 141 141 141 153 153 153 98 98 98 140 140 140 
115 115 115 129 129 129 106 106 106 124 124 124 102 102 102 103 103 103 114 114 114 150 150 150 106 106 106 140 140 140 154 154 154 115 115 115 105 105 105 147 147 147 113 113 113 111 111 111 104 104 104 141 141 141 128 128 128 134 134 134 255 255 255 239 239 239 240 240 240 235 235 235 255 255 255 128 128 128 135 135 135 123 123 123 122 122 122 136 136 136 104 104 104 141 141 141 108 108 108 114 114 114 106 106 106 114 114 114 122 122 122 124 124 124 106 106 106 132 132 132 105 105 105 103 103 103 151 151 151 113 113 113 152 152 152 105 105 105 128 128 128 99 99 99 151 151 151 98 98 98 138 138 138 130 130 130 114 114 114 153 153 153 140 140 140 157 157 157 122 122 122 119 119 119 121 121 121 148 148 148 157 157 157 130 130 130 130 130 130 106 106 106 148 148 148 140 140 140 125 125 125 111 111 111 107 107 107 133 133 133 145 145 145 115 115 115 138 138 138 138 138 138 132 132 132 131 131 131 147 147 147 103 103 103 132 132 132 141 141 141 105 105 105 111 111 111 112 112 112 121 121 121 108 108 108 157 157 157 119 119 119 134 134 134 117 117 117 145 145 145 124 124 124 115 115 115 116 116 116 158 158 158 125 125 125 105 105 105 142 142 142 152 152 152 121 121 121 151 151 151 128 128 128 109 109 109 109 109 109 109 109 109 151 151 151 145 145 145 142 142 142 140 140 140 151 151 151 118 118 118 124 124 124 99 99 99 133 133 133 139 139 139 123 123 123 145 145 145 137 137 137 146 146 146 121 121 121 158 158 158 204 204 204 221 221 221 188 188 188 224 224 224 222 222 222 215 215 215 173 173 173 205 205 205 211 211 211 196 196 196 200 200 200 182 182 182 207 207 207 213 213 213 194 194 194 200 200 200 202 202 202 179 179 179 183 183 183 196 196 196 201 201 201 211 211 211 197 197 197 178 178 178 191 191 191 224 224 224 225 225 225 171 171 171 212 212 212 187 187 187 170 170 170 187 187 187 179 179 179 188 188 188 181 181 181 171 171 171 175 175 175 184 184 184 208 208 208 216 216 216 210 210 210 179 179 179 230 230 230 188 188 188 223 223 223 193 193 193 220 220 220 196 196 196 203 203 203 174 174 174 222 222 222 173 173 173 216 216 216 190 190 190 181 181 181 176 176 176 184 184 184 178 178 178 178 178 178 228 228 228 197 197 197 108 108 108 112 112 112 135 135 135 127 127 127 123 123 123 138 138 138 132 132 132 139 139 139 115 115 115 119 119 119 118 118 118 125 125 125 118 118 118 139 139 139 119 119 119 142 142 142 128 128 128 147 147 147 116 116 116 
135 135 135 138 138 138 121 121 121 120 120 120 99 99 99 135 135 135 128 128 128 113 113 113 143 143 143 138 138 138 110 110 110 109 109 109 149 149 149 127 127 127 148 148 148 119 119 119 152 152 152 127 127 127 153 153 153 135 135 135 145 145 145 115 115 115 155 155 155 113 113 113 135 135 135 255 255 255 255 255 255 247 247 247 236 236 236 251 251 251 255 255 255 255 255 255 232 232 232 105 105 105 109 109 109 106 106 106 142 142 142 141 141 141 124 124 124 128 128 128 121 121 121 138 138 138 139 139 139 113 113 113 106 106 106 131 131 131 134 134 134 102 102 102 99 99 99 130 130 130 139 139 139 148 148 148 147 147 147 137 137 137 104 104 104 125 125 125 116 116 116 142 142 142 150 150 150 129 129 129 109 109 109 131 131 131 116 116 116 116 116 116 140 140 140 129 129 129 127 127 127 123 123 123 111 111 111 155 155 155 153 153 153 136 136 136 134 134 134 136 136 136 151 151 151 145 145 145 108 108 108 128 128 128 149 149 149 111 111 111 101 101 101 131 131 131 103 103 103 152 152 152 109 109 109 109 109 109 119 119 119 129 129 129 156 156 156 112 112 112 99 99 99 106 106 106 147 147 147 119 119 119 127 127 127 129 129 129 150 150 150 158 158 158 154 154 154 105 105 105 154 154 154 151 151 151 143 143 143 131 131 131 128 128 128 136 136 136 117 117 117 140 140 140 107 107 107 109 109 109 155 155 155 111 111 111 142 142 142 99 99 99 104 104 104 156 156 156 113 113 113 127 127 127 128 128 128 110 110 110 213 213 213 202 202 202 192 192 192 204 204 204 225 225 225 223 223 223 174 174 174 219 219 219 222 222 222 171 171 171 226 226 226 217 217 217 224 224 224 210 210 210 190 190 190 195 195 195 189 189 189 209 209 209 178 178 178 201 201 201 223 223 223 177 177 177 214 214 214 206 206 206 178 178 178 222 222 222 203 203 203 195 195 195 193 193 193 173 173 173 209 209 209 177 177 177 207 207 207 171 171 171 211 211 211 203 203 203 224 224 224 217 217 217 191 191 191 218 218 218 219 219 219 186 186 186 204 204 204 214 214 214 229 229 229 226 226 226 181 181 181 189 189 189 207 207 207 189 189 189 220 220 220 199 199 199 198 198 198 205 205 205 176 176 176 209 209 209 197 197 197 212 212 212 173 173 173 220 220 220 215 215 215 141 141 141 155 155 155 121 121 121 144 144 144 138 138 138 154 154 154 139 139 139 124 124 124 117 117 117 126 126 126 112 112 112 135 135 135 102 102 102 157 157 157 133 133 133 158 158 158 109 109 109 155 155 155 136 136 136 
130 130 130 144 144 144 104 104 104 98 98 98 119 119 119 111 111 111 137 137 137 148 148 148 153 153 153 142 142 142 137 137 137 139 139 139 124 124 124 135 135 135 103 103 103 111 111 111 114 114 114 100 100 100 153 153 153 141 141 141 119 119 119 120 120 120 157 157 157 157 157 157 126 126 126 157 157 157 133 133 133 126 126 126 107 107 107 129 129 129 103 103 103 140 140 140 117 117 117 239 239 239 255 255 255 255 255 255 254 254 254 247 247 247 254 254 254 250 250 250 230 230 230 107 107 107 105 105 105 132 132 132 144 144 144 112 112 112 145 145 145 102 102 102 114 114 114 141 141 141 147 147 147 138 138 138 105 105 105 145 145 145 138 138 138 133 133 133 146 146 146 112 112 112 100 100 100 155 155 155 146 146 146 108 108 108 138 138 138 104 104 104 124 124 124 123 123 123 146 146 146 155 155 155 145 145 145 116 116 116 121 121 121 153 153 153 125 125 125 128 128 128 128 128 128 112 112 112 144 144 144 114 114 114 116 116 116 99 99 99 99 99 99 106 106 106 141 141 141 106 106 106 154 154 154 120 120 120 141 141 141 143 143 143 137 137 137 146 146 146 141 141 141 124 124 124 156 156 156 121 121 121 132 132 132 123 123 123 146 146 146 121 121 121 119 119 119 135 135 135 139 139 139 144 144 144 131 131 131 105 105 105 115 115 115 100 100 100 119 119 119 100 100 100 118 118 118 140 140 140 101 101 101 119 119 119 148 148 148 145 145 145 127 127 127 145 145 145 108 108 108 110 110 110 129 129 129 147 147 147 230 230 230 184 184 184 186 186 186 229 229 229 209 209 209 220 220 220 193 193 193 198 198 198 184 184 184 216 216 216 176 176 176 225 225 225 201 201 201 209 209 209 171 171 171 218 218 218 211 211 211 195 195 195 222 222 222 171 171 171 178 178 178 225 225 225 192 192 192 230 230 230 213 213 213 224 224 224 219 219 219 224 224 224 175 175 175 189 189 189 214 214 214 174 174 174 205 205 205 170 170 170 172 172 172 185 185 185 222 222 222 197 197 197 216 216 216 176 176 176 184 184 184 222 222 222 170 170 170 217 217 217 201 201 201 174 174 174 206 206 206 183 183 183 201 201 201 197 197 197 184 184 184 209 209 209 193 193 193 209 209 209 210 210 210 178 178 178 202 202 202 198 198 198 171 171 171 209 209 209 220 220 220 143 143 143 141 141 141 124 124 124 145 145 145 145 145 145 140 140 140 137 137 137 113 113 113 125 125 125 143 143 143 129 129 129 118 118 118 143 143 143 115 115 115 149 149 149 149 149 149 153 153 153 104 104 104 119 119 119 
119 119 119 120 120 120 99 99 99 142 142 142 98 98 98 140 140 140 150 150 150 132 132 132 107 107 107 153 153 153 110 110 110 98 98 98 140 140 140 155 155 155 125 125 125 128 128 128 143 143 143 108 108 108 106 106 106 99 99 99 137 137 137 151 151 151 130 130 130 157 157 157 138 138 138 149 149 149 150 150 150 130 130 130 143 143 143 156 156 156 152 152 152 103 103 103 117 117 117 153 153 153 150 150 150 120 120 120 136 136 136 143 143 143 156 156 156 148 148 148 140 140 140 235 235 235 255 255 255 248 248 248 233 233 233 241 241 241 255 255 255 255 255 255 253 253 253 101 101 101 155 155 155 104 104 104 156 156 156 129 129 129 103 103 103 137 137 137 119 119 119 155 155 155 109 109 109 104 104 104 154 154 154 102 102 102 109 109 109 112 112 112 98 98 98 102 102 102 134 134 134 137 137 137 148 148 148 132 132 132 128 128 128 131 131 131 144 144 144 117 117 117 154 154 154 154 154 154 136 136 136 148 148 148 149 149 149 103 103 103 153 153 153 148 148 148 112 112 112 151 151 151 118 118 118 117 117 117 129 129 129 139 139 139 115 115 115 140 140 140 145 145 145 110 110 110 146 146 146 98 98 98 126 126 126 147 147 147 104 104 104 102 102 102 127 127 127 154 154 154 138 138 138 157 157 157 126 126 126 125 125 125 117 117 117 123 123 123 120 120 120 157 157 157 115 115 115 113 113 113 102 102 102 111 111 111 102 102 102 118 118 118 103 103 103 124 124 124 137 137 137 137 137 137 106 106 106 156 156 156 192 192 192 228 228 228 181 181 181 180 180 180 228 228 228 209 209 209 170 170 170 173 173 173 213 213 213 201 201 201 171 171 171 194 194 194 201 201 201 201 201 201 221 221 221 220 220 220 229 229 229 185 185 185 219 219 219 187 187 187 200 200 200 225 225 225 200 200 200 206 206 206 184 184 184 208 208 208 173 173 173 225 225 225 186 186 186 181 181 181 222 222 222 208 208 208 178 178 178 172 172 172 220 220 220 177 177 177 213 213 213 220 220 220 181 181 181 198 198 198 190 190 190 184 184 184 222 222 222 221 221 221 217 217 217 215 215 215 213 213 213 215 215 215 230 230 230 201 201 201 173 173 173 201 201 201 197 197 197 204 204 204 176 176 176 211 211 211 183 183 183 181 181 181 207 207 207 199 199 199 192 192 192 126 126 126 106 106 106 129 129 129 130 130 130 157 157 157 136 136 136 112 112 112 148 148 148 149 149 149 140 140 140 108 108 108 104 104 104 134 134 134 100 100 100 152 152 152 118 118 118 145 145 145 138 138 138 119 119 119 
117 117 117 142 142 142 150 150 150 144 144 144 117 117 117 158 158 158 126 126 126 132 132 132 108 108 108 102 102 102 100 100 100 132 132 132 132 132 132 110 110 110 102 102 102 105 105 105 108 108 108 143 143 143 122 122 122 98 98 98 133 133 133 105 105 105 110 110 110 140 140 140 141 141 141 114 114 114 135 135 135 102 102 102 101 101 101 116 116 116 123 123 123 120 120 120 101 101 101 116 116 116 108 108 108 120 120 120 117 117 117 136 136 136 154 154 154 129 129 129 143 143 143 158 158 158 103 103 103 116 116 116 110 110 110 107 107 107 124 124 124 122 122 122 154 154 154 255 255 255 251 251 251 255 255 255 255 255 255 255 255 255 239 239 239 255 255 255 255 255 255 151 151 151 146 146 146 158 158 158 108 108 108 113 113 113 119 119 119 112 112 112 131 131 131 129 129 129 136 136 136 153 153 153 109 109 109 134 134 134 123 123 123 154 154 154 135 135 135 128 128 128 113 113 113 149 149 149 140 140 140 141 141 141 113 113 113 135 135 135 132 132 132 139 139 139 107 107 107 131 131 131 119 119 119 123 123 123 112 112 112 115 115 115 115 115 115 101 101 101 114 114 114 126 126 126 116 116 116 137 137 137 142 142 142 150 150 150 110 110 110 119 119 119 144 144 144 121 121 121 157 157 157 110 110 110 118 118 118 134 134 134 141 141 141 133 133 133 124 124 124 122 122 122 116 116 116 139 139 139 98 98 98 150 150 150 122 122 122 110 110 110 124 124 124 143 143 143 135 135 135 140 140 140 99 99 99 153 153 153 216 216 216 189 189 189 194 194 194 173 173 173 228 228 228 177 177 177 227 227 227 179 179 179 200 200 200 214 214 214 204 204 204 199 199 199 227 227 227 224 224 224 176 176 176 209 209 209 199 199 199 202 202 202 174 174 174 219 219 219 185 185 185 176 176 176 212 212 212 209 209 209 188 188 188 178 178 178 195 195 195 226 226 226 220 220 220 198 198 198 222 222 222 207 207 207 217 217 217 185 185 185 211 211 211 216 216 216 194 194 194 209 209 209 226 226 226 226 226 226 193 193 193 199 199 199 194 194 194 191 191 191 193 193 193 200 200 200 171 171 171 224 224 224 174 174 174 175 175 175 214 214 214 189 189 189 181 181 181 195 195 195 230 230 230 202 202 202 205 205 205 194 194 194 197 197 197 195 195 195 224 224 224 116 116 116 99 99 99 140 140 140 133 133 133 142 142 142 125 125 125 157 157 157 121 121 121 120 120 120 152 152 152 146 146 146 152 152 152 118 118 118 106 106 106 116 116 116 150 150 150 107 107 107 111 111 111 156 156 156 
112 112 112 155 155 155 114 114 114 125 125 125 119 119 119 113 113 113 157 157 157 155 155 155 139 139 139 125 125 125 121 121 121 134 134 134 143 143 143 124 124 124 115 115 115 117 117 117 108 108 108 143 143 143 117 117 117 133 133 133 106 106 106 113 113 113 120 120 120 101 101 101 133 133 133 128 128 128 119 119 119 126 126 126 137 137 137 132 132 132 124 124 124 153 153 153 130 130 130 142 142 142 119 119 119 152 152 152 158 158 158 120 120 120 150 150 150 140 140 140 147 147 147 114 114 114 118 118 118 132 132 132 140 140 140 135 135 135 153 153 153 150 150 150 121 121 121 114 114 114 126 126 126 130 130 130 129 129 129 148 148 148 133 133 133 105 105 105 117 117 117 255 255 255 255 255 255 255 255 255 255 255 255 225 225 225 255 255 255 231 231 231 255 255 255 113 113 113 99 99 99 144 144 144 135 135 135 151 151 151 127 127 127 125 125 125 106 106 106 147 147 147 100 100 100 150 150 150 126 126 126 156 156 156 144 144 144 149 149 149 111 111 111 111 111 111 122 122 122 144 144 144 101 101 101 158 158 158 151 151 151 120 120 120 158 158 158 125 125 125 120 120 120 133 133 133 128 128 128 113 113 113 139 139 139 114 114 114 130 130 130 140 140 140 99 99 99 108 108 108 134 134 134 130 130 130 136 136 136 144 144 144 121 121 121 138 138 138 136 136 136 149 149 149 137 137 137 123 123 123 141 141 141 150 150 150 136 136 136 105 105 105 135 135 135 139 139 139 106 106 106 129 129 129 103 103 103 105 105 105 229 229 229 199 199 199 212 212 212 198 198 198 216 216 216 195 195 195 216 216 216 188 188 188 178 178 178 219 219 219 198 198 198 215 215 215 190 190 190 177 177 177 202 202 202 215 215 215 218 218 218 181 181 181 205 205 205 196 196 196 206 206 206 188 188 188 190 190 190 184 184 184 195 195 195 229 229 229 227 227 227 203 203 203 200 200 200 173 173 173 212 212 212 200 200 200 202 202 202 195 195 195 230 230 230 190 190 190 220 220 220 215 215 215 208 208 208 229 229 229 203 203 203 177 177 177 215 215 215 223 223 223 187 187 187 186 186 186 210 210 210 174 174 174 200 200 200 184 184 184 202 202 202 175 175 175 204 204 204 224 224 224 191 191 191 170 170 170 223 223 223 188 188 188 205 205 205 194 194 194 193 193 193 114 114 114 152 152 152 156 156 156 142 142 142 151 151 151 115 115 115 131 131 131 135 135 135 155 155 155 131 131 131 109 109 109 103 103 103 115 115 115 103 103 103 120 120 120 134 134 134 143 143 143 126 126 126 103 103 103 
158 158 158 98 98 98 110 110 110 133 133 133 154 154 154 132 132 132 134 134 134 146 146 146 152 152 152 110 110 110 111 111 111 114 114 114 129 129 129 104 104 104 113 113 113 112 112 112 98 98 98 130 130 130 147 147 147 137 137 137 128 128 128 120 120 120 148 148 148 134 134 134 139 139 139 156 156 156 156 156 156 116 116 116 140 140 140 126 126 126 123 123 123 141 141 141 128 128 128 136 136 136 116 116 116 123 123 123 109 109 109 154 154 154 113 113 113 102 102 102 105 105 105 126 126 126 120 120 120 138 138 138 135 135 135 136 136 136 152 152 152 137 137 137 109 109 109 143 143 143 116 116 116 140 140 140 106 106 106 107 107 107 115 115 115 149 149 149 104 104 104 114 114 114 107 107 107 149 149 149 144 144 144 132 132 132 131 131 131 113 113 113 111 111 111 255 255 255 255 255 255 249 249 249 255 255 255 255 255 255 255 255 255 255 255 255 250 250 250 153 153 153 135 135 135 101 101 101 132 132 132 129 129 129 141 141 141 143 143 143 115 115 115 100 100 100 124 124 124 123 123 123 111 111 111 143 143 143 113 113 113 120 120 120 99 99 99 124 124 124 110 110 110 145 145 145 98 98 98 143 143 143 102 102 102 111 111 111 136 136 136 143 143 143 138 138 138 123 123 123 142 142 142 109 109 109 120 120 120 106 106 106 103 103 103 99 99 99 110 110 110 137 137 137 132 132 132 155 155 155 124 124 124 149 149 149 157 157 157 150 150 150 113 113 113 111 111 111 135 135 135 130 130 130 133 133 133 138 138 138 229 229 229 217 217 217 198 198 198 170 170 170 204 204 204 202 202 202 185 185 185 181 181 181 188 188 188 225 225 225 208 208 208 171 171 171 178 178 178 172 172 172 182 182 182 183 183 183 173 173 173 196 196 196 225 225 225 207 207 207 192 192 192 190 190 190 197 197 197 192 192 192 183 183 183 214 214 214 205 205 205 222 222 222 185 185 185 180 180 180 203 203 203 183 183 183 229 229 229 173 173 173 183 183 183 202 202 202 205 205 205 199 199 199 215 215 215 226 226 226 195 195 195 193 193 193 229 229 229 203 203 203 195 195 195 182 182 182 219 219 219 198 198 198 208 208 208 213 213 213 174 174 174 171 171 171 174 174 174 203 203 203 195 195 195 189 189 189 186 186 186 170 170 170 181 181 181 201 201 201 182 182 182 144 144 144 143 143 143 108 108 108 147 147 147 156 156 156 143 143 143 124 124 124 126 126 126 127 127 127 119 119 119 152 152 152 150 150 150 119 119 119 124 124 124 114 114 114 132 132 132 112 112 112 144 144 144 111 111 111 
157 157 157 148 148 148 115 115 115 102 102 102 120 120 120 140 140 140 122 122 122 136 136 136 140 140 140 135 135 135 109 109 109 154 154 154 120 120 120 154 154 154 104 104 104 109 109 109 153 153 153 151 151 151 135 135 135 123 123 123 119 119 119 158 158 158 116 116 116 111 111 111 118 118 118 144 144 144 129 129 129 154 154 154 100 100 100 115 115 115 107 107 107 98 98 98 106 106 106 124 124 124 103 103 103 131 131 131 105 105 105 129 129 129 110 110 110 150 150 150 105 105 105 121 121 121 145 145 145 127 127 127 118 118 118 153 153 153 138 138 138 115 115 115 145 145 145 114 114 114 140 140 140 108 108 108 113 113 113 99 99 99 123 123 123 136 136 136 145 145 145 154 154 154 131 131 131 149 149 149 112 112 112 142 142 142 150 150 150 123 123 123 107 107 107 157 157 157 158 158 158 117 117 117 127 127 127 109 109 109 110 110 110 134 134 134 135 135 135 255 255 255 229 229 229 255 255 255 255 255 255 255 255 255 240 240 240 255 255 255 229 229 229 157 157 157 152 152 152 120 120 120 158 158 158 116 116 116 158 158 158 147 147 147 114 114 114 132 132 132 137 137 137 130 130 130 116 116 116 130 130 130 155 155 155 127 127 127 128 128 128 154 154 154 148 148 148 98 98 98 107 107 107 99 99 99 134 134 134 144 144 144 100 100 100 141 141 141 142 142 142 156 156 156 127 127 127 99 99 99 139 139 139 133 133 133 158 158 158 135 135 135 155 155 155 99 99 99 153 153 153 156 156 156 150 150 150 110 110 110 202 202 202 202 202 202 215 215 215 222 222 222 176 176 176 213 213 213 190 190 190 206 206 206 211 211 211 180 180 180 209 209 209 220 220 220 183 183 183 184 184 184 207 207 207 185 185 185 229 229 229 192 192 192 182 182 182 199 199 199 195 195 195 226 226 226 174 174 174 195 195 195 204 204 204 170 170 170 198 198 198 198 198 198 229 229 229 191 191 191 213 213 213 202 202 202 225 225 225 199 199 199 193 193 193 170 170 170 181 181 181 213 213 213 209 209 209 224 224 224 225 225 225 187 187 187 215 215 215 178 178 178 203 203 203 193 193 193 195 195 195 202 202 202 216 216 216 210 210 210 170 170 170 180 180 180 205 205 205 174 174 174 207 207 207 178 178 178 177 177 177 176 176 176 208 208 208 175 175 175 199 199 199 120 120 120 137 137 137 122 122 122 149 149 149 99 99 99 122 122 122 102 102 102 144 144 144 102 102 102 156 156 156 139 139 139 119 119 119 143 143 143 149 149 149 155 155 155 105 105 105 113 113 113 126 126 126 153 153 153 
153 153 153 128 128 128 105 105 105 129 129 129 133 133 133 142 142 142 139 139 139 142 142 142 151 151 151 119 119 119 149 149 149 121 121 121 141 141 141 127 127 127 145 145 145 132 132 132 128 128 128 111 111 111 138 138 138 113 113 113 115 115 115 135 135 135 156 156 156 139 139 139 121 121 121 146 146 146 135 135 135 129 129 129 103 103 103 104 104 104 123 123 123 158 158 158 134 134 134 130 130 130 129 129 129 110 110 110 116 116 116 111 111 111 154 154 154 110 110 110 132 132 132 144 144 144 133 133 133 115 115 115 112 112 112 120 120 120 151 151 151 144 144 144 135 135 135 132 132 132 99 99 99 154 154 154 110 110 110 98 98 98 134 134 134 134 134 134 149 149 149 112 112 112 104 104 104 154 154 154 120 120 120 129 129 129 153 153 153 157 157 157 101 101 101 125 125 125 108 108 108 121 121 121 141 141 141 106 106 106 133 133 133 114 114 114 152 152 152 107 107 107 133 133 133 108 108 108 131 131 131 127 127 127 154 154 154 107 107 107 100 100 100 255 255 255 230 230 230 240 240 240 255 255 255 255 255 255 255 255 255 255 255 255 255 255 255 155 155 155 143 143 143 119 119 119 127 127 127 139 139 139 117 117 117 132 132 132 108 108 108 130 130 130 155 155 155 151 151 151 138 138 138 129 129 129 108 108 108 133 133 133 141 141 141 144 144 144 143 143 143 113 113 113 112 112 112 139 139 139 123 123 123 115 115 115 137 137 137 130 130 130 130 130 130 136 136 136 114 114 114 120 120 120 125 125 125 113 113 113 190 190 190 181 181 181 207 207 207 219 219 219 223 223 223 228 228 228 193 193 193 174 174 174 201 201 201 189 189 189 227 227 227 180 180 180 223 223 223 176 176 176 216 216 216 205 205 205 224 224 224 202 202 202 222 222 222 178 178 178 182 182 182 188 188 188 195 195 195 222 222 222 220 220 220 229 229 229 199 199 199 176 176 176 192 192 192 227 227 227 193 193 193 212 212 212 179 179 179 171 171 171 200 200 200 173 173 173 171 171 171 223 223 223 177 177 177 202 202 202 184 184 184 175 175 175 215 215 215 178 178 178 184 184 184 202 202 202 215 215 215 177 177 177 173 173 173 206 206 206 187 187 187 186 186 186 225 225 225 214 214 214 179 179 179 216 216 216 212 212 212 208 208 208 224 224 224 173 173 173 206 206 206 115 115 115 143 143 143 144 144 144 118 118 118 115 115 115 147 147 147 119 119 119 109 109 109 157 157 157 152 152 152 123 123 123 101 101 101 138 138 138 133 133 133 117 117 117 109 109 109 117 117 117 125 125 125 114 114 114 
156 156 156 142 142 142 130 130 130 150 150 150 126 126 126 141 141 141 135 135 135 109 109 109 119 119 119 131 131 131 113 113 113 155 155 155 148 148 148 99 99 99 142 142 142 109 109 109 116 116 116 131 131 131 131 131 131 128 128 128 131 131 131 126 126 126 155 155 155 134 134 134 105 105 105 130 130 130 154 154 154 118 118 118 151 151 151 122 122 122 134 134 134 148 148 148 107 107 107 108 108 108 141 141 141 137 137 137 151 151 151 120 120 120 149 149 149 113 113 113 153 153 153 105 105 105 112 112 112 144 144 144 106 106 106 156 156 156 155 155 155 125 125 125 128 128 128 127 127 127 155 155 155 100 100 100 157 157 157 153 153 153 139 139 139 105 105 105 124 124 124 136 136 136 125 125 125 119 119 119 99 99 99 103 103 103 108 108 108 110 110 110 115 115 115 154 154 154 150 150 150 109 109 109 115 115 115 140 140 140 127 127 127 111 111 111 147 147 147 141 141 141 157 157 157 157 157 157 138 138 138 155 155 155 123 123 123 108 108 108 126 126 126 121 121 121 112 112 112 124 124 124 116 116 116 155 155 155 132 132 132 144 144 144 132 132 132 227 227 227 231 231 231 255 255 255 234 234 234 244 244 244 255 255 255 253 253 253 239 239 239 141 141 141 140 140 140 131 131 131 124 124 124 108 108 108 146 146 146 114 114 114 151 151 151 144 144 144 112 112 112 130 130 130 142 142 142 140 140 140 142 142 142 109 109 109 102 102 102 98 98 98 138 138 138 122 122 122 155 155 155 113 113 113 108 108 108 131 131 131 187 187 187 186 186 186 181 181 181 199 199 199 205 205 205 172 172 172 227 227 227 221 221 221 215 215 215 208 208 208 195 195 195 182 182 182 220 220 220 182 182 182 198 198 198 212 212 212 230 230 230 215 215 215 186 186 186 214 214 214 198 198 198 171 171 171 227 227 227 202 202 202 173 173 173 206 206 206 227 227 227 170 170 170 221 221 221 178 178 178 205 205 205 180 180 180 194 194 194 216 216 216 209 209 209 171 171 171 219 219 219 207 207 207 224 224 224 205 205 205 187 187 187 189 189 189 218 218 218 176 176 176 203 203 203 187 187 187 221 221 221 203 203 203 173 173 173 178 178 178 188 188 188 201 201 201 181 181 181 184 184 184 175 175 175 185 185 185 221 221 221 173 173 173 185 185 185 213 213 213 181 181 181 150 150 150 151 151 151 135 135 135 135 135 135 131 131 131 138 138 138 125 125 125 110 110 110 132 132 132 100 100 100 127 127 127 153 153 153 150 150 150 135 135 135 127 127 127 108 108 108 127 127 127 99 99 99 112 112 112 
137 137 137 117 117 117 145 145 145 149 149 149 132 132 132 150 150 150 103 103 103 124 124 124 153 153 153 120 120 120 106 106 106 105 105 105 111 111 111 99 99 99 143 143 143 150 150 150 134 134 134 122 122 122 117 117 117 146 146 146 158 158 158 121 121 121 116 116 116 154 154 154 112 112 112 156 156 156 123 123 123 124 124 124 124 124 124 126 126 126 138 138 138 103 103 103 146 146 146 127 127 127 156 156 156 121 121 121 118 118 118 100 100 100 147 147 147 115 115 115 122 122 122 155 155 155 122 122 122 137 137 137 158 158 158 108 108 108 128 128 128 136 136 136 135 135 135 147 147 147 123 123 123 136 136 136 109 109 109 142 142 142 132 132 132 125 125 125 139 139 139 98 98 98 152 152 152 106 106 106 126 126 126 133 133 133 113 113 113 113 113 113 101 101 101 110 110 110 138 138 138 124 124 124 114 114 114 126 126 126 143 143 143 138 138 138 125 125 125 108 108 108 116 116 116 124 124 124 119 119 119 149 149 149 101 101 101 158 158 158 137 137 137 129 129 129 135 135 135 151 151 151 114 114 114 110 110 110 119 119 119 157 157 157 110 110 110 114 114 114 104 104 104 139 139 139 150 150 150 122 122 122 156 156 156 155 155 155 134 134 134 255 255 255 249 249 249 255 255 255 230 230 230 233 233 233 255 255 255 255 255 255 244 244 244 153 153 153 98 98 98 140 140 140 143 143 143 103 103 103 139 139 139 123 123 123 136 136 136 117 117 117 117 117 117 152 152 152 130 130 130 139 139 139 150 150 150 142 142 142 227 227 227 170 170 170 196 196 196 220 220 220 194 194 194 196 196 196 217 217 217 230 230 230 173 173 173 180 180 180 224 224 224 180 180 180 191 191 191 200 200 200 215 215 215 212 212 212 196 196 196 217 217 217 195 195 195 180 180 180 224 224 224 177 177 177 207 207 207 202 202 202 196 196 196 227 227 227 197 197 197 228 228 228 207 207 207 189 189 189 214 214 214 205 205 205 189 189 189 181 181 181 195 195 195 213 213 213 207 207 207 183 183 183 214 214 214 210 210 210 193 193 193 210 210 210 223 223 223 216 216 216 181 181 181 209 209 209 197 197 197 207 207 207 195 195 195 224 224 224 219 219 219 190 190 190 170 170 170 195 195 195 224 224 224 199 199 199 191 191 191 191 191 191 196 196 196 230 230 230 212 212 212 109 109 109 135 135 135 98 98 98 121 121 121 99 99 99 143 143 143 158 158 158 112 112 112 128 128 128 140 140 140 137 137 137 109 109 109 132 132 132 123 123 123 120 120 120 112 112 112 152 152 152 98 98 98 137 137 137 
146 146 146 147 147 147 98 98 98 148 148 148 112 112 112 153 153 153 116 116 116 135 135 135 113 113 113 145 145 145 137 137 137 155 155 155 158 158 158 113 113 113 157 157 157 120 120 120 116 116 116 143 143 143 122 122 122 130 130 130 112 112 112 105 105 105 110 110 110 126 126 126 141 141 141 135 135 135 148 148 148 155 155 155 131 131 131 149 149 149 135 135 135 120 120 120 139 139 139 135 135 135 111 111 111 155 155 155 131 131 131 130 130 130 134 134 134 146 146 146 116 116 116 112 112 112 144 144 144 117 117 117 129 129 129 144 144 144 140 140 140 147 147 147 128 128 128 105 105 105 120 120 120 145 145 145 112 112 112 132 132 132 112 112 112 155 155 155 111 111 111 103 103 103 151 151 151 144 144 144 156 156 156 129 129 129 107 107 107 137 137 137 105 105 105 120 120 120 135 135 135 139 139 139 152 152 152 110 110 110 128 128 128 111 111 111 124 124 124 116 116 116 131 131 131 157 157 157 101 101 101 114 114 114 145 145 145 134 134 134 121 121 121 106 106 106 122 122 122 137 137 137 143 143 143 138 138 138 133 133 133 156 156 156 143 143 143 127 127 127 141 141 141 143 143 143 158 158 158 150 150 150 123 123 123 106 106 106 113 113 113 99 99 99 147 147 147 107 107 107 112 112 112 119 119 119 122 122 122 140 140 140 137 137 137 255 255 255 255 255 255 255 255 255 241 241 241 254 254 254 246 246 246 255 255 255 255 255 255 143 143 143 117 117 117 122 122 122 122 122 122 154 154 154 119 119 119 109 109 109 194 194 194 175 175 175 228 228 228 195 195 195 229 229 229 192 192 192 204 204 204 183 183 183 195 195 195 194 194 194 194 194 194 211 211 211 217 217 217 219 219 219 195 195 195 195 195 195 219 219 219 177 177 177 181 181 181 175 175 175 206 206 206 202 202 202 216 216 216 185 185 185 189 189 189 175 175 175 211 211 211 215 215 215 170 170 170 171 171 171 228 228 228 197 197 197 176 176 176 225 225 225 222 222 222 174 174 174 188 188 188 197 197 197 190 190 190 216 216 216 224 224 224 214 214 214 196 196 196 210 210 210 202 202 202 223 223 223 177 177 177 193 193 193 230 230 230 188 188 188 198 198 198 206 206 206 222 222 222 183 183 183 223 223 223 182 182 182 190 190 190 206 206 206 228 228 228 193 193 193 207 207 207 155 155 155 148 148 148 144 144 144 150 150 150 141 141 141 150 150 150 109 109 109 108 108 108 109 109 109 155 155 155 103 103 103 154 154 154 123 123 123 143 143 143 127 127 127 115 115 115 150 150 150 150 150 150 117 117 117 
109 109 109 119 119 119 155 155 155 103 103 103 135 135 135 147 147 147 115 115 115 155 155 155 122 122 122 114 114 114 117 117 117 101 101 101 111 111 111 106 106 106 149 149 149 104 104 104 152 152 152 142 142 142 117 117 117 103 103 103 154 154 154 114 114 114 108 108 108 151 151 151 141 141 141 153 153 153 119 119 119 99 99 99 147 147 147 113 113 113 118 118 118 99 99 99 134 134 134 114 114 114 104 104 104 110 110 110 105 105 105 124 124 124 109 109 109 131 131 131 142 142 142 130 130 130 136 136 136 155 155 155 141 141 141 126 126 126 102 102 102 134 134 134 110 110 110 122 122 122 139 139 139 107 107 107 140 140 140 149 149 149 99 99 99 124 124 124 145 145 145 122 122 122 125 125 125 133 133 133 139 139 139 148 148 148 137 137 137 117 117 117 105 105 105 143 143 143 131 131 131 114 114 114 110 110 110 142 142 142 148 148 148 155 155 155 114 114 114 127 127 127 153 153 153 157 157 157 156 156 156 158 158 158 132 132 132 109 109 109 123 123 123 114 114 114 118 118 118 104 104 104 104 104 104 121 121 121 130 130 130 151 151 151 147 147 147 98 98 98 128 128 128 130 130 130 148 148 148 106 106 106 149 149 149 158 158 158 153 153 153 121 121 121 113 113 113 105 105 105 107 107 107 104 104 104 103 103 103 123 123 123 134 134 134 158 158 158 123 123 123 133 133 133 98 98 98 98 98 98 146 146 146 123 123 123 114 114 114 234 234 234 255 255 255 247 247 247 255 255 255 229 229 229 241 241 241 247 247 247 230 230 230 216 216 216 224 224 224 227 227 227 226 226 226 214 214 214 226 226 226 221 221 221 179 179 179 183 183 183 230 230 230 188 188 188 191 191 191 174 174 174 215 215 215 227 227 227 175 175 175 179 179 179 203 203 203 178 178 178 179 179 179 190 190 190 203 203 203 195 195 195 199 199 199 176 176 176 219 219 219 172 172 172 180 180 180 176 176 176 197 197 197 187 187 187 225 225 225 192 192 192 184 184 184 220 220 220 178 178 178 181 181 181 212 212 212 187 187 187 196 196 196 211 211 211 205 205 205 218 218 218 217 217 217 189 189 189 216 216 216 225 225 225 200 200 200 191 191 191 172 172 172 209 209 209 211 211 211 205 205 205 175 175 175 182 182 182 213 213 213 226 226 226 186 186 186 226 226 226 173 173 173 143 143 143 110 110 110 156 156 156 105 105 105 126 126 126 146 146 146 113 113 113 140 140 140 127 127 127 132 132 132 105 105 105 110 110 110 106 106 106 155 155 155 157 157 157 127 127 127 143 143 143 151 151 151 98 98 98 
103 103 103 155 155 155 139 139 139 146 146 146 130 130 130 146 146 146 158 158 158 114 114 114 141 141 141 116 116 116 109 109 109 144 144 144 102 102 102 122 122 122 144 144 144 109 109 109 152 152 152 131 131 131 126 126 126 135 135 135 101 101 101 99 99 99 145 145 145 115 115 115 109 109 109 141 141 141 116 116 116 140 140 140 125 125 125 110 110 110 140 140 140 130 130 130 107 107 107 120 120 120 118 118 118 139 139 139 107 107 107 119 119 119 157 157 157 152 152 152 139 139 139 108 108 108 140 140 140 144 144 144 134 134 134 125 125 125 157 157 157 127 127 127 99 99 99 125 125 125 106 106 106 104 104 104 128 128 128 153 153 153 122 122 122 140 140 140 135 135 135 142 142 142 123 123 123 104 104 104 154 154 154 105 105 105 136 136 136 102 102 102 129 129 129 158 158 158 145 145 145 141 141 141 121 121 121 144 144 144 136 136 136 101 101 101 154 154 154 119 119 119 149 149 149 129 129 129 148 148 148 148 148 148 99 99 99 149 149 149 116 116 116 107 107 107 158 158 158 146 146 146 103 103 103 123 123 123 129 129 129 141 141 141 106 106 106 157 157 157 147 147 147 101 101 101 105 105 105 126 126 126 106 106 106 136 136 136 128 128 128 155 155 155 120 120 120 151 151 151 140 140 140 98 98 98 156 156 156 137 137 137 119 119 119 149 149 149 109 109 109 109 109 109 140 140 140 111 111 111 101 101 101 99 99 99 122 122 122 102 102 102 149 149 149 128 128 128 127 127 127 120 120 120 112 112 112 135 135 135 192 192 192 229 229 229 255 255 255 254 254 254 255 255 255 255 255 255 233 233 233 228 228 228 255 255 255 201 201 201 228 228 228 201 201 201 203 203 203 228 228 228 179 179 179 226 226 226 218 218 218 191 191 191 176 176 176 201 201 201 206 206 206 182 182 182 202 202 202 171 171 171 186 186 186 192 192 192 203 203 203 218 218 218 216 216 216 217 217 217 194 194 194 177 177 177 221 221 221 176 176 176 206 206 206 195 195 195 229 229 229 215 215 215 200 200 200 218 218 218 187 187 187 198 198 198 188 188 188 220 220 220 195 195 195 199 199 199 215 215 215 184 184 184 222 222 222 224 224 224 215 215 215 197 197 197 177 177 177 186 186 186 201 201 201 193 193 193 208 208 208 173 173 173 182 182 182 194 194 194 221 221 221 135 135 135 129 129 129 141 141 141 143 143 143 107 107 107 107 107 107 142 142 142 154 154 154 138 138 138 129 129 129 110 110 110 105 105 105 149 149 149 99 99 99 130 130 130 119 119 119 144 144 144 144 144 144 111 111 111 
139 139 139 130 130 130 140 140 140 146 146 146 146 146 146 110 110 110 111 111 111 123 123 123 116 116 116 123 123 123 149 149 149 108 108 108 99 99 99 122 122 122 151 151 151 147 147 147 131 131 131 100 100 100 130 130 130 126 126 126 142 142 142 102 102 102 138 138 138 149 149 149 155 155 155 141 141 141 122 122 122 115 115 115 128 128 128 109 109 109 130 130 130 109 109 109 141 141 141 112 112 112 157 157 157 128 128 128 126 126 126 109 109 109 155 155 155 146 146 146 135 135 135 146 146 146 156 156 156 138 138 138 111 111 111 149 149 149 126 126 126 144 144 144 153 153 153 99 99 99 113 113 113 136 136 136 105 105 105 155 155 155 128 128 128 103 103 103 137 137 137 152 152 152 121 121 121 106 106 106 104 104 104 155 155 155 119 119 119 147 147 147 110 110 110 118 118 118 118 118 118 141 141 141 131 131 131 114 114 114 128 128 128 109 109 109 103 103 103 126 126 126 150 150 150 116 116 116 118 118 118 119 119 119 103 103 103 112 112 112 123 123 123 120 120 120 152 152 152 130 130 130 116 116 116 123 123 123 136 136 136 157 157 157 116 116 116 100 100 100 107 107 107 122 122 122 157 157 157 128 128 128 112 112 112 111 111 111 148 148 148 132 132 132 154 154 154 121 121 121 148 148 148 123 123 123 132 132 132 154 154 154 153 153 153 125 125 125 113 113 113 112 112 112 149 149 149 119 119 119 128 128 128 113 113 113 141 141 141 123 123 123 147 147 147 101 101 101 148 148 148 126 126 126 99 99 99 105 105 105 200 200 200 180 180 180 203 203 203 201 201 201 211 211 211 217 217 217 214 214 214 202 202 202 190 190 190 255 255 255 255 255 255 237 237 237 232 232 232 255 255 255 234 234 234 227 227 227 255 255 255 194 194 194 186 186 186 220 220 220 217 217 217 217 217 217 176 176 176 200 200 200 183 183 183 226 226 226 205 205 205 173 173 173 193 193 193 208 208 208 180 180 180 226 226 226 219 219 219 216 216 216 198 198 198 201 201 201 204 204 204 183 183 183 174 174 174 225 225 225 224 224 224 171 171 171 176 176 176 170 170 170 204 204 204 185 185 185 172 172 172 205 205 205 211 211 211 191 191 191 197 197 197 198 198 198 179 179 179 203 203 203 230 230 230 192 192 192 200 200 200 204 204 204 195 195 195 224 224 224 181 181 181 136 136 136 149 149 149 99 99 99 121 121 121 116 116 116 132 132 132 155 155 155 129 129 129 137 137 137 151 151 151 124 124 124 140 140 140 98 98 98 126 126 126 113 113 113 115 115 115 129 129 129 150 150 150 157 157 157 
152 152 152 116 116 116 124 124 124 100 100 100 150 150 150 125 125 125 122 122 122 121 121 121 100 100 100 150 150 150 114 114 114 113 113 113 127 127 127 106 106 106 115 115 115 152 152 152 126 126 126 151 151 151 150 150 150 157 157 157 131 131 131 143 143 143 124 124 124 112 112 112 145 145 145 153 153 153 129 129 129 102 102 102 125 125 125 121 121 121 100 100 100 118 118 118 141 141 141 128 128 128 122 122 122 134 134 134 157 157 157 146 146 146 158 158 158 98 98 98 139 139 139 115 115 115 113 113 113 107 107 107 124 124 124 132 132 132 102 102 102 152 152 152 125 125 125 155 155 155 153 153 153 99 99 99 141 141 141 118 118 118 114 114 114 127 127 127 114 114 114 147 147 147 131 131 131 141 141 141 109 109 109 135 135 135 102 102 102 155 155 155 106 106 106 126 126 126 130 130 130 104 104 104 116 116 116 129 129 129 106 106 106 157 157 157 147 147 147 122 122 122 108 108 108 112 112 112 158 158 158 112 112 112 107 107 107 126 126 126 108 108 108 101 101 101 128 128 128 151 151 151 124 124 124 144 144 144 122 122 122 140 140 140 134 134 134 155 155 155 123 123 123 148 148 148 134 134 134 129 129 129 144 144 144 142 142 142 158 158 158 115 115 115 151 151 151 115 115 115 147 147 147 98 98 98 113 113 113 135 135 135 124 124 124 123 123 123 151 151 151 124 124 124 140 140 140 99 99 99 154 154 154 152 152 152 105 105 105 123 123 123 145 145 145 133 133 133 110 110 110 110 110 110 114 114 114 147 147 147 180 180 180 213 213 213 208 208 208 216 216 216 184 184 184 193 193 193 202 202 202 183 183 183 210 210 210 194 194 194 202 202 202 198 198 198 196 196 196 219 219 219 176 176 176 225 225 225 186 186 186 255 255 255 247 247 247 255 255 255 227 227 227 242 242 242 255 255 255 236 236 236 255 255 255 209 209 209 216 216 216 225 225 225 221 221 221 171 171 171 215 215 215 171 171 171 217 217 217 192 192 192 219 219 219 172 172 172 215 215 215 190 190 190 185 185 185 197 197 197 216 216 216 219 219 219 225 225 225 184 184 184 207 207 207 173 173 173 178 178 178 223 223 223 173 173 173 200 200 200 222 222 222 175 175 175 219 219 219 213 213 213 188 188 188 201 201 201 193 193 193 173 173 173 198 198 198 186 186 186 177 177 177 110 110 110 115 115 115 152 152 152 133 133 133 105 105 105 154 154 154 119 119 119 128 128 128 110 110 110 146 146 146 113 113 113 100 100 100 143 143 143 129 129 129 137 137 137 146 146 146 137 137 137 132 132 132 149 149 149 
108 108 108 125 125 125 157 157 157 158 158 158 107 107 107 114 114 114 130 130 130 133 133 133 120 120 120 158 158 158 149 149 149 127 127 127 110 110 110 107 107 107 122 122 122 147 147 147 114 114 114 119 119 119 107 107 107 144 144 144 133 133 133 158 158 158 101 101 101 135 135 135 142 142 142 132 132 132 115 115 115 131 131 131 113 113 113 149 149 149 123 123 123 125 125 125 116 116 116 121 121 121 126 126 126 127 127 127 140 140 140 98 98 98 101 101 101 103 103 103 99 99 99 154 154 154 132 132 132 111 111 111 102 102 102 158 158 158 101 101 101 119 119 119 118 118 118 111 111 111 106 106 106 153 153 153 110 110 110 109 109 109 129 129 129 156 156 156 146 146 146 146 146 146 128 128 128 102 102 102 139 139 139 153 153 153 129 129 129 98 98 98 118 118 118 158 158 158 129 129 129 101 101 101 99 99 99 133 133 133 106 106 106 100 100 100 130 130 130 142 142 142 116 116 116 135 135 135 141 141 141 119 119 119 158 158 158 100 100 100 134 134 134 105 105 105 157 157 157 148 148 148 119 119 119 127 127 127 145 145 145 108 108 108 116 116 116 116 116 116 112 112 112 98 98 98 113 113 113 145 145 145 98 98 98 133 133 133 144 144 144 130 130 130 136 136 136 147 147 147 106 106 106 144 144 144 152 152 152 138 138 138 127 127 127 109 109 109 116 116 116 111 111 111 132 132 132 115 115 115 113 113 113 110 110 110 125 125 125 113 113 113 99 99 99 146 146 146 144 144 144 149 149 149 158 158 158 101 101 101 180 180 180 183 183 183 176 176 176 195 195 195 230 230 230 178 178 178 230 230 230 218 218 218 212 212 212 209 209 209 208 208 208 220 220 220 196 196 196 201 201 201 202 202 202 225 225 225 212 212 212 222 222 222 179 179 179 188 188 188 179 179 179 196 196 196 200 200 200 208 208 208 211 211 211 255 255 255 252 252 252 251 251 251 248 248 248 251 251 251 255 255 255 255 255 255 255 255 255 208 208 208 229 229 229 210 210 210 216 216 216 170 170 170 199 199 199 200 200 200 209 209 209 177 177 177 191 191 191 177 177 177 208 208 208 225 225 225 173 173 173 192 192 192 217 217 217 183 183 183 210 210 210 228 228 228 209 209 209 179 179 179 205 205 205 190 190 190 212 212 212 171 171 171 218 218 218 177 177 177 197 197 197 117 117 117 139 139 139 105 105 105 157 157 157 139 139 139 145 145 145 145 145 145 141 141 141 116 116 116 114 114 114 122 122 122 123 123 123 135 135 135 129 129 129 102 102 102 130 130 130 132 132 132 126 126 126 116 116 116 
145 145 145 105 105 105 113 113 113 126 126 126 116 116 116 150 150 150 146 146 146 100 100 100 151 151 151 133 133 133 107 107 107 119 119 119 155 155 155 150 150 150 126 126 126 153 153 153 132 132 132 114 114 114 139 139 139 117 117 117 132 132 132 155 155 155 141 141 141 98 98 98 134 134 134 113 113 113 103 103 103 105 105 105 149 149 149 131 131 131 125 125 125 138 138 138 141 141 141 140 140 140 105 105 105 100 100 100 133 133 133 155 155 155 102 102 102 125 125 125 131 131 131 113 113 113 146 146 146 127 127 127 104 104 104 115 115 115 122 122 122 141 141 141 131 131 131 104 104 104 99 99 99 107 107 107 103 103 103 144 144 144 107 107 107 139 139 139 100 100 100 114 114 114 146 146 146 151 151 151 148 148 148 112 112 112 132 132 132 132 132 132 156 156 156 139 139 139 134 134 134 130 130 130 137 137 137 141 141 141 98 98 98 110 110 110 156 156 156 148 148 148 139 139 139 104 104 104 104 104 104 102 102 102 149 149 149 137 137 137 111 111 111 152 152 152 148 148 148 116 116 116 137 137 137 158 158 158 157 157 157 141 141 141 113 113 113 144 144 144 135 135 135 104 104 104 99 99 99 109 109 109 140 140 140 157 157 157 152 152 152 118 118 118 130 130 130 131 131 131 100 100 100 130 130 130 143 143 143 99 99 99 119 119 119 123 123 123 107 107 107 127 127 127 130 130 130 158 158 158 107 107 107 143 143 143 151 151 151 158 158 158 102 102 102 131 131 131 157 157 157 100 100 100 113 113 113 113 113 113 220 220 220 225 225 225 192 192 192 221 221 221 175 175 175 173 173 173 221 221 221 229 229 229 195 195 195 192 192 192 203 203 203 197 197 197 226 226 226 187 187 187 201 201 201 186 186 186 215 215 215 210 210 210 215 215 215 186 186 186 210 210 210 224 224 224 172 172 172 204 204 204 225 225 225 176 176 176 177 177 177 223 223 223 178 178 178 194 194 194 178 178 178 230 230 230 188 188 188 255 255 255 255 255 255 250 250 250 255 255 255 255 255 255 251 251 251 227 227 227 228 228 228 229 229 229 201 201 201 170 170 170 186 186 186 171 171 171 188 188 188 170 170 170 212 212 212 172 172 172 188 188 188 193 193 193 228 228 228 192 192 192 227 227 227 225 225 225 198 198 198 175 175 175 217 217 217 208 208 208 202 202 202 155 155 155 135 135 135 150 150 150 128 128 128 126 126 126 115 115 115 107 107 107 107 107 107 141 141 141 109 109 109 112 112 112 141 141 141 142 142 142 114 114 114 157 157 157 144 144 144 132 132 132 98 98 98 127 127 127 
136 136 136 118 118 118 152 152 152 135 135 135 140 140 140 150 150 150 129 129 129 107 107 107 156 156 156 118 118 118 147 147 147 129 129 129 114 114 114 125 125 125 120 120 120 147 147 147 153 153 153 139 139 139 156 156 156 103 103 103 123 123 123 108 108 108 119 119 119 106 106 106 152 152 152 135 135 135 104 104 104 137 137 137 108 108 108 107 107 107 107 107 107 146 146 146 127 127 127 100 100 100 123 123 123 109 109 109 153 153 153 154 154 154 120 120 120 152 152 152 113 113 113 109 109 109 122 122 122 132 132 132 138 138 138 146 146 146 120 120 120 135 135 135 127 127 127 119 119 119 140 140 140 152 152 152 129 129 129 103 103 103 99 99 99 122 122 122 142 142 142 108 108 108 103 103 103 153 153 153 119 119 119 112 112 112 142 142 142 148 148 148 117 117 117 108 108 108 100 100 100 111 111 111 106 106 106 123 123 123 106 106 106 123 123 123 136 136 136 130 130 130 98 98 98 115 115 115 119 119 119 122 122 122 154 154 154 148 148 148 143 143 143 136 136 136 144 144 144 113 113 113 143 143 143 147 147 147 140 140 140 126 126 126 98 98 98 145 145 145 122 122 122 119 119 119 100 100 100 108 108 108 111 111 111 119 119 119 118 118 118 113 113 113 132 132 132 128 128 128 140 140 140 140 140 140 154 154 154 119 119 119 113 113 113 154 154 154 139 139 139 135 135 135 120 120 120 134 134 134 126 126 126 104 104 104 113 113 113 113 113 113 122 122 122 158 158 158 104 104 104 103 103 103 128 128 128 104 104 104 222 222 222 226 226 226 200 200 200 224 224 224 175 175 175 213 213 213 187 187 187 198 198 198 230 230 230 221 221 221 228 228 228 214 214 214 205 205 205 225 225 225 174 174 174 222 222 222 223 223 223 217 217 217 200 200 200 184 184 184 193 193 193 170 170 170 192 192 192 210 210 210 185 185 185 216 216 216 212 212 212 191 191 191 221 221 221 181 181 181 200 200 200 214 214 214 176 176 176 171 171 171 210 210 210 184 184 184 214 214 214 227 227 227 214 214 214 215 215 215 219 219 219 255 255 255 255 255 255 250 250 250 255 255 255 255 255 255 242 242 242 255 255 255 248 248 248 217 217 217 218 218 218 218 218 218 217 217 217 179 179 179 198 198 198 174 174 174 226 226 226 179 179 179 197 197 197 218 218 218 190 190 190 155 155 155 132 132 132 126 126 126 156 156 156 111 111 111 142 142 142 141 141 141 109 109 109 125 125 125 128 128 128 99 99 99 108 108 108 158 158 158 125 125 125 148 148 148 134 134 134 144 144 144 119 119 119 158 158 158 
130 130 130 106 106 106 145 145 145 119 119 119 117 117 117 112 112 112 125 125 125 114 114 114 123 123 123 152 152 152 102 102 102 145 145 145 151 151 151 136 136 136 115 115 115 150 150 150 151 151 151 98 98 98 135 135 135 103 103 103 126 126 126 104 104 104 104 104 104 138 138 138 105 105 105 131 131 131 127 127 127 142 142 142 116 116 116 150 150 150 143 143 143 151 151 151 99 99 99 131 131 131 113 113 113 118 118 118 148 148 148 140 140 140 135 135 135 112 112 112 135 135 135 141 141 141 99 99 99 127 127 127 120 120 120 116 116 116 121 121 121 112 112 112 118 118 118 158 158 158 117 117 117 146 146 146 105 105 105 125 125 125 127 127 127 112 112 112 98 98 98 156 156 156 158 158 158 118 118 118 149 149 149 142 142 142 110 110 110 150 150 150 115 115 115 125 125 125 112 112 112 106 106 106 108 108 108 149 149 149 120 120 120 146 146 146 133 133 133 123 123 123 116 116 116 155 155 155 141 141 141 139 139 139 110 110 110 101 101 101 140 140 140 131 131 131 151 151 151 149 149 149 158 158 158 120 120 120 105 105 105 158 158 158 119 119 119 104 104 104 118 118 118 112 112 112 151 151 151 132 132 132 103 103 103 109 109 109 99 99 99 117 117 117 117 117 117 111 111 111 109 109 109 139 139 139 98 98 98 144 144 144 104 104 104 117 117 117 140 140 140 149 149 149 99 99 99 154 154 154 154 154 154 144 144 144 126 126 126 147 147 147 134 134 134 126 126 126 110 110 110 141 141 141 127 127 127 133 133 133 222 222 222 221 221 221 219 219 219 214 214 214 195 195 195 227 227 227 225 225 225 198 198 198 187 187 187 185 185 185 211 211 211 199 199 199 226 226 226 212 212 212 186 186 186 173 173 173 172 172 172 170 170 170 227 227 227 175 175 175 226 226 226 222 222 222 223 223 223 194 194 194 210 210 210 199 199 199 224 224 224 224 224 224 183 183 183 192 192 192 199 199 199 176 176 176 183 183 183 189 189 189 220 220 220 210 210 210 185 185 185 216 216 216 177 177 177 203 203 203 170 170 170 218 218 218 173 173 173 229 229 229 201 201 201 189 189 189 173 173 173 203 203 203 191 191 191 255 255 255 255 255 255 242 242 242 255 255 255 255 255 255 255 255 255 255 255 255 228 228 228 206 206 206 197 197 197 189 189 189 230 230 230 156 156 156 123 123 123 110 110 110 114 114 114 115 115 115 152 152 152 130 130 130 100 100 100 98 98 98 104 104 104 103 103 103 147 147 147 107 107 107 101 101 101 117 117 117 128 128 128 106 106 106 153 153 153 152 152 152 
106 106 106 133 133 133 108 108 108 158 158 158 107 107 107 153 153 153 132 132 132 111 111 111 128 128 128 98 98 98 132 132 132 129 129 129 156 156 156 157 157 157 142 142 142 114 114 114 113 113 113 135 135 135 148 148 148 118 118 118 138 138 138 154 154 154 123 123 123 126 126 126 104 104 104 128 128 128 147 147 147 136 136 136 138 138 138 143 143 143 129 129 129 146 146 146 119 119 119 141 141 141 147 147 147 129 129 129 135 135 135 121 121 121 144 144 144 106 106 106 123 123 123 117 117 117 138 138 138 123 123 123 117 117 117 123 123 123 139 139 139 135 135 135 101 101 101 128 128 128 155 155 155 141 141 141 125 125 125 121 121 121 110 110 110 133 133 133 153 153 153 99 99 99 110 110 110 132 132 132 146 146 146 142 142 142 120 120 120 107 107 107 126 126 126 110 110 110 138 138 138 103 103 103 133 133 133 125 125 125 111 111 111 100 100 100 146 146 146 151 151 151 125 125 125 104 104 104 117 117 117 107 107 107 141 141 141 121 121 121 139 139 139 139 139 139 105 105 105 105 105 105 101 101 101 118 118 118 140 140 140 158 158 158 121 121 121 154 154 154 132 132 132 108 108 108 139 139 139 156 156 156 117 117 117 107 107 107 107 107 107 98 98 98 112 112 112 145 145 145 125 125 125 127 127 127 147 147 147 112 112 112 122 122 122 115 115 115 121 121 121 141 141 141 124 124 124 105 105 105 103 103 103 104 104 104 149 149 149 111 111 111 113 113 113 154 154 154 133 133 133 155 155 155 154 154 154 156 156 156 224 224 224 199 199 199 179 179 179 205 205 205 198 198 198 199 199 199 214 214 214 207 207 207 201 201 201 228 228 228 195 195 195 229 229 229 198 198 198 183 183 183 184 184 184 222 222 222 202 202 202 209 209 209 205 205 205 228 228 228 217 217 217 212 212 212 173 173 173 209 209 209 227 227 227 190 190 190 204 204 204 201 201 201 188 188 188 199 199 199 200 200 200 182 182 182 230 230 230 210 210 210 217 217 217 197 197 197 180 180 180 200 200 200 176 176 176 211 211 211 199 199 199 201 201 201 209 209 209 227 227 227 217 217 217 226 226 226 221 221 221 188 188 188 206 206 206 195 195 195 188 188 188 194 194 194 178 178 178 193 193 193 172 172 172 177 177 177 214 214 214 255 255 255 255 255 255 226 226 226 230 230 230 108 108 108 111 111 111 103 103 103 150 150 150 99 99 99 132 132 132 99 99 99 131 131 131 138 138 138 140 140 140 101 101 101 111 111 111 121 121 121 100 100 100 158 158 158 116 116 116 151 151 151 117 117 117 152 152 152 
117 117 117 135 135 135 116 116 116 125 125 125 98 98 98 120 120 120 132 132 132 142 142 142 157 157 157 112 112 112 145 145 145 102 102 102 124 124 124 98 98 98 109 109 109 115 115 115 101 101 101 143 143 143 116 116 116 135 135 135 125 125 125 158 158 158 138 138 138 138 138 138 122 122 122 140 140 140 139 139 139 140 140 140 134 134 134 158 158 158 136 136 136 153 153 153 137 137 137 156 156 156 122 122 122 137 137 137 117 117 117 156 156 156 122 122 122 118 118 118 111 111 111 108 108 108 122 122 122 139 139 139 110 110 110 135 135 135 156 156 156 114 114 114 121 121 121 115 115 115 151 151 151 148 148 148 115 115 115 132 132 132 129 129 129 139 139 139 116 116 116 111 111 111 123 123 123 152 152 152 113 113 113 102 102 102 147 147 147 152 152 152 101 101 101 110 110 110 132 132 132 122 122 122 109 109 109 156 156 156 142 142 142 125 125 125 107 107 107 107 107 107 105 105 105 120 120 120 144 144 144 103 103 103 138 138 138 109 109 109 120 120 120 132 132 132 100 100 100 139 139 139 105 105 105 132 132 132 122 122 122 123 123 123 147 147 147 149 149 149 119 119 119 101 101 101 155 155 155 107 107 107 157 157 157 158 158 158 121 121 121 130 130 130 121 121 121 134 134 134 129 129 129 107 107 107 100 100 100 141 141 141 116 116 116 108 108 108 102 102 102 104 104 104 115 115 115 144 144 144 115 115 115 139 139 139 117 117 117 117 117 117 122 122 122 124 124 124 153 153 153 148 148 148 152 152 152 142 142 142 210 210 210 186 186 186 219 219 219 208 208 208 197 197 197 218 218 218 207 207 207 220 220 220 191 191 191 171 171 171 195 195 195 225 225 225 180 180 180 198 198 198 207 207 207 201 201 201 210 210 210 213 213 213 207 207 207 227 227 227 198 198 198 224 224 224 209 209 209 217 217 217 184 184 184 172 172 172 184 184 184 179 179 179 222 222 222 179 179 179 225 225 225 203 203 203 195 195 195 213 213 213 180 180 180 222 222 222 202 202 202 219 219 219 211 211 211 224 224 224 223 223 223 178 178 178 218 218 218 174 174 174 208 208 208 196 196 196 205 205 205 187 187 187 178 178 178 181 181 181 185 185 185 206 206 206 176 176 176 224 224 224 194 194 194 191 191 191 229 229 229 208 208 208 202 202 202 222 222 222 218 218 218 124 124 124 123 123 123 110 110 110 108 108 108 135 135 135 102 102 102 141 141 141 126 126 126 145 145 145 136 136 136 118 118 118 153 153 153 125 125 125 122 122 122 130 130 130 151 151 151 99 99 99 149 149 149 98 98 98 
110 110 110 105 105 105 136 136 136 119 119 119 99 99 99 99 99 99 142 142 142 99 99 99 137 137 137 113 113 113 151 151 151 126 126 126 141 141 141 117 117 117 139 139 139 151 151 151 157 157 157 145 145 145 135 135 135 124 124 124 131 131 131 112 112 112 146 146 146 128 128 128 139 139 139 109 109 109 101 101 101 131 131 131 112 112 112 155 155 155 133 133 133 127 127 127 101 101 101 112 112 112 148 148 148 104 104 104 113 113 113 133 133 133 105 105 105 155 155 155 150 150 150 100 100 100 122 122 122 132 132 132 119 119 119 104 104 104 126 126 126 119 119 119 151 151 151 105 105 105 145 145 145 126 126 126 119 119 119 134 134 134 158 158 158 102 102 102 148 148 148 102 102 102 135 135 135 101 101 101 98 98 98 112 112 112 130 130 130 102 102 102 126 126 126 121 121 121 110 110 110 144 144 144 156 156 156 120 120 120 140 140 140 147 147 147 122 122 122 105 105 105 122 122 122 145 145 145 112 112 112 153 153 153 106 106 106 106 106 106 99 99 99 155 155 155 134 134 134 120 120 120 131 131 131 135 135 135 124 124 124 122 122 122 140 140 140 103 103 103 125 125 125 142 142 142 119 119 119 158 158 158 148 148 148 149 149 149 120 120 120 100 100 100 134 134 134 120 120 120 122 122 122 115 115 115 108 108 108 146 146 146 123 123 123 135 135 135 134 134 134 139 139 139 129 129 129 142 142 142 147 147 147 130 130 130 141 141 141 125 125 125 154 154 154 115 115 115 101 101 101 122 122 122 139 139 139 145 145 145 201 201 201 177 177 177 201 201 201 222 222 222 178 178 178 190 190 190 214 214 214 203 203 203 194 194 194 190 190 190 225 225 225 220 220 220 207 207 207 176 176 176 207 207 207 173 173 173 215 215 215 185 185 185 214 214 214 185 185 185 170 170 170 203 203 203 219 219 219 213 213 213 171 171 171 217 217 217 230 230 230 176 176 176 180 180 180 212 212 212 224 224 224 213 213 213 220 220 220 196 196 196 206 206 206 230 230 230 218 218 218 189 189 189 204 204 204 182 182 182 209 209 209 198 198 198 171 171 171 188 188 188 207 207 207 211 211 211 191 191 191 191 191 191 226 226 226 177 177 177 209 209 209 228 228 228 212 212 212 197 197 197 211 211 211 213 213 213 183 183 183 212 212 212 219 219 219 195 195 195 194 194 194 140 140 140 105 105 105 113 113 113 107 107 107 141 141 141 114 114 114 156 156 156 100 100 100 149 149 149 109 109 109 141 141 141 116 116 116 110 110 110 98 98 98 155 155 155 153 153 153 120 120 120 116 116 116 150 150 150 
127 127 127 157 157 157 148 148 148 108 108 108 123 123 123 130 130 130 153 153 153 139 139 139 111 111 111 141 141 141 103 103 103 137 137 137 125 125 125 111 111 111 152 152 152 134 134 134 156 156 156 108 108 108 133 133 133 99 99 99 98 98 98 144 144 144 143 143 143 118 118 118 98 98 98 143 143 143 115 115 115 153 153 153 106 106 106 135 135 135 147 147 147 137 137 137 133 133 133 138 138 138 149 149 149 99 99 99 109 109 109 143 143 143 140 140 140 122 122 122 128 128 128 148 148 148 101 101 101 157 157 157 100 100 100 157 157 157 134 134 134 99 99 99 106 106 106 109 109 109 101 101 101 108 108 108 157 157 157 148 148 148 129 129 129 157 157 157 134 134 134 148 148 148 154 154 154 143 143 143 126 126 126 142 142 142 123 123 123 102 102 102 121 121 121 116 116 116 105 105 105 132 132 132 102 102 102 148 148 148 158 158 158 132 132 132 137 137 137 102 102 102 130 130 130 141 141 141 101 101 101 106 106 106 144 144 144 111 111 111 119 119 119 147 147 147 122 122 122 117 117 117 138 138 138 155 155 155 116 116 116 114 114 114 146 146 146 113 113 113 100 100 100 115 115 115 157 157 157 125 125 125 119 119 119 121 121 121 143 143 143 128 128 128 157 157 157 150 150 150 117 117 117 158 158 158 123 123 123 158 158 158 102 102 102 158 158 158 142 142 142 105 105 105 107 107 107 128 128 128 118 118 118 128 128 128 118 118 118 144 144 144 149 149 149 98 98 98 142 142 142 106 106 106 116 116 116 129 129 129 195 195 195 190 190 190 218 218 218 195 195 195 219 219 219 180 180 180 218 218 218 206 206 206 211 211 211 218 218 218 197 197 197 171 171 171 218 218 218 222 222 222 173 173 173 224 224 224 223 223 223 219 219 219 172 172 172 171 171 171 188 188 188 194 194 194 203 203 203 211 211 211 180 180 180 194 194 194 213 213 213 224 224 224 204 204 204 170 170 170 197 197 197 230 230 230 190 190 190 184 184 184 194 194 194 178 178 178 197 197 197 184 184 184 216 216 216 179 179 179 173 173 173 182 182 182 180 180 180 223 223 223 176 176 176 185 185 185 216 216 216 229 229 229 174 174 174 220 220 220 172 172 172 194 194 194 184 184 184 207 207 207 174 174 174 196 196 196 172 172 172 217 217 217 191 191 191 209 209 209 217 217 217 146 146 146 138 138 138 106 106 106 102 102 102 103 103 103 117 117 117 131 131 131 117 117 117 102 102 102 140 140 140 123 123 123 115 115 115 152 152 152 115 115 115 123 123 123 107 107 107 103 103 103 123 123 123 113 113 113 
155 155 155 127 127 127 137 137 137 108 108 108 104 104 104 144 144 144 136 136 136 108 108 108 130 130 130 158 158 158 147 147 147 119 119 119 147 147 147 126 126 126 127 127 127 151 151 151 132 132 132 148 148 148 123 123 123 153 153 153 153 153 153 104 104 104 117 117 117 111 111 111 100 100 100 137 137 137 136 136 136 111 111 111 144 144 144 102 102 102 126 126 126 140 140 140 132 132 132 106 106 106 153 153 153 138 138 138 152 152 152 130 130 130 148 148 148 124 124 124 129 129 129 137 137 137 147 147 147 118 118 118 106 106 106 117 117 117 112 112 112 140 140 140 107 107 107 138 138 138 135 135 135 103 103 103 146 146 146 156 156 156 116 116 116 148 148 148 134 134 134 156 156 156 100 100 100 121 121 121 99 99 99 130 130 130 103 103 103 133 133 133 139 139 139 158 158 158 114 114 114 132 132 132 129 129 129 106 106 106 99 99 99 102 102 102 145 145 145 150 150 150 122 122 122 155 155 155 109 109 109 136 136 136 137 137 137 120 120 120 117 117 117 115 115 115 125 125 125 107 107 107 112 112 112 145 145 145 98 98 98 151 151 151 142 142 142 103 103 103 115 115 115 145 145 145 135 135 135 120 120 120 122 122 122 115 115 115 121 121 121 138 138 138 152 152 152 155 155 155 146 146 146 153 153 153 98 98 98 134 134 134 145 145 145 124 124 124 131 131 131 158 158 158 103 103 103 111 111 111 119 119 119 123 123 123 128 128 128 148 148 148 132 132 132 144 144 144 134 134 134 134 134 134 138 138 138 119 119 119 211 211 211 228 228 228 177 177 177 188 188 188 191 191 191 201 201 201 207 207 207 217 217 217 183 183 183 200 200 200 213 213 213 170 170 170 197 197 197 215 215 215 209 209 209 185 185 185 180 180 180 181 181 181 184 184 184 185 185 185 196 196 196 207 207 207 212 212 212 226 226 226 196 196 196 187 187 187 213 213 213 171 171 171 224 224 224 195 195 195 192 192 192 204 204 204 192 192 192 201 201 201 224 224 224 215 215 215 174 174 174 201 201 201 201 201 201 187 187 187 170 170 170 183 183 183 189 189 189 197 197 197 230 230 230 230 230 230 212 212 212 179 179 179 182 182 182 228 228 228 197 197 197 208 208 208 204 204 204 180 180 180 205 205 205 230 230 230 200 200 200 188 188 188 172 172 172 195 195 195 213 213 213 124 124 124 157 157 157 104 104 104 156 156 156 153 153 153 149 149 149 101 101 101 123 123 123 122 122 122 120 120 120 125 125 125 137 137 137 141 141 141 155 155 155 137 137 137 141 141 141 138 138 138 148 148 148 153 153 153 
136 136 136 114 114 114 131 131 131 111 111 111 127 127 127 105 105 105 111 111 111 157 157 157 125 125 125 113 113 113 121 121 121 109 109 109 142 142 142 121 121 121 117 117 117 141 141 141 115 115 115 110 110 110 144 144 144 142 142 142 134 134 134 107 107 107 109 109 109 114 114 114 150 150 150 107 107 107 153 153 153 134 134 134 147 147 147 143 143 143 129 129 129 126 126 126 100 100 100 103 103 103 140 140 140 129 129 129 112 112 112 153 153 153 127 127 127 140 140 140 109 109 109 150 150 150 153 153 153 155 155 155 115 115 115 114 114 114 137 137 137 132 132 132 126 126 126 124 124 124 118 118 118 103 103 103 133 133 133 129 129 129 119 119 119 127 127 127 140 140 140 114 114 114 102 102 102 128 128 128 100 100 100 133 133 133 157 157 157 102 102 102 138 138 138 138 138 138 134 134 134 153 153 153 134 134 134 102 102 102 136 136 136 147 147 147 157 157 157 132 132 132 144 144 144 113 113 113 148 148 148 122 122 122 149 149 149 117 117 117 149 149 149 108 108 108 124 124 124 125 125 125 141 141 141 146 146 146 154 154 154 124 124 124 103 103 103 98 98 98 155 155 155 105 105 105 133 133 133 155 155 155 111 111 111 115 115 115 136 136 136 147 147 147 111 111 111 113 113 113 154 154 154 151 151 151 101 101 101 154 154 154 124 124 124 149 149 149 110 110 110 116 116 116 115 115 115 102 102 102 137 137 137 107 107 107 115 115 115 103 103 103 134 134 134 158 158 158 153 153 153 130 130 130 124 124 124 158 158 158 204 204 204 194 194 194 178 178 178 180 180 180 190 190 190 191 191 191 197 197 197 230 230 230 182 182 182 212 212 212 184 184 184 177 177 177 204 204 204 189 189 189 174 174 174 172 172 172 180 180 180 186 186 186 190 190 190 197 197 197 190 190 190 170 170 170 206 206 206 207 207 207 175 175 175 183 183 183 209 209 209 230 230 230 217 217 217 176 176 176 170 170 170 190 190 190 202 202 202 178 178 178 201 201 201 224 224 224 202 202 202 230 230 230 223 223 223 216 216 216 214 214 214 176 176 176 225 225 225 187 187 187 195 195 195 229 229 229 191 191 191 207 207 207 186 186 186 213 213 213 173 173 173 206 206 206 214 214 214 211 211 211 185 185 185 219 219 219 225 225 225 226 226 226 221 221 221 211 211 211 171 171 171 149 149 149 101 101 101 131 131 131 99 99 99 134 134 134 126 126 126 133 133 133 133 133 133 118 118 118 118 118 118 116 116 116 126 126 126 112 112 112 136 136 136 151 151 151 110 110 110 157 157 157 128 128 128 126 126 126 
140 140 140 133 133 133 103 103 103 123 123 123 116 116 116 120 120 120 113 113 113 110 110 110 115 115 115 105 105 105 153 153 153 118 118 118 157 157 157 156 156 156 153 153 153 99 99 99 131 131 131 120 120 120 134 134 134 108 108 108 140 140 140 156 156 156 128 128 128 107 107 107 109 109 109 105 105 105 102 102 102 123 123 123 106 106 106 134 134 134 153 153 153 150 150 150 110 110 110 158 158 158 114 114 114 128 128 128 120 120 120 131 131 131 140 140 140 139 139 139 139 139 139 137 137 137 99 99 99 139 139 139 134 134 134 154 154 154 140 140 140 109 109 109 116 116 116 117 117 117 119 119 119 99 99 99 114 114 114 151 151 151 109 109 109 127 127 127 98 98 98 115 115 115 152 152 152 108 108 108 151 151 151 146 146 146 99 99 99 102 102 102 147 147 147 117 117 117 133 133 133 110 110 110 152 152 152 116 116 116 152 152 152 132 132 132 155 155 155 155 155 155 114 114 114 133 133 133 150 150 150 158 158 158 144 144 144 109 109 109 118 118 118 106 106 106 111 111 111 134 134 134 98 98 98 124 124 124 104 104 104 100 100 100 141 141 141 158 158 158 112 112 112 135 135 135 147 147 147 113 113 113 141 141 141 138 138 138 134 134 134 115 115 115 150 150 150 128 128 128 136 136 136 143 143 143 103 103 103 134 134 134 139 139 139 120 120 120 108 108 108 133 133 133 121 121 121 156 156 156 144 144 144 142 142 142 103 103 103 98 98 98 119 119 119 106 106 106 124 124 124 126 126 126 108 108 108 108 108 108 199 199 199 197 197 197 217 217 217 190 190 190 212 212 212 200 200 200 230 230 230 188 188 188 219 219 219 221 221 221 220 220 220 198 198 198 208 208 208 225 225 225 174 174 174 190 190 190 188 188 188 186 186 186 225 225 225 212 212 212 184 184 184 213 213 213 195 195 195 191 191 191 215 215 215 218 218 218 199 199 199 183 183 183 185 185 185 212 212 212 193 193 193 217 217 217 178 178 178 182 182 182 176 176 176 222 222 222 214 214 214 177 177 177 181 181 181 204 204 204 230 230 230 170 170 170 172 172 172 207 207 207 226 226 226 178 178 178 230 230 230 185 185 185 196 196 196 226 226 226 227 227 227 210 210 210 210 210 210 193 193 193 171 171 171 195 195 195 183 183 183 202 202 202 208 208 208 198 198 198 183 183 183 100 100 100 114 114 114 121 121 121 112 112 112 122 122 122 113 113 113 158 158 158 129 129 129 124 124 124 132 132 132 129 129 129 125 125 125 136 136 136 107 107 107 122 122 122 146 146 146 106 106 106 139 139 139 111 111 111 
102 102 102 138 138 138 152 152 152 142 142 142 102 102 102 155 155 155 108 108 108 115 115 115 126 126 126 146 146 146 146 146 146 142 142 142 149 149 149 101 101 101 106 106 106 104 104 104 128 128 128 121 121 121 104 104 104 98 98 98 150 150 150 140 140 140 131 131 131 118 118 118 119 119 119 143 143 143 142 142 142 106 106 106 151 151 151 124 124 124 121 121 121 157 157 157 103 103 103 114 114 114 143 143 143 108 108 108 112 112 112 153 153 153 125 125 125 143 143 143 143 143 143 112 112 112 128 128 128 135 135 135 118 118 118 136 136 136 141 141 141 148 148 148 99 99 99 149 149 149 150 150 150 151 151 151 132 132 132 125 125 125 112 112 112 153 153 153 109 109 109 156 156 156 100 100 100 103 103 103 123 123 123 124 124 124 104 104 104 129 129 129 142 142 142 149 149 149 141 141 141 98 98 98 145 145 145 107 107 107 145 145 145 129 129 129 124 124 124 114 114 114 105 105 105 144 144 144 152 152 152 151 151 151 135 135 135 155 155 155 141 141 141 126 126 126 149 149 149 115 115 115 153 153 153 102 102 102 111 111 111 103 103 103 101 101 101 116 116 116 109 109 109 129 129 129 144 144 144 115 115 115 99 99 99 127 127 127 107 107 107 144 144 144 129 129 129 154 154 154 153 153 153 115 115 115 127 127 127 120 120 120 133 133 133 134 134 134 107 107 107 129 129 129 128 128 128 144 144 144 127 127 127 113 113 113 112 112 112 118 118 118 130 130 130 106 106 106 124 124 124 145 145 145 114 114 114 130 130 130 174 174 174 199 199 199 172 172 172 220 220 220 218 218 218 175 175 175 191 191 191 227 227 227 221 221 221 222 222 222 224 224 224 217 217 217 181 181 181 192 192 192 179 179 179 216 216 216 170 170 170 188 188 188 188 188 188 200 200 200 174 174 174 218 218 218 215 215 215 188 188 188 179 179 179 188 188 188 198 198 198 205 205 205 175 175 175 216 216 216 178 178 178 181 181 181 184 184 184 180 180 180 171 171 171 171 171 171 185 185 185 192 192 192 230 230 230 177 177 177 185 185 185 224 224 224 225 225 225 198 198 198 187 187 187 173 173 173 186 186 186 189 189 189 193 193 193 204 204 204 220 220 220 197 197 197 191 191 191 206 206 206 217 217 217 200 200 200 225 225 225 187 187 187 177 177 177 171 171 171 172 172 172 113 113 113 110 110 110 115 115 115 126 126 126 113 113 113 118 118 118 143 143 143 135 135 135 118 118 118 151 151 151 153 153 153 113 113 113 145 145 145 120 120 120 132 132 132 150 150 150 136 136 136 152 152 152 112 112 112 
112 112 112 143 143 143 142 142 142 133 133 133 118 118 118 130 130 130 105 105 105 114 114 114 147 147 147 114 114 114 115 115 115 152 152 152 129 129 129 130 130 130 108 108 108 98 98 98 145 145 145 130 130 130 144 144 144 124 124 124 152 152 152 136 136 136 120 120 120 106 106 106 124 124 124 142 142 142 143 143 143 117 117 117 122 122 122 136 136 136 133 133 133 136 136 136 122 122 122 118 118 118 112 112 112 142 142 142 151 151 151 121 121 121 98 98 98 141 141 141 137 137 137 117 117 117 134 134 134 110 110 110 151 151 151 144 144 144 110 110 110 140 140 140 118 118 118 156 156 156 107 107 107 111 111 111 135 135 135 129 129 129 122 122 122 102 102 102 114 114 114 106 106 106 121 121 121 140 140 140 146 146 146 157 157 157 119 119 119 109 109 109 118 118 118 134 134 134 155 155 155 110 110 110 98 98 98 155 155 155 154 154 154 138 138 138 116 116 116 129 129 129 152 152 152 110 110 110 117 117 117 103 103 103 152 152 152 137 137 137 103 103 103 100 100 100 150 150 150 140 140 140 133 133 133 113 113 113 145 145 145 150 150 150 123 123 123 109 109 109 131 131 131 110 110 110 109 109 109 153 153 153 123 123 123 130 130 130 130 130 130 120 120 120 142 142 142 130 130 130 118 118 118 139 139 139 111 111 111 138 138 138 112 112 112 104 104 104 151 151 151 131 131 131 112 112 112 144 144 144 111 111 111 117 117 117 149 149 149 104 104 104 98 98 98 123 123 123 122 122 122 147 147 147 114 114 114 147 147 147 172 172 172 222 222 222 173 173 173 183 183 183 218 218 218 200 200 200 215 215 215 189 189 189 222 222 222 201 201 201 223 223 223 184 184 184 181 181 181 178 178 178 224 224 224 197 197 197 184 184 184 216 216 216 230 230 230 200 200 200 204 204 204 184 184 184 219 219 219 196 196 196 191 191 191 222 222 222 221 221 221 217 217 217 212 212 212 179 179 179 207 207 207 214 214 214 172 172 172 210 210 210 228 228 228 220 220 220 180 180 180 214 214 214 178 178 178 173 173 173 184 184 184 172 172 172 187 187 187 198 198 198 180 180 180 183 183 183 225 225 225 197 197 197 170 170 170 227 227 227 227 227 227 204 204 204 180 180 180 218 218 218 230 230 230 203 203 203 209 209 209 223 223 223 191 191 191 190 190 190 173 173 173 157 157 157 102 102 102 103 103 103 136 136 136 99 99 99 153 153 153 148 148 148 143 143 143 102 102 102 152 152 152 99 99 99 104 104 104 110 110 110 127 127 127 117 117 117 123 123 123 123 123 123 144 144 144 126 126 126 
119 119 119 142 142 142 99 99 99 132 132 132 129 129 129 101 101 101 106 106 106 107 107 107 156 156 156 128 128 128 130 130 130 98 98 98 126 126 126 134 134 134 103 103 103 105 105 105 137 137 137 99 99 99 158 158 158 123 123 123 103 103 103 153 153 153 124 124 124 111 111 111 106 106 106 155 155 155 130 130 130 134 134 134 120 120 120 117 117 117 101 101 101 143 143 143 101 101 101 102 102 102 116 116 116 132 132 132 107 107 107 127 127 127 144 144 144 106 106 106 157 157 157 115 115 115 106 106 106 126 126 126 151 151 151 113 113 113 135 135 135 129 129 129 116 116 116 134 134 134 156 156 156 123 123 123 130 130 130 122 122 122 137 137 137 139 139 139 118 118 118 110 110 110 114 114 114 142 142 142 130 130 130 117 117 117 127 127 127 133 133 133 123 123 123 145 145 145 106 106 106 135 135 135 113 113 113 152 152 152 143 143 143 113 113 113 108 108 108 154 154 154 143 143 143 102 102 102 110 110 110 122 122 122 135 135 135 129 129 129 99 99 99 133 133 133 156 156 156 132 132 132 98 98 98 134 134 134 112 112 112 118 118 118 147 147 147 130 130 130 102 102 102 118 118 118 149 149 149 131 131 131 155 155 155 115 115 115 119 119 119 104 104 104 152 152 152 137 137 137 98 98 98 137 137 137 154 154 154 110 110 110 134 134 134 139 139 139 117 117 117 146 146 146 102 102 102 154 154 154 118 118 118 105 105 105 130 130 130 116 116 116 139 139 139 130 130 130 152 152 152 155 155 155 153 153 153 142 142 142 198 198 198 229 229 229 175 175 175 190 190 190 203 203 203 171 171 171 208 208 208 226 226 226 178 178 178 201 201 201 204 204 204 180 180 180 181 181 181 200 200 200 194 194 194 217 217 217 182 182 182 213 213 213 205 205 205 188 188 188 211 211 211 225 225 225 195 195 195 184 184 184 182 182 182 176 176 176 217 217 217 178 178 178 174 174 174 211 211 211 224 224 224 203 203 203 211 211 211 230 230 230 225 225 225 185 185 185 172 172 172 202 202 202 180 180 180 182 182 182 173 173 173 215 215 215 194 194 194 184 184 184 186 186 186 219 219 219 173 173 173 200 200 200 203 203 203 208 208 208 218 218 218 185 185 185 204 204 204 182 182 182 200 200 200 217 217 217 190 190 190 188 188 188 227 227 227 195 195 195 229 229 229 148 148 148 158 158 158 139 139 139 149 149 149 152 152 152 154 154 154 152 152 152 126 126 126 103 103 103 105 105 105 131 131 131 150 150 150 130 130 130 147 147 147 107 107 107 120 120 120 150 150 150 137 137 137 155 155 155 
127 127 127 124 124 124 112 112 112 101 101 101 139 139 139 144 144 144 150 150 150 100 100 100 101 101 101 148 148 148 127 127 127 101 101 101 137 137 137 126 126 126 142 142 142 130 130 130 122 122 122 137 137 137 123 123 123 152 152 152 144 144 144 130 130 130 124 124 124 138 138 138 103 103 103 112 112 112 147 147 147 125 125 125 104 104 104 126 126 126 124 124 124 135 135 135 154 154 154 138 138 138 138 138 138 136 136 136 123 123 123 131 131 131 139 139 139 126 126 126 120 120 120 107 107 107 129 129 129 101 101 101 138 138 138 114 114 114 133 133 133 103 103 103 155 155 155 99 99 99 157 157 157 140 140 140 133 133 133 122 122 122 121 121 121 139 139 139 136 136 136 110 110 110 107 107 107 142 142 142 140 140 140 135 135 135 121 121 121 137 137 137 114 114 114 100 100 100 115 115 115 141 141 141 136 136 136 156 156 156 108 108 108 99 99 99 106 106 106 141 141 141 104 104 104 146 146 146 98 98 98 139 139 139 151 151 151 155 155 155 142 142 142 149 149 149 139 139 139 119 119 119 114 114 114 101 101 101 99 99 99 153 153 153 115 115 115 110 110 110 138 138 138 98 98 98 148 148 148 100 100 100 138 138 138 105 105 105 105 105 105 157 157 157 149 149 149 145 145 145 154 154 154 100 100 100 146 146 146 101 101 101 146 146 146 153 153 153 152 152 152 146 146 146 135 135 135 144 144 144 145 145 145 121 121 121 137 137 137 125 125 125 142 142 142 153 153 153 130 130 130 145 145 145 149 149 149 150 150 150 229 229 229 201 201 201 222 222 222 220 220 220 205 205 205 201 201 201 230 230 230 214 214 214 199 199 199 220 220 220 200 200 200 196 196 196 222 222 222 188 188 188 202 202 202 211 211 211 184 184 184 195 195 195 199 199 199 223 223 223 182 182 182 185 185 185 185 185 185 223 223 223 212 212 212 229 229 229 218 218 218 185 185 185 217 217 217 208 208 208 176 176 176 218 218 218 180 180 180 229 229 229 207 207 207 216 216 216 201 201 201 206 206 206 199 199 199 172 172 172 197 197 197 171 171 171 198 198 198 191 191 191 189 189 189 171 171 171 171 171 171 205 205 205 198 198 198 200 200 200 197 197 197 211 211 211 217 217 217 215 215 215 203 203 203 200 200 200 213 213 213 192 192 192 216 216 216 200 200 200 170 170 170 152 152 152 115 115 115 110 110 110 150 150 150 154 154 154 158 158 158 123 123 123 132 132 132 127 127 127 125 125 125 100 100 100 128 128 128 155 155 155 121 121 121 149 149 149 157 157 157 125 125 125 125 125 125 126 126 126 
155 155 155 152 152 152 106 106 106 144 144 144 136 136 136 142 142 142 113 113 113 121 121 121 103 103 103 100 100 100 153 153 153 105 105 105 155 155 155 111 111 111 118 118 118 146 146 146 108 108 108 117 117 117 112 112 112 142 142 142 148 148 148 139 139 139 147 147 147 119 119 119 138 138 138 109 109 109 111 111 111 138 138 138 136 136 136 138 138 138 105 105 105 135 135 135 132 132 132 116 116 116 122 122 122 111 111 111 99 99 99 137 137 137 134 134 134 106 106 106 140 140 140 130 130 130 116 116 116 136 136 136 143 143 143 136 136 136 125 125 125 156 156 156 157 157 157 140 140 140 139 139 139 149 149 149 122 122 122 129 129 129 109 109 109 101 101 101 141 141 141 125 125 125 143 143 143 120 120 120 104 104 104 151 151 151 98 98 98 140 140 140 108 108 108 124 124 124 154 154 154 111 111 111 103 103 103 131 131 131 121 121 121 147 147 147 105 105 105 139 139 139 126 126 126 152 152 152 116 116 116 153 153 153 149 149 149 117 117 117 136 136 136 132 132 132 107 107 107 100 100 100 102 102 102 120 120 120 105 105 105 147 147 147 147 147 147 151 151 151 109 109 109 154 154 154 145 145 145 111 111 111 137 137 137 157 157 157 138 138 138 134 134 134 109 109 109 145 145 145 109 109 109 132 132 132 133 133 133 116 116 116 115 115 115 100 100 100 109 109 109 133 133 133 157 157 157 100 100 100 154 154 154 135 135 135 136 136 136 102 102 102 139 139 139 140 140 140 127 127 127 148 148 148 129 129 129 115 115 115 142 142 142 142 142 142 112 112 112 128 128 128 157 157 157 152 152 152 126 126 126 136 136 136 129 129 129 139 139 139 124 124 124 140 140 140 113 113 113 100 100 100 158 158 158 130 130 130 104 104 104 111 111 111 106 106 106 103 103 103 115 115 115 104 104 104 142 142 142 153 153 153 108 108 108 124 124 124 134 134 134 137 137 137 113 113 113 106 106 106 157 157 157 158 158 158 150 150 150 110 110 110 129 129 129 149 149 149 105 105 105 158 158 158 128 128 128 137 137 137 138 138 138 155 155 155 120 120 120 155 155 155 157 157 157 122 122 122 128 128 128 105 105 105 137 137 137 139 139 139 110 110 110 154 154 154 145 145 145 156 156 156 150 150 150 157 157 157 121 121 121 127 127 127 138 138 138 138 138 138 136 136 136 136 136 136 139 139 139 127 127 127 150 150 150 110 110 110 119 119 119 99 99 99 111 111 111 150 150 150 140 140 140 151 151 151 148 148 148 101 101 101 150 150 150 146 146 146 125 125 125 119 119 119 153 153 153 105 105 105 
101 101 101 106 106 106 100 100 100 148 148 148 103 103 103 154 154 154 149 149 149 128 128 128 123 123 123 128 128 128 110 110 110 100 100 100 105 105 105 151 151 151 131 131 131 98 98 98 104 104 104 153 153 153 99 99 99 117 117 117 146 146 146 141 141 141 110 110 110 135 135 135 145 145 145 103 103 103 124 124 124 113 113 113 126 126 126 121 121 121 121 121 121 130 130 130 129 129 129 125 125 125 121 121 121 137 137 137 121 121 121 111 111 111 108 108 108 148 148 148 141 141 141 120 120 120 152 152 152 150 150 150 115 115 115 126 126 126 151 151 151 121 121 121 120 120 120 152 152 152 141 141 141 107 107 107 137 137 137 155 155 155 146 146 146 125 125 125 99 99 99 112 112 112 140 140 140 127 127 127 135 135 135 104 104 104 98 98 98 107 107 107 134 134 134 124 124 124 146 146 146 98 98 98 137 137 137 98 98 98 148 148 148 122 122 122 120 120 120 143 143 143 113 113 113 137 137 137 110 110 110 107 107 107 102 102 102 135 135 135 103 103 103 145 145 145 146 146 146 142 142 142 141 141 141 134 134 134 108 108 108 142 142 142 148 148 148 152 152 152 112 112 112 124 124 124 100 100 100 115 115 115 133 133 133 136 136 136 141 141 141 123 123 123 136 136 136 121 121 121 123 123 123 127 127 127 145 145 145 147 147 147 113 113 113 102 102 102 128 128 128 125 125 125 111 111 111 132 132 132 101 101 101 116 116 116 118 118 118 150 150 150 101 101 101 102 102 102 125 125 125 111 111 111 148 148 148 116 116 116 105 105 105 101 101 101 142 142 142 107 107 107 118 118 118 118 118 118 147 147 147 102 102 102 145 145 145 126 126 126 126 126 126 109 109 109 157 157 157 114 114 114 100 100 100 111 111 111 118 118 118 130 130 130 138 138 138 134 134 134 105 105 105 144 144 144 154 154 154 127 127 127 135 135 135 158 158 158 131 131 131 103 103 103 110 110 110 120 120 120 121 121 121 119 119 119 125 125 125 106 106 106 128 128 128 148 148 148 128 128 128 118 118 118 152 152 152 115 115 115 146 146 146 121 121 121 128 128 128 144 144 144 138 138 138 130 130 130 157 157 157 99 99 99 103 103 103 139 139 139 135 135 135 110 110 110 124 124 124 131 131 131 141 141 141 102 102 102 130 130 130 113 113 113 109 109 109 144 144 144 137 137 137 134 134 134 105 105 105 106 106 106 142 142 142 137 137 137 156 156 156 113 113 113 158 158 158 151 151 151 130 130 130 145 145 145 114 114 114 102 102 102 131 131 131 156 156 156 136 136 136 131 131 131 157 157 157 142 142 142 
111 111 111 134 134 134 156 156 156 139 139 139 106 106 106 139 139 139 143 143 143 140 140 140 156 156 156 154 154 154 125 125 125 137 137 137 131 131 131 132 132 132 145 145 145 116 116 116 113 113 113 142 142 142 132 132 132 112 112 112 134 134 134 105 105 105 98 98 98 152 152 152 109 109 109 133 133 133 149 149 149 148 148 148 108 108 108 148 148 148 133 133 133 123 123 123 125 125 125 130 130 130 104 104 104 133 133 133 112 112 112 151 151 151 116 116 116 112 112 112 149 149 149 143 143 143 151 151 151 121 121 121 119 119 119 137 137 137 140 140 140 134 134 134 122 122 122 113 113 113 150 150 150 99 99 99 120 120 120 152 152 152 154 154 154 134 134 134 129 129 129 146 146 146 125 125 125 139 139 139 137 137 137 99 99 99 103 103 103 103 103 103 133 133 133 111 111 111 140 140 140 148 148 148 104 104 104 158 158 158 103 103 103 155 155 155 145 145 145 156 156 156 117 117 117 107 107 107 136 136 136 100 100 100 143 143 143 99 99 99 115 115 115 136 136 136 100 100 100 140 140 140 129 129 129 158 158 158 117 117 117 99 99 99 148 148 148 144 144 144 142 142 142 126 126 126 145 145 145 150 150 150 132 132 132 121 121 121 102 102 102 113 113 113 112 112 112 110 110 110 115 115 115 117 117 117 106 106 106 101 101 101 114 114 114 128 128 128 110 110 110 154 154 154 130 130 130 157 157 157 155 155 155 150 150 150 136 136 136 99 99 99 133 133 133 106 106 106 100 100 100 154 154 154 110 110 110 150 150 150 139 139 139 154 154 154 118 118 118 127 127 127 145 145 145 154 154 154 150 150 150 150 150 150 110 110 110 106 106 106 101 101 101 127 127 127 125 125 125 112 112 112 132 132 132 144 144 144 144 144 144 146 146 146 139 139 139 117 117 117 146 146 146 138 138 138 110 110 110 123 123 123 141 141 141 147 147 147 134 134 134 143 143 143 142 142 142 146 146 146 137 137 137 124 124 124 141 141 141 98 98 98 155 155 155 128 128 128 156 156 156 149 149 149 121 121 121 107 107 107 157 157 157 126 126 126 139 139 139 123 123 123 142 142 142 112 112 112 110 110 110 127 127 127 102 102 102 152 152 152 147 147 147 150 150 150 133 133 133 100 100 100 115 115 115 115 115 115 150 150 150 151 151 151 101 101 101 133 133 133 140 140 140 142 142 142 101 101 101 122 122 122 142 142 142 158 158 158 154 154 154 141 141 141 148 148 148 118 118 118 151 151 151 148 148 148 147 147 147 131 131 131 113 113 113 132 132 132 147 147 147 127 127 127 101 101 101 151 151 151 
122 122 122 152 152 152 143 143 143 157 157 157 156 156 156 101 101 101 115 115 115 147 147 147 156 156 156 121 121 121 124 124 124 137 137 137 104 104 104 127 127 127 102 102 102 151 151 151 126 126 126 98 98 98 133 133 133 118 118 118 118 118 118 127 127 127 107 107 107 108 108 108 99 99 99 124 124 124 143 143 143 151 151 151 154 154 154 148 148 148 143 143 143 117 117 117 143 143 143 129 129 129 118 118 118 140 140 140 132 132 132 135 135 135 131 131 131 131 131 131 99 99 99 157 157 157 109 109 109 108 108 108 125 125 125 114 114 114 100 100 100 155 155 155 116 116 116 137 137 137 114 114 114 136 136 136 106 106 106 126 126 126 149 149 149 109 109 109 152 152 152 135 135 135 101 101 101 147 147 147 124 124 124 149 149 149 108 108 108 110 110 110 119 119 119 128 128 128 154 154 154 154 154 154 106 106 106 126 126 126 126 126 126 110 110 110 124 124 124 140 140 140 120 120 120 153 153 153 158 158 158 124 124 124 150 150 150 115 115 115 102 102 102 105 105 105 155 155 155 112 112 112 133 133 133 147 147 147 126 126 126 129 129 129 123 123 123 131 131 131 119 119 119 149 149 149 121 121 121 129 129 129 102 102 102 143 143 143 100 100 100 98 98 98 138 138 138 111 111 111 128 128 128 107 107 107 123 123 123 155 155 155 151 151 151 145 145 145 149 149 149 150 150 150 110 110 110 142 142 142 108 108 108 116 116 116 152 152 152 107 107 107 133 133 133 128 128 128 156 156 156 100 100 100 98 98 98 121 121 121 135 135 135 120 120 120 113 113 113 98 98 98 153 153 153 118 118 118 143 143 143 158 158 158 120 120 120 124 124 124 110 110 110 150 150 150 135 135 135 135 135 135 148 148 148 128 128 128 123 123 123 141 141 141 121 121 121 137 137 137 124 124 124 134 134 134 157 157 157 117 117 117 143 143 143 131 131 131 148 148 148 142 142 142 135 135 135 150 150 150 104 104 104 112 112 112 111 111 111 120 120 120 114 114 114 108 108 108 142 142 142 98 98 98 107 107 107 103 103 103 124 124 124 119 119 119 157 157 157 102 102 102 158 158 158 147 147 147 132 132 132 122 122 122 129 129 129 158 158 158 102 102 102 155 155 155 133 133 133 100 100 100 116 116 116 119 119 119 136 136 136 105 105 105 102 102 102 114 114 114 157 157 157 111 111 111 130 130 130 112 112 112 133 133 133 146 146 146 122 122 122 118 118 118 148 148 148 131 131 131 125 125 125 115 115 115 154 154 154 123 123 123 120 120 120 153 153 153 111 111 111 156 156 156 118 118 118 142 142 142 
155 155 155 124 124 124 141 141 141 131 131 131 128 128 128 98 98 98 152 152 152 105 105 105 107 107 107 98 98 98 124 124 124 105 105 105 111 111 111 158 158 158 121 121 121 148 148 148 146 146 146 145 145 145 107 107 107 137 137 137 119 119 119 134 134 134 155 155 155 116 116 116 100 100 100 116 116 116 110 110 110 114 114 114 113 113 113 132 132 132 99 99 99 112 112 112 158 158 158 142 142 142 145 145 145 130 130 130 144 144 144 141 141 141 137 137 137 153 153 153 141 141 141 104 104 104 102 102 102 156 156 156 106 106 106 125 125 125 145 145 145 154 154 154 114 114 114 156 156 156 134 134 134 135 135 135 133 133 133 130 130 130 154 154 154 135 135 135 148 148 148 107 107 107 151 151 151 105 105 105 144 144 144 155 155 155 119 119 119 145 145 145 140 140 140 105 105 105 116 116 116 126 126 126 150 150 150 158 158 158 122 122 122 134 134 134 103 103 103 126 126 126 131 131 131 111 111 111 154 154 154 119 119 119 108 108 108 109 109 109 116 116 116 145 145 145 148 148 148 153 153 153 118 118 118 145 145 145 130 130 130 110 110 110 155 155 155 124 124 124 117 117 117 142 142 142 120 120 120 138 138 138 128 128 128 104 104 104 147 147 147 147 147 147 134 134 134 141 141 141 146 146 146 158 158 158 116 116 116 153 153 153 128 128 128 152 152 152 106 106 106 125 125 125 112 112 112 118 118 118 138 138 138 133 133 133 106 106 106 127 127 127 127 127 127 129 129 129 116 116 116 100 100 100 141 141 141 114 114 114 127 127 127 99 99 99 158 158 158 151 151 151 141 141 141 127 127 127 157 157 157 131 131 131 115 115 115 132 132 132 113 113 113 104 104 104 134 134 134 132 132 132 99 99 99 103 103 103 125 125 125 109 109 109 132 132 132 141 141 141 131 131 131 111 111 111 117 117 117 140 140 140 142 142 142 149 149 149 110 110 110 99 99 99 151 151 151 153 153 153 115 115 115 119 119 119 156 156 156 114 114 114 114 114 114 138 138 138 146 146 146 112 112 112 110 110 110 104 104 104 149 149 149 128 128 128 111 111 111 126 126 126 101 101 101 112 112 112 133 133 133 130 130 130 123 123 123 106 106 106 114 114 114 158 158 158 119 119 119 134 134 134 139 139 139 104 104 104 124 124 124 153 153 153 106 106 106 118 118 118 149 149 149 125 125 125 142 142 142 148 148 148 144 144 144 158 158 158 127 127 127 131 131 131 113 113 113 142 142 142 139 139 139 105 105 105 111 111 111 152 152 152 133 133 133 116 116 116 105 105 105 107 107 107 150 150 150 132 132 132 
115 115 115 105 105 105 132 132 132 138 138 138 143 143 143 114 114 114 145 145 145 110 110 110 111 111 111 155 155 155 131 131 131 101 101 101 123 123 123 114 114 114 152 152 152 108 108 108 113 113 113 122 122 122 143 143 143 130 130 130 107 107 107 124 124 124 138 138 138 122 122 122 119 119 119 112 112 112 140 140 140 127 127 127 122 122 122 131 131 131 102 102 102 141 141 141 141 141 141 138 138 138 123 123 123 125 125 125 157 157 157 111 111 111 138 138 138 109 109 109 107 107 107 110 110 110 114 114 114 134 134 134 128 128 128 109 109 109 145 145 145 143 143 143 134 134 134 131 131 131 114 114 114 143 143 143 98 98 98 156 156 156 109 109 109 120 120 120 110 110 110 151 151 151 151 151 151 136 136 136 126 126 126 157 157 157 118 118 118 108 108 108 137 137 137 145 145 145 137 137 137 137 137 137 158 158 158 116 116 116 148 148 148 108 108 108 130 130 130 103 103 103 145 145 145 99 99 99 115 115 115 133 133 133 146 146 146 153 153 153 105 105 105 104 104 104 139 139 139 108 108 108 101 101 101 150 150 150 132 132 132 115 115 115 145 145 145 124 124 124 153 153 153 112 112 112 122 122 122 115 115 115 124 124 124 102 102 102 101 101 101 104 104 104 143 143 143 101 101 101 123 123 123 132 132 132 111 111 111 157 157 157 140 140 140 99 99 99 100 100 100 98 98 98 134 134 134 148 148 148 153 153 153 144 144 144 156 156 156 135 135 135 154 154 154 101 101 101 127 127 127 127 127 127 118 118 118 115 115 115 155 155 155 115 115 115 131 131 131 120 120 120 132 132 132 157 157 157 127 127 127 137 137 137 102 102 102 111 111 111 142 142 142 129 129 129 146 146 146 158 158 158 130 130 130 129 129 129 98 98 98 132 132 132 129 129 129 135 135 135 123 123 123 125 125 125 120 120 120 123 123 123 103 103 103 117 117 117 126 126 126 134 134 134 148 148 148 146 146 146 151 151 151 144 144 144 102 102 102 123 123 123 107 107 107 138 138 138 123 123 123 136 136 136 117 117 117 128 128 128 150 150 150 100 100 100 100 100 100 139 139 139 99 99 99 132 132 132 109 109 109 102 102 102 107 107 107 142 142 142 139 139 139 133 133 133 110 110 110 102 102 102 158 158 158 115 115 115 123 123 123 127 127 127 152 152 152 112 112 112 116 116 116 144 144 144 99 99 99 123 123 123 111 111 111 108 108 108 102 102 102 136 136 136 149 149 149 123 123 123 107 107 107 140 140 140 128 128 128 110 110 110 122 122 122 129 129 129 146 146 146 133 133 133 135 135 135 158 158 158 
118 118 118 115 115 115 134 134 134 130 130 130 121 121 121 135 135 135 147 147 147 148 148 148 103 103 103 142 142 142 101 101 101 121 121 121 130 130 130 104 104 104 146 146 146 143 143 143 117 117 117 151 151 151 120 120 120 107 107 107 117 117 117 132 132 132 149 149 149 147 147 147 146 146 146 112 112 112 120 120 120 133 133 133 149 149 149 157 157 157 134 134 134 110 110 110 116 116 116 109 109 109 142 142 142 139 139 139 146 146 146 132 132 132 131 131 131 151 151 151 116 116 116 134 134 134 114 114 114 150 150 150 143 143 143 103 103 103 134 134 134 101 101 101 158 158 158 158 158 158 110 110 110 117 117 117 131 131 131 102 102 102 105 105 105 118 118 118 118 118 118 127 127 127 156 156 156 110 110 110 126 126 126 131 131 131 122 122 122 144 144 144 143 143 143 105 105 105 126 126 126 132 132 132 141 141 141 98 98 98 125 125 125 100 100 100 137 137 137 143 143 143 152 152 152 121 121 121 148 148 148 129 129 129 126 126 126 148 148 148 129 129 129 140 140 140 106 106 106 103 103 103 144 144 144 113 113 113 124 124 124 105 105 105 145 145 145 123 123 123 119 119 119 112 112 112 156 156 156 143 143 143 99 99 99 142 142 142 152 152 152 129 129 129 116 116 116 136 136 136 132 132 132 145 145 145 139 139 139 110 110 110 129 129 129 132 132 132 135 135 135 120 120 120 103 103 103 102 102 102 109 109 109 136 136 136 146 146 146 119 119 119 141 141 141 131 131 131 137 137 137 106 106 106 140 140 140 123 123 123 131 131 131 100 100 100 139 139 139 131 131 131 147 147 147 142 142 142 116 116 116 140 140 140 112 112 112 134 134 134 117 117 117 146 146 146 122 122 122 99 99 99 99 99 99 153 153 153 134 134 134 136 136 136 117 117 117 141 141 141 142 142 142 130 130 130 118 118 118 129 129 129 154 154 154 100 100 100 103 103 103 132 132 132 111 111 111 147 147 147 98 98 98 146 146 146 151 151 151 141 141 141 120 120 120 139 139 139 124 124 124 139 139 139 122 122 122 140 140 140 116 116 116 144 144 144 130 130 130 141 141 141 145 145 145 131 131 131 137 137 137 122 122 122 111 111 111 156 156 156 104 104 104 155 155 155 130 130 130 126 126 126 128 128 128 125 125 125 129 129 129 135 135 135 100 100 100 144 144 144 124 124 124 100 100 100 131 131 131 116 116 116 145 145 145 156 156 156 99 99 99 110 110 110 136 136 136 123 123 123 154 154 154 154 154 154 108 108 108 125 125 125 136 136 136 158 158 158 98 98 98 117 117 117 121 121 121 113 113 113 
116 116 116 130 130 130 109 109 109 148 148 148 158 158 158 141 141 141 114 114 114 130 130 130 118 118 118 116 116 116 117 117 117 146 146 146 120 120 120 153 153 153 105 105 105 106 106 106 150 150 150 106 106 106 120 120 120 127 127 127 134 134 134 116 116 116 124 124 124 144 144 144 145 145 145 104 104 104 145 145 145 145 145 145 123 123 123 110 110 110 101 101 101 141 141 141 142 142 142 115 115 115 131 131 131 143 143 143 158 158 158 149 149 149 117 117 117 119 119 119 107 107 107 138 138 138 108 108 108 131 131 131 132 132 132 116 116 116 140 140 140 123 123 123 126 126 126 101 101 101 154 154 154 101 101 101 121 121 121 120 120 120 150 150 150 108 108 108 126 126 126 136 136 136 157 157 157 151 151 151 148 148 148 100 100 100 135 135 135 133 133 133 117 117 117 109 109 109 120 120 120 118 118 118 100 100 100 141 141 141 140 140 140 111 111 111 120 120 120 150 150 150 144 144 144 157 157 157 109 109 109 125 125 125 121 121 121 138 138 138 131 131 131 119 119 119 141 141 141 156 156 156 141 141 141 134 134 134 105 105 105 110 110 110 112 112 112 106 106 106 102 102 102 103 103 103 108 108 108 141 141 141 141 141 141 127 127 127 153 153 153 102 102 102 147 147 147 155 155 155 147 147 147 130 130 130 107 107 107 110 110 110 124 124 124 155 155 155 108 108 108 137 137 137 124 124 124 134 134 134 118 118 118 157 157 157 155 155 155 101 101 101 154 154 154 137 137 137 139 139 139 103 103 103 149 149 149 153 153 153 111 111 111 155 155 155 100 100 100 121 121 121 137 137 137 143 143 143 152 152 152 131 131 131 149 149 149 142 142 142 129 129 129 137 137 137 116 116 116 140 140 140 151 151 151 142 142 142 137 137 137 101 101 101 122 122 122 102 102 102 137 137 137 143 143 143 102 102 102 133 133 133 148 148 148 99 99 99 113 113 113 128 128 128 104 104 104 105 105 105 123 123 123 119 119 119 103 103 103 125 125 125 142 142 142 144 144 144 111 111 111 137 137 137 119 119 119 101 101 101 123 123 123 150 150 150 142 142 142 141 141 141 134 134 134 134 134 134 126 126 126 112 112 112 139 139 139 150 150 150 118 118 118 117 117 117 136 136 136 122 122 122 154 154 154 125 125 125 123 123 123 110 110 110 156 156 156 130 130 130 119 119 119 122 122 122 151 151 151 124 124 124 151 151 151 137 137 137 110 110 110 103 103 103 117 117 117 133 133 133 108 108 108 142 142 142 126 126 126 154 154 154 126 126 126 101 101 101 129 129 129 156 156 156 115 115 115 110 110 110 
148 148 148 135 135 135 131 131 131 125 125 125 100 100 100 127 127 127 155 155 155 126 126 126 141 141 141 152 152 152 99 99 99 102 102 102 115 115 115 154 154 154 128 128 128 107 107 107 134 134 134 142 142 142 114 114 114 154 154 154 118 118 118 124 124 124 139 139 139 147 147 147 119 119 119 109 109 109 150 150 150 152 152 152 106 106 106 109 109 109 105 105 105 158 158 158 148 148 148 139 139 139 125 125 125 151 151 151 109 109 109 121 121 121 118 118 118 152 152 152 116 116 116 121 121 121 158 158 158 133 133 133 116 116 116 130 130 130 144 144 144 153 153 153 113 113 113 101 101 101 150 150 150 134 134 134 129 129 129 132 132 132 124 124 124 150 150 150 143 143 143 115 115 115 145 145 145 152 152 152 126 126 126 153 153 153 151 151 151 116 116 116 135 135 135 119 119 119 110 110 110 146 146 146 144 144 144 132 132 132 141 141 141 101 101 101 155 155 155 141 141 141 138 138 138 112 112 112 112 112 112 125 125 125 108 108 108 129 129 129 128 128 128 101 101 101 106 106 106 98 98 98 136 136 136 132 132 132 152 152 152 120 120 120 152 152 152 139 139 139 115 115 115 121 121 121 135 135 135 108 108 108 141 141 141 111 111 111 131 131 131 153 153 153 100 100 100 117 117 117 126 126 126 145 145 145 120 120 120 122 122 122 129 129 129 102 102 102 139 139 139 145 145 145 129 129 129 151 151 151 116 116 116 101 101 101 155 155 155 126 126 126 101 101 101 132 132 132 102 102 102 158 158 158 156 156 156 158 158 158 140 140 140 113 113 113 120 120 120 116 116 116 125 125 125 103 103 103 131 131 131 158 158 158 158 158 158 135 135 135 116 116 116 128 128 128 123 123 123 141 141 141 154 154 154 155 155 155 145 145 145 134 134 134 141 141 141 117 117 117 127 127 127 100 100 100 120 120 120 123 123 123 131 131 131 126 126 126 98 98 98 135 135 135 127 127 127 156 156 156 134 134 134 108 108 108 112 112 112 158 158 158 128 128 128 139 139 139 102 102 102 102 102 102 139 139 139 104 104 104 139 139 139 157 157 157 134 134 134 105 105 105 141 141 141 131 131 131 101 101 101 129 129 129 107 107 107 145 145 145 149 149 149 138 138 138 149 149 149 112 112 112 104 104 104 121 121 121 142 142 142 104 104 104 99 99 99 110 110 110 103 103 103 137 137 137 122 122 122 118 118 118 137 137 137 154 154 154 98 98 98 143 143 143 158 158 158 141 141 141 149 149 149 140 140 140 142 142 142 126 126 126 148 148 148 124 124 124 99 99 99 151 151 151 156 156 156 110 110 110 
139 139 139 148 148 148 150 150 150 132 132 132 101 101 101 156 156 156 155 155 155 148 148 148 103 103 103 98 98 98 101 101 101 108 108 108 139 139 139 126 126 126 128 128 128 117 117 117 121 121 121 131 131 131 102 102 102 123 123 123 113 113 113 155 155 155 104 104 104 157 157 157 125 125 125 156 156 156 123 123 123 128 128 128 149 149 149 122 122 122 140 140 140 131 131 131 111 111 111 133 133 133 104 104 104 116 116 116 130 130 130 103 103 103 107 107 107 137 137 137 105 105 105 111 111 111 147 147 147 146 146 146 141 141 141 119 119 119 107 107 107 103 103 103 152 152 152 111 111 111 130 130 130 106 106 106 109 109 109 137 137 137 107 107 107 136 136 136 134 134 134 134 134 134 105 105 105 126 126 126 158 158 158 147 147 147 101 101 101 112 112 112 123 123 123 107 107 107 130 130 130 157 157 157 114 114 114 142 142 142 135 135 135 123 123 123 155 155 155 124 124 124 111 111 111 137 137 137 145 145 145 120 120 120 144 144 144 138 138 138 135 135 135 116 116 116 148 148 148 146 146 146 157 157 157 157 157 157 126 126 126 132 132 132 132 132 132 133 133 133 102 102 102 133 133 133 124 124 124 105 105 105 147 147 147 149 149 149 116 116 116 121 121 121 148 148 148 135 135 135 104 104 104 124 124 124 99 99 99 102 102 102 152 152 152 114 114 114 141 141 141 138 138 138 136 136 136 126 126 126 119 119 119 114 114 114 146 146 146 111 111 111 102 102 102 144 144 144 109 109 109 130 130 130 120 120 120 146 146 146 106 106 106 124 124 124 120 120 120 134 134 134 133 133 133 111 111 111 125 125 125 151 151 151 134 134 134 116 116 116 127 127 127 142 142 142 144 144 144 131 131 131 146 146 146 138 138 138 147 147 147 130 130 130 119 119 119 125 125 125 99 99 99 143 143 143 143 143 143 148 148 148 156 156 156 147 147 147 133 133 133 108 108 108 120 120 120 155 155 155 156 156 156 131 131 131 122 122 122 120 120 120 106 106 106 157 157 157 133 133 133 133 133 133 150 150 150 110 110 110 153 153 153 120 120 120 156 156 156 139 139 139 153 153 153 145 145 145 120 120 120 144 144 144 116 116 116 141 141 141 112 112 112 117 117 117 125 125 125 157 157 157 108 108 108 124 124 124 148 148 148 144 144 144 135 135 135 109 109 109 142 142 142 132 132 132 142 142 142 108 108 108 156 156 156 153 153 153 106 106 106 130 130 130 129 129 129 99 99 99 144 144 144 124 124 124 124 124 124 143 143 143 106 106 106 120 120 120 129 129 129 128 128 128 105 105 105 147 147 147 
112 112 112 119 119 119 108 108 108 142 142 142 118 118 118 118 118 118 107 107 107 107 107 107 105 105 105 144 144 144 120 120 120 152 152 152 118 118 118 106 106 106 101 101 101 115 115 115 100 100 100 111 111 111 150 150 150 131 131 131 113 113 113 137 137 137 157 157 157 141 141 141 122 122 122 106 106 106 102 102 102 155 155 155 136 136 136 110 110 110 146 146 146 151 151 151 133 133 133 156 156 156 134 134 134 155 155 155 117 117 117 143 143 143 105 105 105 125 125 125 129 129 129 128 128 128 118 118 118 151 151 151 138 138 138 123 123 123 109 109 109 140 140 140 136 136 136 102 102 102 114 114 114 153 153 153 142 142 142 115 115 115 135 135 135 107 107 107 123 123 123 140 140 140 103 103 103 101 101 101 154 154 154 153 153 153 156 156 156 130 130 130 150 150 150 133 133 133 127 127 127 109 109 109 117 117 117 134 134 134 138 138 138 150 150 150 105 105 105 99 99 99 144 144 144 145 145 145 124 124 124 156 156 156 128 128 128 101 101 101 99 99 99 145 145 145 98 98 98 145 145 145 101 101 101 135 135 135 156 156 156 128 128 128 118 118 118 103 103 103 133 133 133 113 113 113 158 158 158 130 130 130 146 146 146 152 152 152 104 104 104 116 116 116 102 102 102 126 126 126 152 152 152 144 144 144 117 117 117 99 99 99 145 145 145 105 105 105 148 148 148 110 110 110 102 102 102 118 118 118 115 115 115 105 105 105 106 106 106 115 115 115 155 155 155 111 111 111 153 153 153 154 154 154 141 141 141 112 112 112 98 98 98 116 116 116 130 130 130 100 100 100 150 150 150 119 119 119 154 154 154 157 157 157 137 137 137 158 158 158 126 126 126 132 132 132 143 143 143 145 145 145 135 135 135 131 131 131 152 152 152 125 125 125 143 143 143 158 158 158 147 147 147 99 99 99 107 107 107 155 155 155 119 119 119 103 103 103 107 107 107 113 113 113 98 98 98 150 150 150 129 129 129 101 101 101 109 109 109 102 102 102 103 103 103 101 101 101 123 123 123 98 98 98 101 101 101 103 103 103 99 99 99 129 129 129 138 138 138 146 146 146 117 117 117 116 116 116 118 118 118 113 113 113 145 145 145 104 104 104 112 112 112 133 133 133 105 105 105 123 123 123 129 129 129 128 128 128 128 128 128 140 140 140 143 143 143 131 131 131 134 134 134 116 116 116 136 136 136 145 145 145 120 120 120 141 141 141 150 150 150 148 148 148 143 143 143 153 153 153 155 155 155 144 144 144 125 125 125 136 136 136 133 133 133 145 145 145 155 155 155 153 153 153 99 99 99 141 141 141 
98 98 98 115 115 115 118 118 118 107 107 107 141 141 141 149 149 149 138 138 138 112 112 112 133 133 133 124 124 124 147 147 147 108 108 108 144 144 144 126 126 126 157 157 157 108 108 108 108 108 108 149 149 149 158 158 158 155 155 155 145 145 145 156 156 156 140 140 140 112 112 112 134 134 134 114 114 114 100 100 100 130 130 130 110 110 110 103 103 103 114 114 114 110 110 110 122 122 122 134 134 134 122 122 122 104 104 104 127 127 127 103 103 103 121 121 121 101 101 101 129 129 129 111 111 111 113 113 113 115 115 115 140 140 140 111 111 111 127 127 127 152 152 152 101 101 101 128 128 128 149 149 149 149 149 149 125 125 125 130 130 130 104 104 104 100 100 100 149 149 149 106 106 106 134 134 134 102 102 102 113 113 113 151 151 151 115 115 115 137 137 137 128 128 128 141 141 141 146 146 146 157 157 157 146 146 146 108 108 108 101 101 101 118 118 118 123 123 123 118 118 118 137 137 137 104 104 104 132 132 132 105 105 105 100 100 100 135 135 135 135 135 135 151 151 151 127 127 127 102 102 102 124 124 124 135 135 135 104 104 104 116 116 116 145 145 145 141 141 141 121 121 121 99 99 99 135 135 135 140 140 140 141 141 141 104 104 104 122 122 122 128 128 128 105 105 105 109 109 109 140 140 140 110 110 110 131 131 131 104 104 104 131 131 131 110 110 110 113 113 113 104 104 104 117 117 117 117 117 117 143 143 143 155 155 155 109 109 109 114 114 114 100 100 100 135 135 135 153 153 153 108 108 108 156 156 156 140 140 140 151 151 151 118 118 118 143 143 143 129 129 129 99 99 99 125 125 125 138 138 138 123 123 123 157 157 157 145 145 145 136 136 136 138 138 138 98 98 98 108 108 108 147 147 147 131 131 131 120 120 120 103 103 103 139 139 139 142 142 142 122 122 122 126 126 126 140 140 140 133 133 133 142 142 142 142 142 142 111 111 111 138 138 138 152 152 152 108 108 108 119 119 119 147 147 147 128 128 128 106 106 106 119 119 119 131 131 131 135 135 135 98 98 98 156 156 156 134 134 134 147 147 147 135 135 135 115 115 115 148 148 148 146 146 146 105 105 105 122 122 122 109 109 109 110 110 110 103 103 103 153 153 153 134 134 134 131 131 131 134 134 134 110 110 110 116 116 116 119 119 119 126 126 126 156 156 156 113 113 113 138 138 138 119 119 119 103 103 103 110 110 110 129 129 129 124 124 124 143 143 143 107 107 107 125 125 125 143 143 143 145 145 145 113 113 113 119 119 119 102 102 102 104 104 104 108 108 108 109 109 109 129 129 129 120 120 120 124 124 124 
136 136 136 114 114 114 99 99 99 110 110 110 153 153 153 114 114 114 128 128 128 113 113 113 144 144 144 127 127 127 130 130 130 123 123 123 150 150 150 137 137 137 135 135 135 122 122 122 103 103 103 122 122 122 132 132 132 132 132 132 106 106 106 118 118 118 147 147 147 127 127 127 122 122 122 156 156 156 138 138 138 136 136 136 126 126 126 101 101 101 101 101 101 105 105 105 119 119 119 104 104 104 117 117 117 113 113 113 122 122 122 149 149 149 131 131 131 107 107 107 117 117 117 104 104 104 133 133 133 111 111 111 144 144 144 111 111 111 135 135 135 149 149 149 135 135 135 108 108 108 122 122 122 143 143 143 131 131 131 112 112 112 114 114 114 157 157 157 111 111 111 156 156 156 134 134 134 139 139 139 98 98 98 139 139 139 146 146 146 119 119 119 146 146 146 106 106 106 137 137 137 109 109 109 157 157 157 111 111 111 119 119 119 118 118 118 117 117 117 156 156 156 131 131 131 102 102 102 108 108 108 109 109 109 155 155 155 148 148 148 122 122 122 120 120 120 134 134 134 155 155 155 137 137 137 152 152 152 153 153 153 150 150 150 149 149 149 131 131 131 133 133 133 151 151 151 111 111 111 122 122 122 114 114 114 100 100 100 131 131 131 153 153 153 114 114 114 129 129 129 105 105 105 137 137 137 149 149 149 126 126 126 136 136 136 121 121 121 131 131 131 148 148 148 135 135 135 129 129 129 137 137 137 98 98 98 152 152 152 113 113 113 155 155 155 130 130 130 108 108 108 151 151 151 121 121 121 99 99 99 125 125 125 158 158 158 152 152 152 141 141 141 122 122 122 107 107 107 145 145 145 155 155 155 103 103 103 100 100 100 125 125 125 112 112 112 141 141 141 118 118 118 141 141 141 118 118 118 141 141 141 115 115 115 108 108 108 119 119 119 146 146 146 149 149 149 119 119 119 141 141 141 105 105 105 117 117 117 114 114 114 116 116 116 112 112 112 138 138 138 117 117 117 139 139 139 137 137 137 112 112 112 121 121 121 100 100 100 124 124 124 108 108 108 98 98 98 131 131 131 112 112 112 126 126 126 146 146 146 156 156 156 146 146 146 130 130 130 117 117 117 130 130 130 149 149 149 127 127 127 154 154 154 138 138 138 118 118 118 114 114 114 121 121 121 125 125 125 136 136 136 137 137 137 145 145 145 150 150 150 118 118 118 105 105 105 130 130 130 99 99 99 122 122 122 156 156 156 103 103 103 148 148 148 107 107 107 104 104 104 122 122 122 121 121 121 134 134 134 111 111 111 120 120 120 123 123 123 143 143 143 140 140 140 157 157 157 133 133 133 
108 108 108 152 152 152 113 113 113 130 130 130 108 108 108 138 138 138 99 99 99 146 146 146 116 116 116 146 146 146 139 139 139 139 139 139 156 156 156 110 110 110 140 140 140 119 119 119 109 109 109 145 145 145 110 110 110 118 118 118 153 153 153 134 134 134 144 144 144 128 128 128 148 148 148 105 105 105 153 153 153 134 134 134 147 147 147 152 152 152 111 111 111 99 99 99 147 147 147 128 128 128 131 131 131 157 157 157 107 107 107 134 134 134 146 146 146 127 127 127 124 124 124 128 128 128 107 107 107 121 121 121 141 141 141 151 151 151 142 142 142 154 154 154 138 138 138 154 154 154 114 114 114 132 132 132 129 129 129 101 101 101 104 104 104 120 120 120 108 108 108 98 98 98 157 157 157 158 158 158 154 154 154 111 111 111 100 100 100 143 143 143 141 141 141 133 133 133 143 143 143 152 152 152 111 111 111 133 133 133 120 120 120 137 137 137 102 102 102 132 132 132 101 101 101 147 147 147 124 124 124 145 145 145 143 143 143 103 103 103 142 142 142 100 100 100 140 140 140 112 112 112 105 105 105 146 146 146 137 137 137 115 115 115 148 148 148 137 137 137 116 116 116 146 146 146 150 150 150 118 118 118 130 130 130 134 134 134 156 156 156 116 116 116 127 127 127 108 108 108 151 151 151 149 149 149 149 149 149 158 158 158 124 124 124 152 152 152 146 146 146 151 151 151 138 138 138 132 132 132 158 158 158 123 123 123 136 136 136 141 141 141 137 137 137 143 143 143 128 128 128 117 117 117 102 102 102 120 120 120 156 156 156 120 120 120 107 107 107 149 149 149 141 141 141 141 141 141 124 124 124 138 138 138 98 98 98 153 153 153 150 150 150 154 154 154 146 146 146 140 140 140 155 155 155 111 111 111 133 133 133 144 144 144 103 103 103 114 114 114 120 120 120 105 105 105 139 139 139 99 99 99 148 148 148 119 119 119 145 145 145 120 120 120 141 141 141 151 151 151 142 142 142 138 138 138 112 112 112 153 153 153 129 129 129 155 155 155 135 135 135 157 157 157 136 136 136 137 137 137 152 152 152 127 127 127 134 134 134 139 139 139 110 110 110 130 130 130 152 152 152 147 147 147 118 118 118 99 99 99 104 104 104 140 140 140 108 108 108 147 147 147 141 141 141 158 158 158 108 108 108 129 129 129 119 119 119 153 153 153 121 121 121 104 104 104 132 132 132 136 136 136 100 100 100 104 104 104 134 134 134 137 137 137 103 103 103 114 114 114 118 118 118 98 98 98 143 143 143 156 156 156 139 139 139 158 158 158 130 130 130 134 134 134 146 146 146 150 150 150 
137 137 137 153 153 153 131 131 131 147 147 147 141 141 141 115 115 115 147 147 147 153 153 153 147 147 147 109 109 109 147 147 147 109 109 109 118 118 118 123 123 123 147 147 147 120 120 120 131 131 131 125 125 125 101 101 101 138 138 138 141 141 141 123 123 123 138 138 138 127 127 127 120 120 120 120 120 120 126 126 126 152 152 152 98 98 98 116 116 116 143 143 143 139 139 139 112 112 112 117 117 117 128 128 128 155 155 155 135 135 135 118 118 118 152 152 152 123 123 123 131 131 131 142 142 142 136 136 136 153 153 153 106 106 106 127 127 127 115 115 115 142 142 142 154 154 154 120 120 120 121 121 121 138 138 138 145 145 145 103 103 103 106 106 106 108 108 108 127 127 127 137 137 137 102 102 102 129 129 129 155 155 155 149 149 149 110 110 110 110 110 110 108 108 108 142 142 142 106 106 106 147 147 147 101 101 101 101 101 101 113 113 113 136 136 136 146 146 146 151 151 151 131 131 131 156 156 156 119 119 119 150 150 150 139 139 139 116 116 116 111 111 111 104 104 104 156 156 156 158 158 158 111 111 111 104 104 104 109 109 109 140 140 140 145 145 145 113 113 113 113 113 113 143 143 143 106 106 106 125 125 125 155 155 155 118 118 118 108 108 108 104 104 104 106 106 106 113 113 113 108 108 108 121 121 121 151 151 151 158 158 158 115 115 115 123 123 123 155 155 155 137 137 137 114 114 114 138 138 138 155 155 155 129 129 129 146 146 146 155 155 155 130 130 130 98 98 98 100 100 100 142 142 142 142 142 142 149 149 149 157 157 157 157 157 157 133 133 133 104 104 104 123 123 123 129 129 129 126 126 126 135 135 135 135 135 135 134 134 134 150 150 150 145 145 145 98 98 98 143 143 143 144 144 144 116 116 116 109 109 109 143 143 143 157 157 157 128 128 128 124 124 124 155 155 155 98 98 98 111 111 111 151 151 151 131 131 131 111 111 111 155 155 155 114 114 114 157 157 157 145 145 145 114 114 114 156 156 156 119 119 119 123 123 123 122 122 122 150 150 150 151 151 151 101 101 101 127 127 127 129 129 129 153 153 153 115 115 115 129 129 129 139 139 139 103 103 103 149 149 149 153 153 153 148 148 148 149 149 149 124 124 124 113 113 113 146 146 146 124 124 124 128 128 128 140 140 140 98 98 98 141 141 141 137 137 137 116 116 116 141 141 141 125 125 125 135 135 135 140 140 140 147 147 147 99 99 99 104 104 104 140 140 140 154 154 154 109 109 109 110 110 110 124 124 124 105 105 105 128 128 128 158 158 158 147 147 147 133 133 133 150 150 150 143 143 143 124 124 124 
141 141 141 108 108 108 141 141 141 130 130 130 136 136 136 110 110 110 111 111 111 137 137 137 155 155 155 152 152 152 155 155 155 137 137 137 119 119 119 131 131 131 119 119 119 107 107 107 134 134 134 127 127 127 151 151 151 130 130 130 140 140 140 103 103 103 158 158 158 147 147 147 133 133 133 157 157 157 135 135 135 109 109 109 149 149 149 121 121 121 137 137 137 133 133 133 131 131 131 119 119 119 104 104 104 111 111 111 133 133 133 119 119 119 150 150 150 131 131 131 113 113 113 148 148 148 111 111 111 134 134 134 123 123 123 134 134 134 145 145 145 98 98 98 102 102 102 137 137 137 132 132 132 144 144 144 142 142 142 132 132 132 135 135 135 118 118 118 132 132 132 113 113 113 129 129 129 124 124 124 137 137 137 107 107 107 98 98 98 111 111 111 130 130 130 106 106 106 124 124 124 106 106 106 128 128 128 115 115 115 139 139 139 143 143 143 107 107 107 153 153 153 120 120 120 132 132 132 128 128 128 108 108 108 132 132 132 135 135 135 147 147 147 108 108 108 122 122 122 133 133 133 142 142 142 98 98 98 153 153 153 117 117 117 114 114 114 126 126 126 144 144 144 155 155 155 135 135 135 146 146 146 107 107 107 109 109 109 155 155 155 136 136 136 117 117 117 126 126 126 155 155 155 100 100 100 112 112 112 103 103 103 157 157 157 136 136 136 137 137 137 128 128 128 146 146 146 113 113 113 106 106 106 136 136 136 123 123 123 131 131 131 110 110 110 108 108 108 133 133 133 107 107 107 127 127 127 151 151 151 135 135 135 114 114 114 149 149 149 113 113 113 102 102 102 98 98 98 126 126 126 100 100 100 138 138 138 148 148 148 128 128 128 134 134 134 150 150 150 144 144 144 140 140 140 148 148 148 121 121 121 120 120 120 117 117 117 108 108 108 135 135 135 126 126 126 146 146 146 101 101 101 100 100 100 100 100 100 113 113 113 137 137 137 109 109 109 145 145 145 132 132 132 148 148 148 100 100 100 122 122 122 104 104 104 106 106 106 124 124 124 133 133 133 110 110 110 103 103 103 122 122 122 142 142 142 140 140 140 113 113 113 127 127 127 123 123 123 104 104 104 150 150 150 145 145 145 125 125 125 101 101 101 124 124 124 155 155 155 152 152 152 127 127 127 98 98 98 154 154 154 143 143 143 138 138 138 106 106 106 129 129 129 111 111 111 156 156 156 133 133 133 137 137 137 101 101 101 144 144 144 103 103 103 138 138 138 156 156 156 108 108 108 101 101 101 140 140 140 152 152 152 118 118 118 110 110 110 116 116 116 124 124 124 102 102 102 103 103 103 
154 154 154 107 107 107 129 129 129 150 150 150 100 100 100 99 99 99 151 151 151 156 156 156 144 144 144 132 132 132 105 105 105 116 116 116 145 145 145 104 104 104 154 154 154 125 125 125 110 110 110 139 139 139 130 130 130 150 150 150 136 136 136 143 143 143 154 154 154 119 119 119 136 136 136 115 115 115 132 132 132 155 155 155 142 142 142 138 138 138 101 101 101 139 139 139 147 147 147 132 132 132 130 130 130 150 150 150 133 133 133 124 124 124 149 149 149 121 121 121 158 158 158 98 98 98 141 141 141 146 146 146 104 104 104 136 136 136 113 113 113 116 116 116 118 118 118 147 147 147 108 108 108 98 98 98 131 131 131 105 105 105 119 119 119 109 109 109 122 122 122 155 155 155 107 107 107 107 107 107 134 134 134 110 110 110 148 148 148 125 125 125 146 146 146 122 122 122 118 118 118 122 122 122 150 150 150 110 110 110 145 145 145 150 150 150 110 110 110 130 130 130 139 139 139 117 117 117 109 109 109 154 154 154 137 137 137 130 130 130 143 143 143 149 149 149 130 130 130 115 115 115 156 156 156 153 153 153 128 128 128 122 122 122 150 150 150 137 137 137 133 133 133 127 127 127 149 149 149 125 125 125 156 156 156 138 138 138 151 151 151 117 117 117 102 102 102 142 142 142 130 130 130 149 149 149 133 133 133 144 144 144 122 122 122 114 114 114 102 102 102 134 134 134 111 111 111 144 144 144 105 105 105 158 158 158 134 134 134 139 139 139 117 117 117 132 132 132 133 133 133 147 147 147 158 158 158 126 126 126 128 128 128 132 132 132 158 158 158 120 120 120 100 100 100 157 157 157 100 100 100 153 153 153 116 116 116 104 104 104 137 137 137 148 148 148 157 157 157 113 113 113 133 133 133 121 121 121 129 129 129 140 140 140 157 157 157 145 145 145 125 125 125 105 105 105 144 144 144 100 100 100 146 146 146 102 102 102 136 136 136 122 122 122 154 154 154 137 137 137 153 153 153 123 123 123 113 113 113 154 154 154 145 145 145 115 115 115 152 152 152 147 147 147 110 110 110 109 109 109 155 155 155 151 151 151 100 100 100 154 154 154 105 105 105 138 138 138 116 116 116 139 139 139 121 121 121 116 116 116 125 125 125 150 150 150 125 125 125 112 112 112 152 152 152 112 112 112 119 119 119 132 132 132 138 138 138 114 114 114 112 112 112 134 134 134 141 141 141 127 127 127 129 129 129 129 129 129 145 145 145 123 123 123 120 120 120 98 98 98 136 136 136 116 116 116 153 153 153 139 139 139 113 113 113 99 99 99 120 120 120 133 133 133 140 140 140 143 143 143 
151 151 151 108 108 108 134 134 134 117 117 117 123 123 123 129 129 129 133 133 133 146 146 146 104 104 104 115 115 115 101 101 101 119 119 119 151 151 151 146 146 146 150 150 150 122 122 122 116 116 116 136 136 136 149 149 149 138 138 138 138 138 138 126 126 126 98 98 98 132 132 132 108 108 108 113 113 113 136 136 136 130 130 130 149 149 149 117 117 117 116 116 116 141 141 141 130 130 130 154 154 154 102 102 102 155 155 155 127 127 127 139 139 139 144 144 144 133 133 133 156 156 156 149 149 149 156 156 156 149 149 149 136 136 136 148 148 148 114 114 114 154 154 154 127 127 127 104 104 104 136 136 136 109 109 109 134 134 134 136 136 136 143 143 143 145 145 145 151 151 151 120 120 120 118 118 118 143 143 143 142 142 142 139 139 139 128 128 128 113 113 113 134 134 134 132 132 132 111 111 111 104 104 104 114 114 114 157 157 157 142 142 142 112 112 112 147 147 147 139 139 139 104 104 104 126 126 126 130 130 130 122 122 122 123 123 123 99 99 99 128 128 128 100 100 100 112 112 112 103 103 103 140 140 140 98 98 98 152 152 152 135 135 135 121 121 121 112 112 112 119 119 119 106 106 106 153 153 153 151 151 151 123 123 123 130 130 130 126 126 126 138 138 138 137 137 137 143 143 143 136 136 136 120 120 120 98 98 98 126 126 126 102 102 102 106 106 106 156 156 156 135 135 135 130 130 130 120 120 120 138 138 138 101 101 101 125 125 125 152 152 152 108 108 108 108 108 108 152 152 152 102 102 102 145 145 145 116 116 116 116 116 116 108 108 108 126 126 126 112 112 112 100 100 100 151 151 151 144 144 144 129 129 129 130 130 130 124 124 124 115 115 115 109 109 109 146 146 146 115 115 115 139 139 139 153 153 153 123 123 123 136 136 136 129 129 129 155 155 155 100 100 100 110 110 110 99 99 99 127 127 127 103 103 103 109 109 109 137 137 137 98 98 98 113 113 113 126 126 126 117 117 117 133 133 133 138 138 138 147 147 147 149 149 149 142 142 142 140 140 140 137 137 137 114 114 114 113 113 113 102 102 102 131 131 131 127 127 127 153 153 153 150 150 150 107 107 107 147 147 147 114 114 114 148 148 148 119 119 119 112 112 112 150 150 150 131 131 131 113 113 113 120 120 120 138 138 138 127 127 127 100 100 100 138 138 138 142 142 142 130 130 130 98 98 98 119 119 119 109 109 109 148 148 148 109 109 109 156 156 156 131 131 131 148 148 148 111 111 111 146 146 146 153 153 153 145 145 145 116 116 116 149 149 149 136 136 136 126 126 126 139 139 139 155 155 155 117 117 117 
99 99 99 110 110 110 110 110 110 134 134 134 128 128 128 134 134 134 115 115 115 157 157 157 136 136 136 157 157 157 140 140 140 110 110 110 158 158 158 100 100 100 123 123 123 149 149 149 114 114 114 120 120 120 123 123 123 103 103 103 134 134 134 112 112 112 99 99 99 122 122 122 131 131 131 150 150 150 101 101 101 100 100 100 130 130 130 99 99 99 119 119 119 131 131 131 112 112 112 131 131 131 108 108 108 144 144 144 108 108 108 125 125 125 142 142 142 148 148 148 124 124 124 125 125 125 99 99 99 125 125 125 130 130 130 125 125 125 117 117 117 146 146 146 149 149 149 142 142 142 151 151 151 124 124 124 158 158 158 155 155 155 150 150 150 130 130 130 146 146 146 154 154 154 132 132 132 118 118 118 155 155 155 155 155 155 153 153 153 110 110 110 129 129 129 105 105 105 156 156 156 139 139 139 132 132 132 141 141 141 129 129 129 99 99 99 108 108 108 132 132 132 128 128 128 142 142 142 98 98 98 147 147 147 129 129 129 152 152 152 132 132 132 123 123 123 117 117 117 134 134 134 119 119 119 111 111 111 105 105 105 109 109 109 106 106 106 142 142 142 129 129 129 104 104 104 140 140 140 125 125 125 119 119 119 111 111 111 134 134 134 118 118 118 154 154 154 108 108 108 101 101 101 124 124 124 111 111 111 113 113 113 100 100 100 142 142 142 98 98 98 100 100 100 132 132 132 129 129 129 156 156 156 108 108 108 156 156 156 115 115 115 144 144 144 119 119 119 130 130 130 153 153 153 130 130 130 140 140 140 138 138 138 102 102 102 146 146 146 120 120 120 131 131 131 108 108 108 135 135 135 107 107 107 131 131 131 130 130 130 119 119 119 136 136 136 98 98 98 132 132 132 151 151 151 102 102 102 117 117 117 153 153 153 104 104 104 154 154 154 125 125 125 104 104 104 103 103 103 122 122 122 121 121 121 151 151 151 145 145 145 155 155 155 147 147 147 118 118 118 136 136 136 127 127 127 124 124 124 125 125 125 151 151 151 158 158 158 136 136 136 127 127 127 108 108 108 108 108 108 100 100 100 129 129 129 148 148 148 102 102 102 104 104 104 140 140 140 106 106 106 126 126 126 136 136 136 115 115 115 121 121 121 102 102 102 121 121 121 128 128 128 126 126 126 146 146 146 122 122 122 115 115 115 142 142 142 110 110 110 135 135 135 119 119 119 141 141 141 101 101 101 148 148 148 133 133 133 102 102 102 125 125 125 103 103 103 112 112 112 137 137 137 108 108 108 143 143 143 126 126 126 112 112 112 151 151 151 109 109 109 123 123 123 118 118 118 147 147 147 
