P3
200 200
255
0 0 0 0 0 0 0 0 0 0 0 0 0 0 0 0 0 0 0 0 0 0 0 0 0 0 0 0 0 0 0 0 0 0 0 0 0 0 0 0 0 0 0 0 0 0 0 0 0 0 0 0 0 0 0 0 0 0 0 0 0 0 0 0 0 0 0 0 0 0 0 0 0 0 0 0 0 0 0 0 0 0 0 0 0 0 0 0 0 0 0 0 0 0 0 0 0 0 0 0 0 0 0 0 0 0 0 0 0 0 0 0 0 0 0 0 0 0 0 0 0 0 0 0 0 0 0 0 0 0 0 0 0 0 0 0 0 0 0 0 0 0 0 0 0 0 0 0 0 0 0 0 0 0 0 0 0 0 0 0 0 0 0 0 0 0 0 0 0 0 0 0 0 0 0 0 0 0 0 0 0 0 0 0 0 0 0 0 0 0 0 0 0 0 0 0 0 0 0 0 0 0 0 0 0 0 0 0 0 0 0 0 0 0 0 0 0 0 0 0 0 0 0 0 0 0 0 0 0 0 0 0 0 0 0 0 0 0 0 0 0 0 0 0 0 0 0 0 0 0 0 0 0 0 0 0 0 0 0 0 0 0 0 0 0 0 0 0 0 0 0 0 0 0 0 0 0 0 0 0 0 0 0 0 0 0 0 0 0 0 0 0 0 0 0 0 0 0 0 0 0 0 0 0 0 0 0 0 0 0 0 0 0 0 0 0 0 0 0 0 0 0 0 0 0 0 0 0 0 0 0 0 0 0 0 0 0 0 0 0 0 0 0 0 0 0 0 0 0 0 0 0 0 0 0 0 0 0 0 0 0 0 0 0 0 0 0 0 0 0 0 0 0 0 0 0 0 0 0 0 0 0 0 0 0 0 0 0 0 0 0 0 0 0 0 0 0 0 0 0 0 0 0 0 0 0 0 0 0 0 0 0 0 0 0 0 0 0 0 0 0 0 0 0 0 0 0 0 0 0 0 0 0 0 0 0 0 0 0 0 0 0 0 0 0 0 0 0 0 0 0 0 0 0 0 0 0 0 0 0 0 0 0 0 0 0 0 0 0 0 0 0 0 0 0 0 0 0 0 0 0 0 0 0 0 0 0 0 0 0 0 0 0 0 0 0 0 0 0 0 0 0 0 0 0 0 0 0 0 0 0 0 0 0 0 0 0 0 0 0 0 0 0 0 0 0 0 0 0 0 0 0 0 0 0 0 0 0 0 0 0 0 0 0 0 0 0 0 0 0 0 0 0 0 0 0 0 0 0 0 0 0 0 0 0 0 0 0 0 0 0 0 0 0 0 0 0 0 0 0 0 0 0 0 0 0 0 0 0 0 0 0 0 0 0 0 0 0 0 0 
0 0 0 134 134 134 135 135 135 136 136 136 131 131 131 127 127 127 124 124 124 119 119 119 120 120 120 125 125 125 128 128 128 126 126 126 120 120 120 120 120 120 128 128 128 129 129 129 114 114 114 113 113 113 129 129 129 135 135 135 128 128 128 124 124 124 122 122 122 123 123 123 127 127 127 135 135 135 143 143 143 145 145 145 138 138 138 131 131 131 132 132 132 128 128 128 127 127 127 129 129 129 123 123 123 116 116 116 117 117 117 123 123 123 123 123 123 117 117 117 117 117 117 120 120 120 120 120 120 118 118 118 124 124 124 129 129 129 120 120 120 115 115 115 123 123 123 127 127 127 120 120 120 116 116 116 119 119 119 123 123 123 128 128 128 127 127 127 119 119 119 122 122 122 130 130 130 131 131 131 130 130 130 131 131 131 129 129 129 127 127 127 126 126 126 128 128 128 135 135 135 135 135 135 132 132 132 134 134 134 141 141 141 138 138 138 125 125 125 115 115 115 117 117 117 122 122 122 117 117 117 118 118 118 126 126 126 128 128 128 125 125 125 119 119 119 122 122 122 129 129 129 134 134 134 139 139 139 134 134 134 124 124 124 126 126 126 133 133 133 124 124 124 118 118 118 130 130 130 133 133 133 122 122 122 118 118 118 123 123 123 125 125 125 122 122 122 117 117 117 122 122 122 129 129 129 128 128 128 131 131 131 132 132 132 126 126 126 122 122 122 122 122 122 124 124 124 129 129 129 128 128 128 123 123 123 130 130 130 138 138 138 129 129 129 122 122 122 132 132 132 132 132 132 127 127 127 131 131 131 134 134 134 128 128 128 123 123 123 126 126 126 130 130 130 129 129 129 128 128 128 135 135 135 135 135 135 127 127 127 121 121 121 123 123 123 129 129 129 130 130 130 132 132 132 134 134 134 128 128 128 127 127 127 129 129 129 122 122 122 119 119 119 123 123 123 126 126 126 126 126 126 127 127 127 128 128 128 118 118 118 109 109 109 118 118 118 129 129 129 129 129 129 129 129 129 133 133 133 132 132 132 132 132 132 133 133 133 126 126 126 122 122 122 122 122 122 120 120 120 127 127 127 135 135 135 127 127 127 117 117 117 118 118 118 124 124 124 132 132 132 135 135 135 128 128 128 120 120 120 119 119 119 124 124 124 119 119 119 118 118 118 123 123 123 120 120 120 120 120 120 125 125 125 129 129 129 130 130 130 131 131 131 134 134 134 140 140 140 141 141 141 132 132 132 127 127 127 128 128 128 127 127 127 130 130 130 131 131 131 128 128 128 125 125 125 120 120 120 121 121 121 135 135 135 142 142 142 142 142 142 141 141 141 135 135 135 0 0 0 
0 0 0 138 138 138 140 140 140 133 133 133 126 126 126 129 129 129 134 134 134 127 127 127 119 119 119 124 124 124 129 129 129 122 122 122 116 116 116 120 120 120 130 130 130 129 129 129 113 113 113 112 112 112 129 129 129 134 134 134 128 128 128 120 120 120 118 118 118 124 124 124 126 126 126 126 126 126 131 131 131 136 136 136 136 136 136 132 132 132 133 133 133 131 131 131 125 125 125 125 125 125 122 122 122 117 117 117 118 118 118 129 129 129 128 128 128 118 118 118 119 119 119 123 123 123 118 118 118 112 112 112 121 121 121 132 132 132 133 133 133 129 129 129 129 129 129 125 125 125 118 118 118 122 122 122 125 125 125 121 121 121 120 120 120 121 121 121 117 117 117 117 117 117 127 127 127 130 130 130 122 122 122 122 122 122 131 131 131 132 132 132 132 132 132 134 134 134 137 137 137 139 139 139 132 132 132 130 130 130 138 138 138 135 135 135 123 123 123 118 118 118 124 124 124 124 124 124 116 116 116 120 120 120 131 131 131 133 133 133 125 125 125 118 118 118 125 125 125 131 131 131 132 132 132 133 133 133 125 125 125 118 118 118 127 127 127 133 133 133 122 122 122 118 118 118 131 131 131 137 137 137 131 131 131 125 125 125 121 121 121 118 118 118 118 118 118 114 114 114 114 114 114 126 126 126 135 135 135 137 137 137 135 135 135 124 124 124 115 115 115 116 116 116 121 121 121 127 127 127 131 131 131 131 131 131 134 134 134 136 136 136 127 127 127 120 120 120 127 127 127 133 133 133 127 127 127 123 123 123 130 130 130 133 133 133 127 127 127 124 124 124 124 124 124 119 119 119 123 123 123 133 133 133 134 134 134 129 129 129 128 128 128 125 125 125 120 120 120 125 125 125 132 132 132 128 128 128 122 122 122 120 120 120 122 122 122 124 124 124 125 125 125 122 122 122 120 120 120 125 125 125 128 128 128 124 124 124 118 118 118 114 114 114 115 115 115 126 126 126 133 133 133 134 134 134 131 131 131 125 125 125 128 128 128 133 133 133 129 129 129 128 128 128 128 128 128 125 125 125 126 126 126 129 129 129 123 123 123 118 118 118 122 122 122 124 124 124 124 124 124 125 125 125 125 125 125 123 123 123 122 122 122 123 123 123 118 118 118 119 119 119 128 128 128 131 131 131 128 128 128 127 127 127 133 133 133 139 139 139 137 137 137 131 131 131 130 130 130 135 135 135 129 129 129 120 120 120 122 122 122 128 128 128 132 132 132 130 130 130 122 122 122 120 120 120 120 120 120 126 126 126 138 138 138 143 143 143 138 138 138 135 135 135 133 133 133 0 0 0 
0 0 0 133 133 133 132 132 132 129 129 129 133 133 133 134 134 134 134 134 134 130 130 130 126 126 126 128 128 128 126 126 126 121 121 121 117 117 117 119 119 119 129 129 129 131 131 131 120 120 120 116 116 116 124 124 124 133 133 133 134 134 134 127 127 127 122 122 122 124 124 124 126 126 126 125 125 125 124 124 124 130 130 130 137 137 137 138 138 138 136 136 136 130 130 130 122 122 122 119 119 119 122 122 122 121 121 121 122 122 122 129 129 129 132 132 132 132 132 132 130 130 130 124 124 124 115 115 115 113 113 113 120 120 120 128 128 128 135 135 135 132 132 132 125 125 125 125 125 125 130 130 130 132 132 132 126 126 126 122 122 122 121 121 121 122 122 122 121 121 121 119 119 119 122 122 122 124 124 124 119 119 119 120 120 120 128 128 128 129 129 129 131 131 131 130 130 130 131 131 131 137 137 137 132 132 132 127 127 127 131 131 131 128 128 128 124 124 124 123 123 123 122 122 122 117 117 117 113 113 113 119 119 119 131 131 131 131 131 131 122 122 122 119 119 119 125 125 125 125 125 125 122 122 122 127 127 127 124 124 124 116 116 116 119 119 119 123 123 123 121 121 121 126 126 126 139 139 139 141 141 141 133 133 133 125 125 125 118 118 118 114 114 114 116 116 116 119 119 119 123 123 123 132 132 132 140 140 140 140 140 140 132 132 132 120 120 120 115 115 115 119 119 119 124 124 124 135 135 135 142 142 142 138 138 138 131 131 131 128 128 128 129 129 129 126 126 126 129 129 129 134 134 134 127 127 127 121 121 121 130 130 130 136 136 136 128 128 128 124 124 124 123 123 123 120 120 120 121 121 121 129 129 129 130 130 130 125 125 125 129 129 129 130 130 130 122 122 122 127 127 127 131 131 131 124 124 124 121 121 121 120 120 120 123 123 123 133 133 133 131 131 131 122 122 122 125 125 125 132 132 132 128 128 128 119 119 119 119 119 119 122 122 122 119 119 119 123 123 123 135 135 135 136 136 136 128 128 128 122 122 122 126 126 126 133 133 133 134 134 134 131 131 131 127 127 127 121 121 121 118 118 118 122 122 122 124 124 124 125 125 125 130 130 130 129 129 129 118 118 118 116 116 116 125 125 125 129 129 129 126 126 126 126 126 126 129 129 129 128 128 128 127 127 127 130 130 130 135 135 135 134 134 134 134 134 134 138 138 138 135 135 135 123 123 123 121 121 121 129 129 129 129 129 129 124 124 124 128 128 128 132 132 132 132 132 132 132 132 132 127 127 127 119 119 119 120 120 120 128 128 128 133 133 133 131 131 131 126 126 126 124 124 124 128 128 128 0 0 0 
0 0 0 127 127 127 127 127 127 132 132 132 139 139 139 135 135 135 124 124 124 125 125 125 132 132 132 131 131 131 128 128 128 128 128 128 124 124 124 119 119 119 122 122 122 129 129 129 131 131 131 122 122 122 119 119 119 128 128 128 131 131 131 127 127 127 129 129 129 132 132 132 131 131 131 127 127 127 121 121 121 123 123 123 132 132 132 137 137 137 132 132 132 124 124 124 119 119 119 114 114 114 115 115 115 116 116 116 114 114 114 120 120 120 134 134 134 141 141 141 135 135 135 123 123 123 119 119 119 120 120 120 124 124 124 129 129 129 134 134 134 127 127 127 121 121 121 130 130 130 140 140 140 133 133 133 119 119 119 119 119 119 127 127 127 127 127 127 123 123 123 121 121 121 119 119 119 121 121 121 128 128 128 133 133 133 130 130 130 127 127 127 130 130 130 129 129 129 128 128 128 136 136 136 133 133 133 124 124 124 124 124 124 126 126 126 132 132 132 135 135 135 127 127 127 120 120 120 118 118 118 119 119 119 125 125 125 124 124 124 119 119 119 119 119 119 123 123 123 119 119 119 115 115 115 126 126 126 130 130 130 123 123 123 120 120 120 119 119 119 122 122 122 133 133 133 144 144 144 140 140 140 126 126 126 121 121 121 123 123 123 124 124 124 123 123 123 125 125 125 132 132 132 135 135 135 136 136 136 134 134 134 125 125 125 122 122 122 127 127 127 127 127 127 125 125 125 133 133 133 140 140 140 137 137 137 129 129 129 125 125 125 129 129 129 133 133 133 133 133 133 129 129 129 122 122 122 123 123 123 129 129 129 128 128 128 125 125 125 128 128 128 126 126 126 124 124 124 125 125 125 126 126 126 125 125 125 122 122 122 124 124 124 127 127 127 126 126 126 130 130 130 130 130 130 127 127 127 125 125 125 119 119 119 120 120 120 131 131 131 132 132 132 126 126 126 126 126 126 127 127 127 124 124 124 121 121 121 121 121 121 125 125 125 126 126 126 128 128 128 133 133 133 132 132 132 125 125 125 120 120 120 122 122 122 124 124 124 122 122 122 121 121 121 123 123 123 120 120 120 119 119 119 128 128 128 136 136 136 138 138 138 139 139 139 134 134 134 123 123 123 118 118 118 127 127 127 131 131 131 126 126 126 128 128 128 134 134 134 133 133 133 128 128 128 124 124 124 131 131 131 137 137 137 134 134 134 130 130 130 123 123 123 118 118 118 121 121 121 124 124 124 126 126 126 128 128 128 133 133 133 133 133 133 125 125 125 130 130 130 133 133 133 125 125 125 123 123 123 131 131 131 128 128 128 124 124 124 128 128 128 128 128 128 127 127 127 0 0 0 
0 0 0 126 126 126 124 124 124 128 128 128 129 129 129 125 125 125 118 118 118 118 118 118 128 128 128 133 133 133 137 137 137 135 135 135 124 124 124 120 120 120 121 121 121 127 127 127 131 131 131 124 124 124 125 125 125 137 137 137 134 134 134 125 125 125 128 128 128 131 131 131 124 124 124 121 121 121 120 120 120 117 117 117 118 118 118 125 125 125 125 125 125 119 119 119 116 116 116 115 115 115 113 113 113 115 115 115 113 113 113 115 115 115 129 129 129 137 137 137 133 133 133 124 124 124 126 126 126 130 130 130 128 128 128 136 136 136 138 138 138 125 125 125 121 121 121 132 132 132 140 140 140 133 133 133 119 119 119 118 118 118 126 126 126 128 128 128 127 127 127 127 127 127 126 126 126 126 126 126 136 136 136 140 140 140 134 134 134 133 133 133 131 131 131 128 128 128 125 125 125 129 129 129 132 132 132 123 123 123 120 120 120 126 126 126 135 135 135 139 139 139 133 133 133 132 132 132 128 128 128 117 117 117 116 116 116 119 119 119 119 119 119 122 122 122 130 130 130 127 127 127 120 120 120 123 123 123 123 123 123 123 123 123 127 127 127 122 122 122 120 120 120 129 129 129 139 139 139 134 134 134 119 119 119 116 116 116 127 127 127 132 132 132 126 126 126 124 124 124 132 132 132 138 138 138 135 135 135 126 126 126 124 124 124 130 130 130 131 131 131 125 125 125 120 120 120 124 124 124 129 129 129 128 128 128 126 126 126 124 124 124 124 124 124 126 126 126 128 128 128 124 124 124 120 120 120 125 125 125 127 127 127 124 124 124 127 127 127 127 127 127 120 120 120 123 123 123 132 132 132 131 131 131 129 129 129 127 127 127 125 125 125 120 120 120 120 120 120 125 125 125 130 130 130 136 136 136 133 133 133 124 124 124 123 123 123 126 126 126 129 129 129 133 133 133 131 131 131 125 125 125 127 127 127 128 128 128 125 125 125 124 124 124 125 125 125 125 125 125 127 127 127 129 129 129 127 127 127 120 120 120 114 114 114 112 112 112 112 112 112 116 116 116 121 121 121 122 122 122 124 124 124 130 130 130 139 139 139 140 140 140 137 137 137 134 134 134 130 130 130 123 123 123 124 124 124 130 130 130 130 130 130 130 130 130 129 129 129 126 126 126 124 124 124 118 118 118 120 120 120 130 130 130 134 134 134 129 129 129 121 121 121 123 123 123 127 127 127 124 124 124 123 123 123 127 127 127 132 132 132 131 131 131 127 127 127 134 134 134 139 139 139 131 131 131 130 130 130 135 135 135 133 133 133 132 132 132 136 136 136 133 133 133 126 126 126 0 0 0 
0 0 0 132 132 132 125 125 125 120 120 120 117 117 117 118 118 118 122 122 122 121 121 121 121 121 121 126 126 126 135 135 135 135 135 135 122 122 122 121 121 121 125 125 125 126 126 126 128 128 128 126 126 126 134 134 134 144 144 144 137 137 137 128 128 128 122 122 122 118 118 118 117 117 117 121 121 121 123 123 123 118 118 118 113 113 113 118 118 118 128 128 128 126 126 126 120 120 120 122 122 122 123 123 123 125 125 125 129 129 129 126 126 126 127 127 127 131 131 131 125 125 125 117 117 117 124 124 124 132 132 132 130 130 130 136 136 136 139 139 139 124 124 124 121 121 121 131 131 131 137 137 137 135 135 135 124 124 124 118 118 118 119 119 119 126 126 126 131 131 131 130 130 130 128 128 128 128 128 128 137 137 137 137 137 137 130 130 130 134 134 134 132 132 132 123 123 123 117 117 117 122 122 122 129 129 129 129 129 129 126 126 126 127 127 127 134 134 134 134 134 134 132 132 132 137 137 137 132 132 132 121 121 121 119 119 119 119 119 119 118 118 118 122 122 122 128 128 128 127 127 127 124 124 124 119 119 119 114 114 114 120 120 120 123 123 123 116 116 116 117 117 117 130 130 130 137 137 137 132 132 132 121 121 121 119 119 119 128 128 128 130 130 130 125 125 125 126 126 126 132 132 132 140 140 140 138 138 138 128 128 128 132 132 132 136 136 136 124 124 124 115 115 115 115 115 115 120 120 120 126 126 126 129 129 129 130 130 130 127 127 127 121 121 121 123 123 123 131 131 131 128 128 128 120 120 120 123 123 123 128 128 128 130 130 130 130 130 130 123 123 123 116 116 116 120 120 120 131 131 131 139 139 139 138 138 138 129 129 129 124 124 124 121 121 121 120 120 120 120 120 120 126 126 126 136 136 136 137 137 137 135 135 135 136 136 136 129 129 129 125 125 125 132 132 132 135 135 135 132 132 132 132 132 132 130 130 130 125 125 125 121 121 121 116 116 116 115 115 115 121 121 121 128 128 128 126 126 126 117 117 117 109 109 109 111 111 111 121 121 121 125 125 125 124 124 124 125 125 125 128 128 128 133 133 133 135 135 135 132 132 132 130 130 130 131 131 131 134 134 134 128 128 128 121 121 121 125 125 125 127 127 127 126 126 126 126 126 126 124 124 124 120 120 120 116 116 116 119 119 119 126 126 126 133 133 133 134 134 134 132 132 132 134 134 134 132 132 132 124 124 124 117 117 117 119 119 119 126 126 126 130 130 130 132 132 132 135 135 135 136 136 136 137 137 137 137 137 137 137 137 137 138 138 138 136 136 136 126 126 126 123 123 123 123 123 123 0 0 0 
0 0 0 130 130 130 127 127 127 116 116 116 112 112 112 120 120 120 127 127 127 128 128 128 122 122 122 122 122 122 128 128 128 128 128 128 121 121 121 122 122 122 125 125 125 126 126 126 129 129 129 132 132 132 137 137 137 134 134 134 129 129 129 127 127 127 122 122 122 117 117 117 122 122 122 126 126 126 122 122 122 121 121 121 122 122 122 126 126 126 129 129 129 132 132 132 130 130 130 126 126 126 128 128 128 135 135 135 138 138 138 136 136 136 135 135 135 133 133 133 123 123 123 117 117 117 123 123 123 129 129 129 127 127 127 129 129 129 132 132 132 125 125 125 123 123 123 130 130 130 140 140 140 139 139 139 126 126 126 116 116 116 115 115 115 122 122 122 126 126 126 125 125 125 124 124 124 126 126 126 136 136 136 138 138 138 130 130 130 131 131 131 133 133 133 124 124 124 119 119 119 125 125 125 125 125 125 127 127 127 132 132 132 133 133 133 136 136 136 135 135 135 134 134 134 136 136 136 133 133 133 132 132 132 131 131 131 122 122 122 116 116 116 121 121 121 124 124 124 128 128 128 130 130 130 119 119 119 119 119 119 128 128 128 125 125 125 116 116 116 120 120 120 134 134 134 142 142 142 138 138 138 130 130 130 125 125 125 123 123 123 122 122 122 123 123 123 129 129 129 134 134 134 136 136 136 135 135 135 132 132 132 137 137 137 135 135 135 119 119 119 114 114 114 117 117 117 123 123 123 132 132 132 134 134 134 133 133 133 129 129 129 119 119 119 124 124 124 136 136 136 135 135 135 125 125 125 122 122 122 127 127 127 129 129 129 125 125 125 120 120 120 118 118 118 121 121 121 126 126 126 133 133 133 132 132 132 119 119 119 117 117 117 125 125 125 121 121 121 113 113 113 118 118 118 132 132 132 138 138 138 138 138 138 142 142 142 136 136 136 127 127 127 128 128 128 128 128 128 125 125 125 126 126 126 128 128 128 129 129 129 123 123 123 113 113 113 113 113 113 122 122 122 129 129 129 124 124 124 117 117 117 114 114 114 119 119 119 131 131 131 133 133 133 129 129 129 128 128 128 133 133 133 139 139 139 134 134 134 127 127 127 126 126 126 126 126 126 132 132 132 133 133 133 123 123 123 121 121 121 123 123 123 123 123 123 129 129 129 135 135 135 129 129 129 121 121 121 121 121 121 124 124 124 129 129 129 130 130 130 129 129 129 127 127 127 121 121 121 115 115 115 111 111 111 112 112 112 118 118 118 123 123 123 126 126 126 120 120 120 121 121 121 132 132 132 136 136 136 136 136 136 136 136 136 128 128 128 113 113 113 115 115 115 126 126 126 0 0 0 
0 0 0 126 126 126 131 131 131 123 123 123 115 115 115 122 122 122 128 128 128 128 128 128 126 126 126 126 126 126 124 124 124 121 121 121 118 118 118 118 118 118 123 123 123 129 129 129 130 130 130 138 138 138 140 140 140 129 129 129 123 123 123 126 126 126 127 127 127 126 126 126 128 128 128 125 125 125 122 122 122 129 129 129 132 132 132 129 129 129 126 126 126 133 133 133 140 140 140 131 131 131 125 125 125 128 128 128 129 129 129 134 134 134 136 136 136 133 133 133 125 125 125 122 122 122 127 127 127 129 129 129 121 121 121 120 120 120 126 126 126 128 128 128 126 126 126 128 128 128 134 134 134 134 134 134 127 127 127 123 123 123 117 117 117 117 117 117 125 125 125 128 128 128 127 127 127 130 130 130 139 139 139 142 142 142 136 136 136 132 132 132 131 131 131 126 126 126 129 129 129 133 133 133 125 125 125 123 123 123 132 132 132 135 135 135 138 138 138 135 135 135 128 128 128 128 128 128 131 131 131 135 135 135 134 134 134 124 124 124 118 118 118 122 122 122 127 127 127 133 133 133 134 134 134 125 125 125 131 131 131 139 139 139 134 134 134 127 127 127 122 122 122 127 127 127 135 135 135 139 139 139 135 135 135 123 123 123 119 119 119 122 122 122 122 122 122 125 125 125 130 130 130 131 131 131 129 129 129 134 134 134 139 139 139 135 135 135 123 123 123 118 118 118 121 121 121 131 131 131 138 138 138 131 131 131 122 122 122 119 119 119 115 115 115 121 121 121 133 133 133 135 135 135 129 129 129 125 125 125 128 128 128 129 129 129 124 124 124 121 121 121 122 122 122 126 126 126 126 126 126 123 123 123 118 118 118 114 114 114 118 118 118 125 125 125 122 122 122 112 112 112 117 117 117 131 131 131 136 136 136 137 137 137 141 141 141 138 138 138 133 133 133 133 133 133 127 127 127 121 121 121 121 121 121 127 127 127 134 134 134 131 131 131 120 120 120 121 121 121 132 132 132 133 133 133 121 121 121 119 119 119 123 123 123 123 123 123 129 129 129 129 129 129 126 126 126 127 127 127 135 135 135 144 144 144 141 141 141 130 130 130 122 122 122 123 123 123 130 130 130 136 136 136 134 134 134 130 130 130 124 124 124 121 121 121 132 132 132 143 143 143 141 141 141 134 134 134 128 128 128 129 129 129 130 130 130 121 121 121 117 117 117 116 116 116 112 112 112 110 110 110 112 112 112 116 116 116 118 118 118 119 119 119 118 118 118 114 114 114 119 119 119 130 130 130 131 131 131 134 134 134 134 134 134 123 123 123 112 112 112 115 115 115 128 128 128 0 0 0 
0 0 0 128 128 128 140 140 140 137 137 137 125 125 125 128 128 128 133 133 133 126 126 126 122 122 122 128 128 128 128 128 128 123 123 123 121 121 121 120 120 120 125 125 125 126 126 126 124 124 124 136 136 136 140 140 140 130 130 130 127 127 127 133 133 133 134 134 134 132 132 132 132 132 132 126 126 126 124 124 124 132 132 132 133 133 133 129 129 129 128 128 128 131 131 131 134 134 134 129 129 129 122 122 122 121 121 121 126 126 126 136 136 136 135 135 135 126 126 126 123 123 123 124 124 124 129 129 129 133 133 133 125 125 125 121 121 121 123 123 123 125 125 125 125 125 125 122 122 122 117 117 117 117 117 117 124 124 124 128 128 128 122 122 122 118 118 118 127 127 127 134 134 134 131 131 131 134 134 134 140 140 140 140 140 140 137 137 137 135 135 135 128 128 128 121 121 121 129 129 129 138 138 138 135 135 135 129 129 129 134 134 134 134 134 134 134 134 134 133 133 133 124 124 124 121 121 121 126 126 126 132 132 132 131 131 131 125 125 125 124 124 124 130 130 130 130 130 130 128 128 128 127 127 127 129 129 129 135 135 135 132 132 132 128 128 128 131 131 131 126 126 126 122 122 122 122 122 122 126 126 126 130 130 130 123 123 123 120 120 120 129 129 129 127 127 127 121 121 121 124 124 124 130 130 130 131 131 131 135 135 135 140 140 140 140 140 140 133 133 133 124 124 124 127 127 127 134 134 134 137 137 137 132 132 132 118 118 118 114 114 114 122 122 122 130 130 130 132 132 132 130 130 130 127 127 127 126 126 126 131 131 131 131 131 131 125 125 125 127 127 127 130 130 130 129 129 129 127 127 127 121 121 121 112 112 112 116 116 116 126 126 126 131 131 131 131 131 131 119 119 119 116 116 116 126 126 126 129 129 129 134 134 134 138 138 138 137 137 137 134 134 134 134 134 134 131 131 131 121 121 121 121 121 121 129 129 129 135 135 135 134 134 134 125 125 125 127 127 127 140 140 140 138 138 138 121 121 121 119 119 119 122 122 122 117 117 117 121 121 121 125 125 125 125 125 125 128 128 128 138 138 138 147 147 147 148 148 148 135 135 135 125 125 125 130 130 130 130 130 130 131 131 131 141 141 141 137 137 137 122 122 122 122 122 122 137 137 137 145 145 145 141 141 141 139 139 139 136 136 136 134 134 134 130 130 130 123 123 123 124 124 124 125 125 125 119 119 119 114 114 114 117 117 117 125 125 125 126 126 126 122 122 122 120 120 120 121 121 121 127 127 127 130 130 130 126 126 126 126 126 126 127 127 127 124 124 124 117 117 117 114 114 114 121 121 121 0 0 0 
0 0 0 132 132 132 142 142 142 144 144 144 135 135 135 134 134 134 133 133 133 122 122 122 118 118 118 125 125 125 126 126 126 126 126 126 130 130 130 133 133 133 132 132 132 124 124 124 119 119 119 127 127 127 135 135 135 130 130 130 129 129 129 135 135 135 138 138 138 136 136 136 138 138 138 135 135 135 126 126 126 124 124 124 126 126 126 128 128 128 129 129 129 124 124 124 121 121 121 129 129 129 133 133 133 133 133 133 139 139 139 146 146 146 139 139 139 123 123 123 118 118 118 122 122 122 129 129 129 133 133 133 133 133 133 131 131 131 126 126 126 120 120 120 116 116 116 115 115 115 112 112 112 114 114 114 123 123 123 127 127 127 127 127 127 126 126 126 131 131 131 138 138 138 135 135 135 130 130 130 131 131 131 133 133 133 131 131 131 133 133 133 132 132 132 119 119 119 120 120 120 136 136 136 138 138 138 133 133 133 132 132 132 130 130 130 129 129 129 132 132 132 128 128 128 123 123 123 124 124 124 128 128 128 128 128 128 129 129 129 135 135 135 141 141 141 136 136 136 127 127 127 125 125 125 128 128 128 127 127 127 119 119 119 120 120 120 131 131 131 133 133 133 129 129 129 119 119 119 115 115 115 128 128 128 131 131 131 126 126 126 133 133 133 134 134 134 126 126 126 131 131 131 136 136 136 129 129 129 125 125 125 129 129 129 134 134 134 133 133 133 130 130 130 135 135 135 134 134 134 132 132 132 132 132 132 121 121 121 119 119 119 133 133 133 139 139 139 132 132 132 128 128 128 130 130 130 129 129 129 129 129 129 129 129 129 128 128 128 133 133 133 136 136 136 132 132 132 129 129 129 124 124 124 115 115 115 121 121 121 135 135 135 138 138 138 133 133 133 121 121 121 117 117 117 121 121 121 121 121 121 127 127 127 132 132 132 133 133 133 131 131 131 131 131 131 131 131 131 121 121 121 118 118 118 128 128 128 136 136 136 134 134 134 129 129 129 131 131 131 136 136 136 135 135 135 126 126 126 122 122 122 118 118 118 113 113 113 119 119 119 127 127 127 129 129 129 130 130 130 137 137 137 141 141 141 137 137 137 128 128 128 128 128 128 136 136 136 130 130 130 130 130 130 140 140 140 135 135 135 125 125 125 129 129 129 143 143 143 143 143 143 133 133 133 133 133 133 133 133 133 123 123 123 121 121 121 132 132 132 140 140 140 135 135 135 126 126 126 120 120 120 125 125 125 135 135 135 133 133 133 125 125 125 121 121 121 120 120 120 124 124 124 127 127 127 122 122 122 120 120 120 121 121 121 119 119 119 117 117 117 119 119 119 122 122 122 0 0 0 
0 0 0 139 139 139 140 140 140 141 141 141 137 137 137 131 131 131 124 124 124 117 117 117 117 117 117 123 123 123 122 122 122 122 122 122 131 131 131 136 136 136 135 135 135 134 134 134 130 130 130 126 126 126 127 127 127 127 127 127 126 126 126 132 132 132 138 138 138 137 137 137 140 140 140 144 144 144 134 134 134 123 123 123 121 121 121 125 125 125 127 127 127 119 119 119 119 119 119 133 133 133 140 140 140 144 144 144 149 149 149 149 149 149 138 138 138 120 120 120 115 115 115 118 118 118 123 123 123 126 126 126 131 131 131 139 139 139 136 136 136 126 126 126 114 114 114 114 114 114 122 122 122 129 129 129 131 131 131 130 130 130 131 131 131 129 129 129 131 131 131 137 137 137 133 133 133 122 122 122 121 121 121 130 130 130 130 130 130 129 129 129 132 132 132 125 125 125 123 123 123 135 135 135 135 135 135 127 127 127 121 121 121 120 120 120 122 122 122 125 125 125 123 123 123 119 119 119 121 121 121 125 125 125 126 126 126 131 131 131 139 139 139 141 141 141 137 137 137 131 131 131 132 132 132 133 133 133 126 126 126 121 121 121 128 128 128 136 136 136 136 136 136 134 134 134 123 123 123 116 116 116 129 129 129 132 132 132 129 129 129 137 137 137 138 138 138 135 135 135 137 137 137 132 132 132 120 120 120 117 117 117 123 123 123 128 128 128 132 132 132 136 136 136 137 137 137 131 131 131 125 125 125 123 123 123 118 118 118 120 120 120 131 131 131 134 134 134 126 126 126 122 122 122 128 128 128 132 132 132 127 127 127 130 130 130 136 136 136 139 139 139 143 143 143 141 141 141 133 133 133 126 126 126 124 124 124 125 125 125 134 134 134 138 138 138 127 127 127 119 119 119 124 124 124 123 123 123 116 116 116 118 118 118 121 121 121 123 123 123 126 126 126 131 131 131 134 134 134 125 125 125 112 112 112 119 119 119 132 132 132 131 131 131 129 129 129 130 130 130 128 128 128 129 129 129 125 125 125 121 121 121 119 119 119 118 118 118 123 123 123 125 125 125 125 125 125 127 127 127 131 131 131 128 128 128 123 123 123 123 123 123 128 128 128 131 131 131 130 130 130 136 136 136 138 138 138 128 128 128 129 129 129 138 138 138 144 144 144 140 140 140 132 132 132 133 133 133 128 128 128 115 115 115 115 115 115 131 131 131 141 141 141 130 130 130 122 122 122 128 128 128 135 135 135 136 136 136 130 130 130 124 124 124 119 119 119 117 117 117 124 124 124 134 134 134 129 129 129 124 124 124 126 126 126 118 118 118 113 113 113 122 122 122 128 128 128 0 0 0 
0 0 0 142 142 142 139 139 139 134 134 134 129 129 129 126 126 126 125 125 125 123 123 123 125 125 125 136 136 136 135 135 135 128 128 128 132 132 132 134 134 134 133 133 133 137 137 137 136 136 136 129 129 129 126 126 126 128 128 128 130 130 130 135 135 135 139 139 139 136 136 136 140 140 140 142 142 142 135 135 135 134 134 134 131 131 131 129 129 129 132 132 132 124 124 124 125 125 125 133 133 133 135 135 135 142 142 142 144 144 144 137 137 137 127 127 127 115 115 115 115 115 115 119 119 119 121 121 121 120 120 120 126 126 126 138 138 138 142 142 142 130 130 130 117 117 117 118 118 118 128 128 128 132 132 132 130 130 130 128 128 128 129 129 129 131 131 131 136 136 136 138 138 138 131 131 131 125 125 125 125 125 125 129 129 129 130 130 130 127 127 127 128 128 128 131 131 131 135 135 135 141 141 141 138 138 138 124 124 124 115 115 115 119 119 119 120 120 120 117 117 117 117 117 117 116 116 116 121 121 121 132 132 132 135 135 135 134 134 134 134 134 134 132 132 132 131 131 131 129 129 129 129 129 129 133 133 133 133 133 133 131 131 131 132 132 132 134 134 134 129 129 129 126 126 126 120 120 120 117 117 117 127 127 127 129 129 129 129 129 129 136 136 136 137 137 137 133 133 133 125 125 125 118 118 118 117 117 117 122 122 122 127 127 127 134 134 134 141 141 141 139 139 139 134 134 134 130 130 130 119 119 119 111 111 111 116 116 116 127 127 127 132 132 132 129 129 129 122 122 122 116 116 116 122 122 122 131 131 131 130 130 130 132 132 132 139 139 139 143 143 143 146 146 146 146 146 146 137 137 137 129 129 129 132 132 132 128 128 128 127 127 127 134 134 134 127 127 127 122 122 122 129 129 129 127 127 127 121 121 121 121 121 121 117 117 117 118 118 118 124 124 124 128 128 128 128 128 128 121 121 121 113 113 113 122 122 122 135 135 135 131 131 131 126 126 126 126 126 126 123 123 123 122 122 122 120 120 120 120 120 120 119 119 119 120 120 120 124 124 124 122 122 122 119 119 119 121 121 121 127 127 127 127 127 127 125 125 125 127 127 127 126 126 126 120 120 120 124 124 124 135 135 135 133 133 133 125 125 125 130 130 130 134 134 134 134 134 134 131 131 131 128 128 128 128 128 128 123 123 123 118 118 118 117 117 117 126 126 126 132 132 132 121 121 121 117 117 117 130 130 130 136 136 136 131 131 131 126 126 126 125 125 125 122 122 122 122 122 122 131 131 131 138 138 138 129 129 129 126 126 126 131 131 131 124 124 124 119 119 119 120 120 120 122 122 122 0 0 0 
0 0 0 128 128 128 129 129 129 122 122 122 118 118 118 123 123 123 132 132 132 133 133 133 137 137 137 144 144 144 143 143 143 138 138 138 138 138 138 137 137 137 133 133 133 129 129 129 126 126 126 128 128 128 131 131 131 138 138 138 139 139 139 136 136 136 137 137 137 134 134 134 135 135 135 134 134 134 128 128 128 135 135 135 135 135 135 130 130 130 134 134 134 130 130 130 132 132 132 136 136 136 138 138 138 142 142 142 136 136 136 127 127 127 121 121 121 115 115 115 113 113 113 119 119 119 123 123 123 122 122 122 125 125 125 137 137 137 142 142 142 132 132 132 120 120 120 120 120 120 124 124 124 121 121 121 117 117 117 122 122 122 132 132 132 137 137 137 137 137 137 133 133 133 130 130 130 133 133 133 136 136 136 129 129 129 121 121 121 121 121 121 122 122 122 124 124 124 133 133 133 143 143 143 143 143 143 131 131 131 124 124 124 131 131 131 127 127 127 117 117 117 118 118 118 121 121 121 127 127 127 137 137 137 138 138 138 132 132 132 130 130 130 131 131 131 133 133 133 132 132 132 127 127 127 127 127 127 131 131 131 129 129 129 125 125 125 123 123 123 120 120 120 118 118 118 113 113 113 114 114 114 125 125 125 128 128 128 128 128 128 132 132 132 133 133 133 125 125 125 117 117 117 115 115 115 117 117 117 121 121 121 123 123 123 135 135 135 145 145 145 139 139 139 130 130 130 127 127 127 117 117 117 110 110 110 119 119 119 135 135 135 138 138 138 130 130 130 123 123 123 120 120 120 121 121 121 129 129 129 131 131 131 130 130 130 136 136 136 141 141 141 140 140 140 141 141 141 138 138 138 133 133 133 135 135 135 132 132 132 131 131 131 132 132 132 128 128 128 130 130 130 137 137 137 136 136 136 134 134 134 133 133 133 125 125 125 122 122 122 126 126 126 127 127 127 121 121 121 115 115 115 120 120 120 132 132 132 142 142 142 135 135 135 125 125 125 125 125 125 122 122 122 118 118 118 120 120 120 119 119 119 120 120 120 125 125 125 127 127 127 127 127 127 124 124 124 123 123 123 132 132 132 136 136 136 132 132 132 130 130 130 124 124 124 117 117 117 121 121 121 127 127 127 124 124 124 123 123 123 126 126 126 119 119 119 116 116 116 120 120 120 123 123 123 120 120 120 118 118 118 123 123 123 122 122 122 125 125 125 128 128 128 120 120 120 119 119 119 125 125 125 132 132 132 135 135 135 134 134 134 136 136 136 128 128 128 124 124 124 132 132 132 130 130 130 123 123 123 123 123 123 125 125 125 127 127 127 132 132 132 130 130 130 120 120 120 0 0 0 
0 0 0 112 112 112 115 115 115 117 117 117 117 117 117 122 122 122 133 133 133 139 139 139 140 140 140 138 138 138 136 136 136 134 134 134 132 132 132 136 136 136 135 135 135 126 126 126 121 121 121 124 124 124 127 127 127 134 134 134 133 133 133 129 129 129 133 133 133 133 133 133 133 133 133 132 132 132 125 125 125 127 127 127 128 128 128 126 126 126 130 130 130 132 132 132 134 134 134 136 136 136 138 138 138 136 136 136 131 131 131 128 128 128 124 124 124 122 122 122 117 117 117 114 114 114 121 121 121 126 126 126 127 127 127 134 134 134 141 141 141 137 137 137 124 124 124 115 115 115 117 117 117 119 119 119 117 117 117 123 123 123 132 132 132 131 131 131 125 125 125 123 123 123 127 127 127 133 133 133 133 133 133 125 125 125 119 119 119 117 117 117 116 116 116 118 118 118 126 126 126 135 135 135 142 142 142 135 135 135 126 126 126 132 132 132 130 130 130 121 121 121 120 120 120 123 123 123 128 128 128 130 130 130 126 126 126 125 125 125 129 129 129 132 132 132 132 132 132 131 131 131 129 129 129 125 125 125 123 123 123 123 123 123 121 121 121 115 115 115 117 117 117 123 123 123 117 117 117 117 117 117 121 121 121 122 122 122 124 124 124 128 128 128 130 130 130 123 123 123 124 124 124 129 129 129 124 124 124 120 120 120 123 123 123 136 136 136 147 147 147 139 139 139 128 128 128 124 124 124 118 118 118 116 116 116 121 121 121 131 131 131 135 135 135 130 130 130 125 125 125 124 124 124 122 122 122 127 127 127 128 128 128 124 124 124 131 131 131 134 134 134 133 133 133 136 136 136 136 136 136 133 133 133 126 126 126 124 124 124 133 133 133 135 135 135 130 130 130 134 134 134 143 143 143 141 141 141 137 137 137 138 138 138 135 135 135 131 131 131 130 130 130 134 134 134 131 131 131 124 124 124 127 127 127 135 135 135 143 143 143 137 137 137 125 125 125 123 123 123 122 122 122 118 118 118 120 120 120 122 122 122 125 125 125 129 129 129 127 127 127 127 127 127 128 128 128 130 130 130 134 134 134 134 134 134 131 131 131 130 130 130 127 127 127 121 121 121 122 122 122 125 125 125 124 124 124 123 123 123 121 121 121 116 116 116 115 115 115 122 122 122 126 126 126 119 119 119 115 115 115 120 120 120 118 118 118 121 121 121 127 127 127 128 128 128 127 127 127 124 124 124 130 130 130 136 136 136 138 138 138 142 142 142 132 132 132 124 124 124 126 126 126 121 121 121 121 121 121 122 122 122 120 120 120 128 128 128 139 139 139 138 138 138 127 127 127 0 0 0 
0 0 0 113 113 113 115 115 115 122 122 122 124 124 124 121 121 121 133 133 133 142 142 142 140 140 140 135 135 135 128 128 128 126 126 126 125 125 125 128 128 128 130 130 130 128 128 128 126 126 126 122 122 122 120 120 120 120 120 120 120 120 120 123 123 123 130 130 130 133 133 133 134 134 134 135 135 135 130 130 130 127 127 127 127 127 127 123 123 123 126 126 126 134 134 134 136 136 136 134 134 134 125 125 125 122 122 122 128 128 128 131 131 131 125 125 125 127 127 127 129 129 129 123 123 123 126 126 126 130 130 130 128 128 128 129 129 129 136 136 136 135 135 135 125 125 125 118 118 118 121 121 121 125 125 125 125 125 125 128 128 128 131 131 131 124 124 124 122 122 122 127 127 127 132 132 132 136 136 136 130 130 130 123 123 123 128 128 128 124 124 124 118 118 118 125 125 125 130 130 130 132 132 132 138 138 138 132 132 132 120 120 120 120 120 120 120 120 120 116 116 116 113 113 113 114 114 114 122 122 122 125 125 125 122 122 122 128 128 128 131 131 131 124 124 124 119 119 119 122 122 122 129 129 129 127 127 127 119 119 119 119 119 119 119 119 119 112 112 112 117 117 117 126 126 126 124 124 124 121 121 121 119 119 119 123 123 123 128 128 128 126 126 126 128 128 128 128 128 128 131 131 131 136 136 136 132 132 132 128 128 128 129 129 129 137 137 137 141 141 141 132 132 132 127 127 127 133 133 133 129 129 129 120 120 120 119 119 119 122 122 122 126 126 126 132 132 132 129 129 129 122 122 122 121 121 121 126 126 126 123 123 123 119 119 119 129 129 129 131 131 131 128 128 128 132 132 132 131 131 131 126 126 126 117 117 117 118 118 118 130 130 130 136 136 136 130 130 130 127 127 127 137 137 137 136 136 136 126 126 126 129 129 129 134 134 134 131 131 131 131 131 131 137 137 137 135 135 135 130 130 130 128 128 128 131 131 131 139 139 139 138 138 138 130 130 130 130 130 130 126 126 126 119 119 119 121 121 121 128 128 128 128 128 128 123 123 123 122 122 122 121 121 121 122 122 122 127 127 127 126 126 126 125 125 125 125 125 125 122 122 122 122 122 122 120 120 120 121 121 121 129 129 129 134 134 134 128 128 128 125 125 125 127 127 127 123 123 123 122 122 122 123 123 123 117 117 117 115 115 115 117 117 117 117 117 117 123 123 123 127 127 127 131 131 131 130 130 130 121 121 121 124 124 124 130 130 130 132 132 132 138 138 138 136 136 136 127 127 127 123 123 123 120 120 120 122 122 122 122 122 122 120 120 120 133 133 133 142 142 142 133 133 133 127 127 127 0 0 0 
0 0 0 129 129 129 127 127 127 126 126 126 124 124 124 119 119 119 127 127 127 135 135 135 136 136 136 133 133 133 124 124 124 126 126 126 129 129 129 123 123 123 119 119 119 126 126 126 131 131 131 124 124 124 119 119 119 117 117 117 117 117 117 119 119 119 122 122 122 124 124 124 126 126 126 130 130 130 129 129 129 126 126 126 124 124 124 118 118 118 118 118 118 128 128 128 135 135 135 134 134 134 123 123 123 126 126 126 138 138 138 135 135 135 123 123 123 125 125 125 130 130 130 132 132 132 138 138 138 136 136 136 128 128 128 131 131 131 136 136 136 132 132 132 129 129 129 132 132 132 134 134 134 131 131 131 128 128 128 133 133 133 139 139 139 131 131 131 125 125 125 131 131 131 130 130 130 134 134 134 132 132 132 124 124 124 131 131 131 130 130 130 124 124 124 131 131 131 133 133 133 131 131 131 136 136 136 134 134 134 126 126 126 120 120 120 116 116 116 115 115 115 110 110 110 106 106 106 115 115 115 126 126 126 130 130 130 137 137 137 136 136 136 126 126 126 122 122 122 122 122 122 128 128 128 126 126 126 118 118 118 123 123 123 122 122 122 114 114 114 115 115 115 121 121 121 123 123 123 119 119 119 116 116 116 128 128 128 135 135 135 130 130 130 132 132 132 132 132 132 129 129 129 131 131 131 129 129 129 130 130 130 130 130 130 128 128 128 127 127 127 122 122 122 124 124 124 135 135 135 136 136 136 125 125 125 116 116 116 115 115 115 124 124 124 137 137 137 134 134 134 120 120 120 118 118 118 123 123 123 119 119 119 118 118 118 131 131 131 137 137 137 133 133 133 132 132 132 127 127 127 118 118 118 116 116 116 125 125 125 132 132 132 134 134 134 128 128 128 118 118 118 124 124 124 128 128 128 120 120 120 122 122 122 123 123 123 117 117 117 119 119 119 125 125 125 123 123 123 119 119 119 117 117 117 120 120 120 129 129 129 132 132 132 129 129 129 128 128 128 127 127 127 128 128 128 131 131 131 132 132 132 126 126 126 122 122 122 125 125 125 122 122 122 117 117 117 123 123 123 124 124 124 125 125 125 129 129 129 121 121 121 117 117 117 120 120 120 123 123 123 133 133 133 138 138 138 131 131 131 131 131 131 130 130 130 121 121 121 119 119 119 118 118 118 119 119 119 125 125 125 121 121 121 120 120 120 126 126 126 122 122 122 120 120 120 122 122 122 119 119 119 122 122 122 129 129 129 129 129 129 127 127 127 128 128 128 126 126 126 127 127 127 129 129 129 124 124 124 118 118 118 120 120 120 134 134 134 142 142 142 131 131 131 125 125 125 0 0 0 
0 0 0 132 132 132 128 128 128 121 121 121 121 121 121 120 120 120 121 121 121 126 126 126 130 130 130 126 126 126 121 121 121 126 126 126 131 131 131 128 128 128 125 125 125 129 129 129 131 131 131 127 127 127 123 123 123 121 121 121 123 123 123 119 119 119 116 116 116 116 116 116 118 118 118 121 121 121 120 120 120 118 118 118 117 117 117 118 118 118 120 120 120 125 125 125 132 132 132 134 134 134 132 132 132 133 133 133 139 139 139 134 134 134 125 125 125 127 127 127 125 125 125 127 127 127 141 141 141 141 141 141 129 129 129 128 128 128 133 133 133 129 129 129 128 128 128 136 136 136 138 138 138 132 132 132 132 132 132 139 139 139 141 141 141 135 135 135 129 129 129 127 127 127 122 122 122 127 127 127 129 129 129 123 123 123 129 129 129 130 130 130 126 126 126 134 134 134 134 134 134 127 127 127 130 130 130 132 132 132 131 131 131 124 124 124 121 121 121 126 126 126 119 119 119 107 107 107 112 112 112 125 125 125 132 132 132 137 137 137 139 139 139 137 137 137 130 130 130 125 125 125 130 130 130 129 129 129 126 126 126 132 132 132 129 129 129 118 118 118 114 114 114 117 117 117 121 121 121 121 121 121 121 121 121 129 129 129 132 132 132 131 131 131 133 133 133 132 132 132 129 129 129 130 130 130 130 130 130 130 130 130 130 130 130 126 126 126 126 126 126 123 123 123 121 121 121 125 125 125 129 129 129 125 125 125 112 112 112 113 113 113 128 128 128 134 134 134 131 131 131 123 123 123 121 121 121 122 122 122 122 122 122 124 124 124 131 131 131 139 139 139 141 141 141 136 136 136 130 130 130 123 123 123 121 121 121 125 125 125 128 128 128 134 134 134 135 135 135 123 123 123 119 119 119 124 124 124 124 124 124 123 123 123 120 120 120 115 115 115 114 114 114 119 119 119 121 121 121 118 118 118 117 117 117 122 122 122 125 125 125 120 120 120 119 119 119 120 120 120 123 123 123 132 132 132 135 135 135 131 131 131 129 129 129 134 134 134 136 136 136 125 125 125 114 114 114 122 122 122 130 130 130 131 131 131 134 134 134 132 132 132 124 124 124 120 120 120 121 121 121 132 132 132 135 135 135 126 126 126 124 124 124 122 122 122 122 122 122 126 126 126 124 124 124 127 127 127 129 129 129 123 123 123 124 124 124 128 128 128 123 123 123 116 116 116 118 118 118 124 124 124 128 128 128 132 132 132 127 127 127 117 117 117 118 118 118 122 122 122 124 124 124 125 125 125 118 118 118 113 113 113 120 120 120 132 132 132 136 136 136 129 129 129 122 122 122 0 0 0 
0 0 0 126 126 126 124 124 124 120 120 120 122 122 122 125 125 125 123 123 123 127 127 127 133 133 133 128 128 128 128 128 128 133 133 133 133 133 133 134 134 134 134 134 134 130 130 130 128 128 128 130 130 130 132 132 132 131 131 131 129 129 129 122 122 122 118 118 118 120 120 120 119 119 119 119 119 119 118 118 118 117 117 117 121 121 121 128 128 128 135 135 135 134 134 134 128 128 128 129 129 129 132 132 132 127 127 127 127 127 127 128 128 128 127 127 127 133 133 133 130 130 130 124 124 124 135 135 135 140 140 140 132 132 132 127 127 127 124 124 124 122 122 122 122 122 122 129 129 129 133 133 133 128 128 128 133 133 133 137 137 137 130 130 130 133 133 133 136 136 136 129 129 129 128 128 128 134 134 134 130 130 130 124 124 124 130 130 130 131 131 131 133 133 133 142 142 142 139 139 139 130 130 130 128 128 128 127 127 127 124 124 124 120 120 120 125 125 125 136 136 136 129 129 129 119 119 119 125 125 125 131 131 131 130 130 130 128 128 128 130 130 130 133 133 133 125 125 125 121 121 121 128 128 128 133 133 133 135 135 135 133 133 133 127 127 127 125 125 125 125 125 125 123 123 123 122 122 122 125 125 125 127 127 127 128 128 128 129 129 129 131 131 131 131 131 131 130 130 130 132 132 132 128 128 128 127 127 127 134 134 134 133 133 133 129 129 129 130 130 130 123 123 123 115 115 115 118 118 118 128 128 128 126 126 126 113 113 113 115 115 115 127 127 127 129 129 129 129 129 129 132 132 132 128 128 128 122 122 122 126 126 126 131 131 131 129 129 129 133 133 133 136 136 136 137 137 137 137 137 137 133 133 133 130 130 130 126 126 126 126 126 126 135 135 135 142 142 142 134 134 134 123 123 123 127 127 127 130 130 130 127 127 127 128 128 128 130 130 130 126 126 126 125 125 125 129 129 129 128 128 128 126 126 126 126 126 126 122 122 122 116 116 116 116 116 116 116 116 116 119 119 119 126 126 126 127 127 127 125 125 125 128 128 128 136 136 136 139 139 139 127 127 127 120 120 120 130 130 130 138 138 138 131 131 131 127 127 127 135 135 135 134 134 134 124 124 124 120 120 120 125 125 125 127 127 127 123 123 123 120 120 120 120 120 120 130 130 130 137 137 137 132 132 132 128 128 128 129 129 129 128 128 128 130 130 130 133 133 133 136 136 136 133 133 133 129 129 129 133 133 133 135 135 135 130 130 130 123 123 123 120 120 120 118 118 118 116 116 116 116 116 116 115 115 115 112 112 112 113 113 113 120 120 120 131 131 131 132 132 132 123 123 123 118 118 118 0 0 0 
0 0 0 126 126 126 126 126 126 123 123 123 118 118 118 119 119 119 124 124 124 135 135 135 143 143 143 138 138 138 134 134 134 137 137 137 137 137 137 132 132 132 128 128 128 126 126 126 128 128 128 132 132 132 134 134 134 135 135 135 133 133 133 123 123 123 119 119 119 121 121 121 119 119 119 119 119 119 118 118 118 121 121 121 131 131 131 136 136 136 138 138 138 135 135 135 124 124 124 122 122 122 128 128 128 127 127 127 126 126 126 125 125 125 124 124 124 131 131 131 136 136 136 134 134 134 134 134 134 132 132 132 128 128 128 127 127 127 126 126 126 129 129 129 125 125 125 123 123 123 130 130 130 127 127 127 127 127 127 130 130 130 125 125 125 131 131 131 138 138 138 136 136 136 137 137 137 134 134 134 126 126 126 126 126 126 131 131 131 135 135 135 140 140 140 143 143 143 139 139 139 131 131 131 129 129 129 127 127 127 119 119 119 116 116 116 124 124 124 134 134 134 136 136 136 133 133 133 134 134 134 136 136 136 127 127 127 117 117 117 116 116 116 122 122 122 124 124 124 124 124 124 126 126 126 131 131 131 132 132 132 121 121 121 117 117 117 128 128 128 132 132 132 128 128 128 126 126 126 124 124 124 120 120 120 119 119 119 125 125 125 136 136 136 139 139 139 136 136 136 129 129 129 120 120 120 121 121 121 130 130 130 130 130 130 126 126 126 128 128 128 123 123 123 113 113 113 121 121 121 132 132 132 126 126 126 116 116 116 118 118 118 127 127 127 134 134 134 134 134 134 133 133 133 133 133 133 124 124 124 122 122 122 127 127 127 126 126 126 126 126 126 129 129 129 134 134 134 137 137 137 134 134 134 136 136 136 134 134 134 132 132 132 139 139 139 142 142 142 133 133 133 122 122 122 123 123 123 129 129 129 131 131 131 131 131 131 134 134 134 133 133 133 128 128 128 133 133 133 134 134 134 127 127 127 122 122 122 119 119 119 119 119 119 121 121 121 117 117 117 116 116 116 119 119 119 117 117 117 114 114 114 118 118 118 126 126 126 130 130 130 125 125 125 126 126 126 135 135 135 136 136 136 123 123 123 120 120 120 133 133 133 137 137 137 131 131 131 125 125 125 124 124 124 123 123 123 125 125 125 124 124 124 121 121 121 131 131 131 134 134 134 124 124 124 123 123 123 132 132 132 135 135 135 131 131 131 130 130 130 137 137 137 143 143 143 141 141 141 143 143 143 142 142 142 129 129 129 119 119 119 121 121 121 119 119 119 114 114 114 118 118 118 121 121 121 122 122 122 123 123 123 124 124 124 129 129 129 126 126 126 118 118 118 118 118 118 0 0 0 
0 0 0 123 123 123 125 125 125 124 124 124 115 115 115 111 111 111 121 121 121 135 135 135 143 143 143 136 136 136 127 127 127 126 126 126 125 125 125 123 123 123 127 127 127 133 133 133 137 137 137 134 134 134 128 128 128 130 130 130 133 133 133 131 131 131 128 128 128 124 124 124 122 122 122 120 120 120 115 115 115 122 122 122 135 135 135 133 133 133 130 130 130 128 128 128 126 126 126 124 124 124 125 125 125 128 128 128 127 127 127 123 123 123 122 122 122 128 128 128 140 140 140 144 144 144 138 138 138 130 130 130 125 125 125 126 126 126 136 136 136 142 142 142 130 130 130 122 122 122 134 134 134 133 133 133 126 126 126 131 131 131 131 131 131 126 126 126 129 129 129 138 138 138 136 136 136 120 120 120 113 113 113 120 120 120 129 129 129 139 139 139 140 140 140 135 135 135 132 132 132 128 128 128 127 127 127 122 122 122 117 117 117 120 120 120 124 124 124 129 129 129 135 135 135 134 134 134 129 129 129 129 129 129 126 126 126 121 121 121 120 120 120 125 125 125 133 133 133 139 139 139 133 133 133 129 129 129 129 129 129 119 119 119 114 114 114 120 120 120 121 121 121 123 123 123 131 131 131 130 130 130 123 123 123 121 121 121 127 127 127 139 139 139 146 146 146 139 139 139 124 124 124 117 117 117 124 124 124 125 125 125 119 119 119 121 121 121 127 127 127 125 125 125 120 120 120 127 127 127 130 130 130 122 122 122 115 115 115 118 118 118 129 129 129 136 136 136 132 132 132 129 129 129 132 132 132 130 130 130 121 121 121 118 118 118 119 119 119 123 123 123 129 129 129 134 134 134 132 132 132 129 129 129 135 135 135 136 136 136 133 133 133 139 139 139 142 142 142 130 130 130 118 118 118 119 119 119 128 128 128 134 134 134 128 128 128 125 125 125 127 127 127 128 128 128 135 135 135 137 137 137 130 130 130 126 126 126 127 127 127 128 128 128 128 128 128 125 125 125 119 119 119 119 119 119 115 115 115 115 115 115 122 122 122 126 126 126 122 122 122 120 120 120 124 124 124 130 130 130 128 128 128 119 119 119 120 120 120 132 132 132 134 134 134 130 130 130 132 132 132 132 132 132 130 130 130 130 130 130 123 123 123 119 119 119 127 127 127 127 127 127 121 121 121 126 126 126 134 134 134 137 137 137 134 134 134 127 127 127 127 127 127 134 134 134 138 138 138 143 143 143 146 146 146 133 133 133 118 118 118 114 114 114 115 115 115 123 123 123 132 132 132 132 132 132 131 131 131 130 130 130 127 127 127 127 127 127 125 125 125 120 120 120 120 120 120 0 0 0 
0 0 0 119 119 119 125 125 125 131 131 131 123 123 123 115 115 115 119 119 119 127 127 127 133 133 133 130 130 130 122 122 122 117 117 117 115 115 115 119 119 119 133 133 133 145 145 145 145 145 145 137 137 137 132 132 132 133 133 133 133 133 133 138 138 138 138 138 138 137 137 137 136 136 136 127 127 127 118 118 118 124 124 124 132 132 132 131 131 131 126 126 126 125 125 125 127 127 127 124 124 124 117 117 117 119 119 119 124 124 124 121 121 121 119 119 119 127 127 127 140 140 140 145 145 145 139 139 139 135 135 135 130 130 130 127 127 127 138 138 138 144 144 144 129 129 129 124 124 124 138 138 138 136 136 136 123 123 123 128 128 128 127 127 127 118 118 118 120 120 120 130 130 130 130 130 130 121 121 121 114 114 114 114 114 114 123 123 123 133 133 133 134 134 134 133 133 133 134 134 134 130 130 130 127 127 127 121 121 121 122 122 122 132 132 132 136 136 136 131 131 131 129 129 129 128 128 128 124 124 124 124 124 124 130 130 130 134 134 134 137 137 137 137 137 137 138 138 138 141 141 141 134 134 134 127 127 127 131 131 131 130 130 130 123 123 123 120 120 120 118 118 118 121 121 121 129 129 129 128 128 128 128 128 128 129 129 129 130 130 130 138 138 138 140 140 140 134 134 134 125 125 125 120 120 120 128 128 128 127 127 127 117 117 117 122 122 122 131 131 131 128 128 128 128 128 128 131 131 131 124 124 124 119 119 119 119 119 119 121 121 121 125 125 125 126 126 126 128 128 128 130 130 130 130 130 130 132 132 132 127 127 127 120 120 120 118 118 118 122 122 122 130 130 130 131 131 131 127 127 127 129 129 129 134 134 134 133 133 133 128 128 128 132 132 132 137 137 137 129 129 129 121 121 121 127 127 127 133 133 133 130 130 130 121 121 121 115 115 115 119 119 119 127 127 127 130 130 130 130 130 130 128 128 128 128 128 128 132 132 132 133 133 133 132 132 132 131 131 131 130 130 130 128 128 128 124 124 124 129 129 129 138 138 138 134 134 134 126 126 126 123 123 123 129 129 129 133 133 133 129 129 129 123 123 123 123 123 123 128 128 128 126 126 126 125 125 125 129 129 129 128 128 128 133 133 133 134 134 134 124 124 124 117 117 117 126 126 126 134 134 134 135 135 135 134 134 134 132 132 132 136 136 136 141 141 141 130 130 130 122 122 122 129 129 129 135 135 135 139 139 139 139 139 139 131 131 131 123 123 123 115 115 115 116 116 116 133 133 133 140 140 140 134 134 134 125 125 125 118 118 118 120 120 120 129 129 129 132 132 132 130 130 130 127 127 127 0 0 0 
0 0 0 124 124 124 124 124 124 129 129 129 127 127 127 124 124 124 125 125 125 125 125 125 130 130 130 131 131 131 124 124 124 121 121 121 122 122 122 121 121 121 129 129 129 138 138 138 134 134 134 130 130 130 138 138 138 139 139 139 133 133 133 133 133 133 131 131 131 135 135 135 140 140 140 133 133 133 126 126 126 123 123 123 124 124 124 129 129 129 130 130 130 131 131 131 129 129 129 123 123 123 118 118 118 115 115 115 117 117 117 120 120 120 120 120 120 124 124 124 132 132 132 137 137 137 137 137 137 134 134 134 124 124 124 116 116 116 126 126 126 134 134 134 123 123 123 122 122 122 139 139 139 136 136 136 121 121 121 117 117 117 114 114 114 115 115 115 122 122 122 125 125 125 126 126 126 131 131 131 131 131 131 121 121 121 120 120 120 126 126 126 129 129 129 138 138 138 140 140 140 130 130 130 127 127 127 133 133 133 138 138 138 143 143 143 143 143 143 134 134 134 124 124 124 122 122 122 123 123 123 124 124 124 126 126 126 131 131 131 139 139 139 138 138 138 130 130 130 130 130 130 128 128 128 121 121 121 125 125 125 135 135 135 135 135 135 128 128 128 124 124 124 127 127 127 126 126 126 117 117 117 122 122 122 128 128 128 124 124 124 127 127 127 128 128 128 128 128 128 130 130 130 124 124 124 129 129 129 132 132 132 124 124 124 130 130 130 137 137 137 131 131 131 131 131 131 133 133 133 124 124 124 124 124 124 129 129 129 127 127 127 122 122 122 123 123 123 129 129 129 129 129 129 127 127 127 133 133 133 134 134 134 124 124 124 117 117 117 122 122 122 127 127 127 124 124 124 123 123 123 132 132 132 140 140 140 136 136 136 129 129 129 131 131 131 133 133 133 128 128 128 128 128 128 137 137 137 135 135 135 123 123 123 115 115 115 109 109 109 115 115 115 124 124 124 122 122 122 117 117 117 121 121 121 129 129 129 132 132 132 131 131 131 130 130 130 132 132 132 133 133 133 130 130 130 131 131 131 140 140 140 144 144 144 137 137 137 129 129 129 125 125 125 131 131 131 134 134 134 129 129 129 129 129 129 131 131 131 125 125 125 119 119 119 124 124 124 123 123 123 120 120 120 128 128 128 134 134 134 125 125 125 116 116 116 123 123 123 135 135 135 136 136 136 132 132 132 129 129 129 134 134 134 137 137 137 126 126 126 120 120 120 132 132 132 140 140 140 139 139 139 130 130 130 123 123 123 131 131 131 129 129 129 121 121 121 127 127 127 132 132 132 131 131 131 122 122 122 113 113 113 121 121 121 134 134 134 137 137 137 137 137 137 139 139 139 0 0 0 
0 0 0 126 126 126 119 119 119 117 117 117 123 123 123 129 129 129 130 130 130 129 129 129 132 132 132 133 133 133 124 124 124 122 122 122 126 126 126 126 126 126 127 127 127 126 126 126 119 119 119 123 123 123 136 136 136 136 136 136 131 131 131 127 127 127 122 122 122 123 123 123 128 128 128 131 131 131 130 130 130 127 127 127 126 126 126 127 127 127 131 131 131 138 138 138 136 136 136 130 130 130 128 128 128 120 120 120 117 117 117 123 123 123 130 130 130 130 130 130 125 125 125 127 127 127 136 136 136 133 133 133 119 119 119 113 113 113 117 117 117 122 122 122 117 117 117 119 119 119 134 134 134 136 136 136 123 123 123 114 114 114 113 113 113 120 120 120 130 130 130 128 128 128 124 124 124 132 132 132 139 139 139 128 128 128 120 120 120 126 126 126 127 127 127 132 132 132 134 134 134 125 125 125 126 126 126 137 137 137 144 144 144 147 147 147 145 145 145 134 134 134 124 124 124 122 122 122 128 128 128 125 125 125 120 120 120 122 122 122 129 129 129 132 132 132 124 124 124 125 125 125 131 131 131 122 122 122 119 119 119 133 133 133 142 142 142 135 135 135 131 131 131 134 134 134 128 128 128 116 116 116 121 121 121 125 125 125 114 114 114 113 113 113 120 120 120 128 128 128 135 135 135 129 129 129 130 130 130 134 134 134 129 129 129 129 129 129 133 133 133 126 126 126 124 124 124 126 126 126 125 125 125 127 127 127 128 128 128 130 130 130 129 129 129 128 128 128 129 129 129 121 121 121 120 120 120 132 132 132 137 137 137 123 123 123 116 116 116 123 123 123 124 124 124 122 122 122 125 125 125 131 131 131 136 136 136 134 134 134 131 131 131 135 135 135 132 132 132 126 126 126 131 131 131 138 138 138 137 137 137 130 130 130 122 122 122 115 115 115 115 115 115 117 117 117 115 115 115 116 116 116 124 124 124 132 132 132 133 133 133 130 130 130 130 130 130 133 133 133 131 131 131 125 125 125 126 126 126 134 134 134 137 137 137 135 135 135 125 125 125 119 119 119 126 126 126 125 125 125 123 123 123 132 132 132 135 135 135 125 125 125 120 120 120 124 124 124 120 120 120 118 118 118 127 127 127 131 131 131 126 126 126 119 119 119 118 118 118 126 126 126 130 130 130 126 126 126 123 123 123 125 125 125 127 127 127 123 123 123 124 124 124 132 132 132 137 137 137 138 138 138 131 131 131 124 124 124 135 135 135 140 140 140 128 128 128 119 119 119 119 119 119 124 124 124 124 124 124 124 124 124 134 134 134 140 140 140 136 136 136 134 134 134 139 139 139 0 0 0 
0 0 0 123 123 123 119 119 119 118 118 118 122 122 122 123 123 123 119 119 119 119 119 119 129 129 129 133 133 133 127 127 127 122 122 122 127 127 127 137 137 137 141 141 141 135 135 135 123 123 123 126 126 126 136 136 136 136 136 136 130 130 130 122 122 122 121 121 121 124 124 124 122 122 122 128 128 128 133 133 133 135 135 135 132 132 132 127 127 127 132 132 132 139 139 139 139 139 139 136 136 136 134 134 134 130 130 130 124 124 124 125 125 125 133 133 133 134 134 134 125 125 125 122 122 122 129 129 129 125 125 125 122 122 122 124 124 124 118 118 118 118 118 118 120 120 120 116 116 116 123 123 123 127 127 127 119 119 119 117 117 117 123 123 123 129 129 129 134 134 134 131 131 131 126 126 126 130 130 130 135 135 135 124 124 124 116 116 116 123 123 123 125 125 125 123 123 123 127 127 127 127 127 127 130 130 130 134 134 134 134 134 134 143 143 143 141 141 141 125 125 125 119 119 119 124 124 124 129 129 129 124 124 124 118 118 118 118 118 118 125 125 125 133 133 133 133 133 133 136 136 136 139 139 139 127 127 127 119 119 119 133 133 133 145 145 145 141 141 141 137 137 137 138 138 138 131 131 131 122 122 122 123 123 123 117 117 117 107 107 107 111 111 111 124 124 124 132 132 132 133 133 133 128 128 128 130 130 130 136 136 136 129 129 129 122 122 122 121 121 121 121 121 121 120 120 120 120 120 120 119 119 119 118 118 118 119 119 119 126 126 126 131 131 131 131 131 131 129 129 129 123 123 123 118 118 118 129 129 129 138 138 138 128 128 128 124 124 124 126 126 126 119 119 119 120 120 120 127 127 127 126 126 126 124 124 124 125 125 125 132 132 132 141 141 141 134 134 134 124 124 124 131 131 131 136 136 136 138 138 138 140 140 140 134 134 134 124 124 124 119 119 119 114 114 114 111 111 111 119 119 119 133 133 133 134 134 134 127 127 127 128 128 128 135 135 135 137 137 137 137 137 137 135 135 135 128 128 128 124 124 124 127 127 127 128 128 128 120 120 120 119 119 119 127 127 127 125 125 125 126 126 126 133 133 133 128 128 128 122 122 122 123 123 123 124 124 124 124 124 124 123 123 123 123 123 123 126 126 126 131 131 131 127 127 127 122 122 122 127 127 127 130 130 130 128 128 128 126 126 126 126 126 126 129 129 129 130 130 130 129 129 129 129 129 129 131 131 131 134 134 134 133 133 133 134 134 134 139 139 139 143 143 143 135 135 135 120 120 120 114 114 114 115 115 115 120 120 120 128 128 128 137 137 137 138 138 138 132 132 132 129 129 129 126 126 126 0 0 0 
0 0 0 123 123 123 120 120 120 124 124 124 126 126 126 120 120 120 114 114 114 114 114 114 123 123 123 132 132 132 133 133 133 130 130 130 131 131 131 141 141 141 145 145 145 141 141 141 133 133 133 126 126 126 130 130 130 133 133 133 128 128 128 118 118 118 121 121 121 128 128 128 122 122 122 123 123 123 128 128 128 128 128 128 125 125 125 123 123 123 129 129 129 131 131 131 131 131 131 135 135 135 136 136 136 133 133 133 124 124 124 124 124 124 132 132 132 128 128 128 122 122 122 124 124 124 122 122 122 122 122 122 130 130 130 133 133 133 121 121 121 121 121 121 124 124 124 117 117 117 119 119 119 125 125 125 124 124 124 125 125 125 126 126 126 128 128 128 130 130 130 128 128 128 129 129 129 132 132 132 131 131 131 124 124 124 114 114 114 116 116 116 124 124 124 127 127 127 130 130 130 132 132 132 135 135 135 133 133 133 126 126 126 134 134 134 133 133 133 118 118 118 117 117 117 125 125 125 123 123 123 119 119 119 115 115 115 114 114 114 122 122 122 134 134 134 142 142 142 145 145 145 141 141 141 123 123 123 120 120 120 135 135 135 142 142 142 140 140 140 136 136 136 131 131 131 130 130 130 130 130 130 128 128 128 119 119 119 111 111 111 116 116 116 132 132 132 138 138 138 129 129 129 124 124 124 130 130 130 132 132 132 122 122 122 117 117 117 119 119 119 120 120 120 122 122 122 125 125 125 121 121 121 112 112 112 115 115 115 126 126 126 135 135 135 136 136 136 137 137 137 139 139 139 132 132 132 133 133 133 141 141 141 138 138 138 134 134 134 132 132 132 122 122 122 120 120 120 128 128 128 126 126 126 121 121 121 122 122 122 125 125 125 135 135 135 134 134 134 125 125 125 133 133 133 140 140 140 138 138 138 136 136 136 129 129 129 126 126 126 127 127 127 119 119 119 111 111 111 123 123 123 141 141 141 142 142 142 131 131 131 132 132 132 142 142 142 144 144 144 142 142 142 141 141 141 133 133 133 122 122 122 120 120 120 121 121 121 120 120 120 121 121 121 127 127 127 129 129 129 135 135 135 137 137 137 126 126 126 124 124 124 128 128 128 129 129 129 130 130 130 128 128 128 119 119 119 120 120 120 131 131 131 131 131 131 132 132 132 134 134 134 130 130 130 131 131 131 134 134 134 134 134 134 136 136 136 134 134 134 129 129 129 125 125 125 126 126 126 128 128 128 128 128 128 134 134 134 137 137 137 137 137 137 132 132 132 122 122 122 112 112 112 111 111 111 117 117 117 128 128 128 134 134 134 133 133 133 133 133 133 129 129 129 119 119 119 0 0 0 
0 0 0 131 131 131 125 125 125 128 128 128 131 131 131 125 125 125 125 125 125 122 122 122 125 125 125 134 134 134 138 138 138 139 139 139 140 140 140 141 141 141 136 136 136 133 133 133 133 133 133 126 126 126 123 123 123 123 123 123 122 122 122 116 116 116 118 118 118 127 127 127 128 128 128 125 125 125 122 122 122 123 123 123 123 123 123 118 118 118 122 122 122 123 123 123 122 122 122 132 132 132 140 140 140 137 137 137 126 126 126 123 123 123 125 125 125 120 120 120 123 123 123 133 133 133 132 132 132 132 132 132 140 140 140 137 137 137 126 126 126 122 122 122 122 122 122 122 122 122 126 126 126 128 128 128 135 135 135 137 137 137 125 125 125 122 122 122 124 124 124 121 121 121 126 126 126 132 132 132 130 130 130 129 129 129 121 121 121 119 119 119 126 126 126 130 130 130 129 129 129 125 125 125 126 126 126 128 128 128 123 123 123 126 126 126 130 130 130 124 124 124 123 123 123 124 124 124 119 119 119 119 119 119 119 119 119 119 119 119 123 123 123 135 135 135 143 143 143 143 143 143 133 133 133 115 115 115 115 115 115 130 130 130 130 130 130 130 130 130 130 130 130 126 126 126 128 128 128 136 136 136 137 137 137 131 131 131 120 120 120 117 117 117 130 130 130 139 139 139 133 133 133 125 125 125 126 126 126 125 125 125 119 119 119 119 119 119 122 122 122 123 123 123 123 123 123 126 126 126 125 125 125 119 119 119 123 123 123 134 134 134 139 139 139 136 136 136 136 136 136 142 142 142 143 143 143 140 140 140 141 141 141 138 138 138 132 132 132 131 131 131 128 128 128 127 127 127 131 131 131 129 129 129 124 124 124 119 119 119 114 114 114 123 123 123 133 133 133 132 132 132 136 136 136 140 140 140 136 136 136 128 128 128 121 121 121 125 125 125 127 127 127 120 120 120 121 121 121 134 134 134 142 142 142 140 140 140 136 136 136 137 137 137 143 143 143 148 148 148 143 143 143 135 135 135 129 129 129 121 121 121 117 117 117 116 116 116 118 118 118 125 125 125 130 130 130 127 127 127 129 129 129 132 132 132 127 127 127 124 124 124 131 131 131 134 134 134 131 131 131 129 129 129 123 123 123 125 125 125 131 131 131 128 128 128 129 129 129 132 132 132 127 127 127 129 129 129 133 133 133 132 132 132 132 132 132 127 127 127 123 123 123 120 120 120 120 120 120 121 121 121 122 122 122 125 125 125 126 126 126 129 129 129 131 131 131 125 125 125 118 118 118 119 119 119 124 124 124 127 127 127 127 127 127 131 131 131 137 137 137 131 131 131 122 122 122 0 0 0 
0 0 0 137 137 137 135 135 135 131 131 131 127 127 127 120 120 120 122 122 122 122 122 122 126 126 126 135 135 135 138 138 138 141 141 141 143 143 143 143 143 143 136 136 136 128 128 128 130 130 130 134 134 134 129 129 129 123 123 123 121 121 121 121 121 121 122 122 122 129 129 129 139 139 139 137 137 137 129 129 129 130 130 130 126 126 126 117 117 117 121 121 121 127 127 127 127 127 127 134 134 134 140 140 140 139 139 139 134 134 134 127 127 127 118 118 118 114 114 114 124 124 124 141 141 141 143 143 143 137 137 137 138 138 138 136 136 136 130 130 130 125 125 125 124 124 124 129 129 129 129 129 129 126 126 126 134 134 134 136 136 136 125 125 125 125 125 125 124 124 124 117 117 117 120 120 120 126 126 126 125 125 125 126 126 126 127 127 127 126 126 126 129 129 129 132 132 132 125 125 125 117 117 117 117 117 117 121 121 121 124 124 124 129 129 129 131 131 131 128 128 128 128 128 128 124 124 124 118 118 118 120 120 120 122 122 122 124 124 124 126 126 126 132 132 132 138 138 138 138 138 138 130 130 130 118 118 118 116 116 116 127 127 127 129 129 129 124 124 124 122 122 122 124 124 124 128 128 128 133 133 133 134 134 134 130 130 130 123 123 123 121 121 121 129 129 129 133 133 133 131 131 131 125 125 125 123 123 123 124 124 124 122 122 122 120 120 120 120 120 120 125 125 125 125 125 125 120 120 120 121 121 121 128 128 128 137 137 137 141 141 141 131 131 131 125 125 125 127 127 127 132 132 132 137 137 137 138 138 138 137 137 137 132 132 132 123 123 123 123 123 123 127 127 127 130 130 130 134 134 134 136 136 136 128 128 128 116 116 116 111 111 111 117 117 117 129 129 129 137 137 137 137 137 137 133 133 133 131 131 131 127 127 127 120 120 120 118 118 118 120 120 120 125 125 125 134 134 134 138 138 138 131 131 131 123 123 123 126 126 126 132 132 132 140 140 140 147 147 147 139 139 139 127 127 127 126 126 126 121 121 121 117 117 117 119 119 119 124 124 124 135 135 135 139 139 139 129 129 129 121 121 121 119 119 119 119 119 119 121 121 121 130 130 130 137 137 137 130 130 130 127 127 127 129 129 129 134 134 134 133 133 133 123 123 123 121 121 121 125 125 125 122 122 122 125 125 125 132 132 132 136 136 136 135 135 135 126 126 126 125 125 125 128 128 128 123 123 123 120 120 120 125 125 125 127 127 127 124 124 124 127 127 127 128 128 128 124 124 124 129 129 129 134 134 134 128 128 128 122 122 122 120 120 120 127 127 127 135 135 135 126 126 126 124 124 124 0 0 0 
0 0 0 134 134 134 133 133 133 127 127 127 125 125 125 121 121 121 122 122 122 122 122 122 127 127 127 131 131 131 130 130 130 132 132 132 136 136 136 137 137 137 134 134 134 127 127 127 130 130 130 137 137 137 134 134 134 124 124 124 120 120 120 125 125 125 127 127 127 129 129 129 138 138 138 138 138 138 133 133 133 135 135 135 127 127 127 119 119 119 127 127 127 134 134 134 138 138 138 137 137 137 131 131 131 132 132 132 135 135 135 131 131 131 120 120 120 112 112 112 119 119 119 138 138 138 144 144 144 136 136 136 129 129 129 127 127 127 128 128 128 128 128 128 131 131 131 132 132 132 129 129 129 131 131 131 134 134 134 126 126 126 119 119 119 119 119 119 115 115 115 110 110 110 116 116 116 123 123 123 117 117 117 116 116 116 122 122 122 121 121 121 127 127 127 134 134 134 126 126 126 119 119 119 118 118 118 119 119 119 128 128 128 137 137 137 138 138 138 133 133 133 131 131 131 129 129 129 126 126 126 121 121 121 119 119 119 122 122 122 127 127 127 133 133 133 138 138 138 138 138 138 132 132 132 123 123 123 120 120 120 128 128 128 133 133 133 124 124 124 116 116 116 119 119 119 129 129 129 134 134 134 129 129 129 125 125 125 130 130 130 136 136 136 137 137 137 133 133 133 128 128 128 123 123 123 121 121 121 124 124 124 125 125 125 121 121 121 118 118 118 120 120 120 120 120 120 114 114 114 116 116 116 127 127 127 140 140 140 140 140 140 128 128 128 122 122 122 128 128 128 132 132 132 131 131 131 130 130 130 129 129 129 128 128 128 126 126 126 128 128 128 127 127 127 128 128 128 134 134 134 134 134 134 125 125 125 117 117 117 114 114 114 116 116 116 125 125 125 135 135 135 136 136 136 131 131 131 126 126 126 120 120 120 117 117 117 115 115 115 119 119 119 133 133 133 139 139 139 131 131 131 123 123 123 117 117 117 120 120 120 128 128 128 137 137 137 142 142 142 135 135 135 124 124 124 124 124 124 123 123 123 122 122 122 129 129 129 131 131 131 132 132 132 136 136 136 134 134 134 123 123 123 112 112 112 112 112 112 118 118 118 129 129 129 136 136 136 130 130 130 124 124 124 129 129 129 135 135 135 132 132 132 125 125 125 126 126 126 128 128 128 126 126 126 126 126 126 133 133 133 141 141 141 139 139 139 133 133 133 133 133 133 135 135 135 130 130 130 127 127 127 135 135 135 140 140 140 136 136 136 132 132 132 123 123 123 119 119 119 132 132 132 139 139 139 131 131 131 128 128 128 126 126 126 126 126 126 126 126 126 121 121 121 127 127 127 0 0 0 
0 0 0 128 128 128 125 125 125 128 128 128 133 133 133 131 131 131 132 132 132 132 132 132 131 131 131 129 129 129 126 126 126 125 125 125 125 125 125 129 129 129 129 129 129 126 126 126 131 131 131 138 138 138 135 135 135 124 124 124 119 119 119 121 121 121 120 120 120 121 121 121 126 126 126 134 134 134 139 139 139 141 141 141 136 136 136 131 131 131 134 134 134 139 139 139 144 144 144 136 136 136 126 126 126 131 131 131 133 133 133 127 127 127 121 121 121 114 114 114 116 116 116 131 131 131 139 139 139 141 141 141 148 148 148 153 153 153 154 154 154 155 155 155 161 161 161 161 161 161 158 158 158 165 165 165 166 166 166 156 156 156 149 149 149 147 147 147 135 135 135 121 121 121 123 123 123 129 129 129 121 121 121 114 114 114 119 119 119 118 118 118 124 124 124 128 128 128 122 122 122 122 122 122 124 124 124 127 127 127 132 132 132 133 133 133 135 135 135 137 137 137 133 133 133 131 131 131 133 133 133 124 124 124 119 119 119 125 125 125 128 128 128 131 131 131 136 136 136 133 133 133 121 121 121 114 114 114 119 119 119 126 126 126 127 127 127 123 123 123 116 116 116 117 117 117 125 125 125 135 135 135 135 135 135 133 133 133 137 137 137 138 138 138 140 140 140 134 134 134 124 124 124 122 122 122 121 121 121 121 121 121 129 129 129 131 131 131 125 125 125 123 123 123 121 121 121 118 118 118 117 117 117 121 121 121 134 134 134 138 138 138 132 132 132 128 128 128 133 133 133 136 136 136 131 131 131 126 126 126 124 124 124 128 128 128 132 132 132 130 130 130 125 125 125 125 125 125 133 133 133 131 131 131 125 125 125 127 127 127 123 123 123 123 123 123 131 131 131 133 133 133 132 132 132 128 128 128 118 118 118 111 111 111 120 120 120 126 126 126 125 125 125 129 129 129 133 133 133 128 128 128 120 120 120 119 119 119 118 118 118 119 119 119 124 124 124 130 130 130 134 134 134 129 129 129 127 127 127 131 131 131 132 132 132 133 133 133 125 125 125 119 119 119 125 125 125 127 127 127 120 120 120 114 114 114 112 112 112 112 112 112 120 120 120 128 128 128 128 128 128 125 125 125 128 128 128 129 129 129 125 125 125 127 127 127 131 131 131 131 131 131 128 128 128 125 125 125 126 126 126 131 131 131 128 128 128 127 127 127 130 130 130 131 131 131 130 130 130 127 127 127 131 131 131 139 139 139 140 140 140 134 134 134 120 120 120 116 116 116 127 127 127 132 132 132 129 129 129 131 131 131 133 133 133 130 130 130 121 121 121 119 119 119 128 128 128 0 0 0 
0 0 0 126 126 126 125 125 125 132 132 132 133 133 133 126 126 126 126 126 126 133 133 133 131 131 131 127 127 127 130 130 130 127 127 127 120 120 120 125 125 125 134 134 134 132 132 132 129 129 129 136 136 136 139 139 139 134 134 134 128 128 128 120 120 120 117 117 117 120 120 120 121 121 121 131 131 131 142 142 142 142 142 142 138 138 138 135 135 135 137 137 137 144 144 144 146 146 146 135 135 135 126 126 126 130 130 130 132 132 132 130 130 130 128 128 128 124 124 124 122 122 122 134 134 134 155 155 155 177 177 177 203 203 203 216 216 216 212 212 212 212 212 212 218 218 218 219 219 219 217 217 217 218 218 218 219 219 219 218 218 218 216 216 216 212 212 212 198 198 198 173 173 173 157 157 157 143 143 143 130 130 130 123 123 123 123 123 123 126 126 126 128 128 128 126 126 126 125 125 125 129 129 129 133 133 133 138 138 138 133 133 133 120 120 120 118 118 118 126 126 126 128 128 128 128 128 128 130 130 130 123 123 123 117 117 117 120 120 120 123 123 123 125 125 125 127 127 127 123 123 123 115 115 115 114 114 114 125 125 125 132 132 132 128 128 128 123 123 123 122 122 122 124 124 124 124 124 124 130 130 130 138 138 138 140 140 140 137 137 137 129 129 129 127 127 127 124 124 124 117 117 117 122 122 122 125 125 125 121 121 121 126 126 126 135 135 135 133 133 133 130 130 130 130 130 130 130 130 130 122 122 122 122 122 122 135 135 135 141 141 141 138 138 138 135 135 135 133 133 133 129 129 129 128 128 128 127 127 127 122 122 122 123 123 123 127 127 127 126 126 126 118 118 118 116 116 116 125 125 125 128 128 128 129 129 129 132 132 132 125 125 125 124 124 124 133 133 133 131 131 131 128 128 128 124 124 124 112 112 112 112 112 112 126 126 126 134 134 134 130 130 130 122 122 122 123 123 123 127 127 127 121 121 121 118 118 118 120 120 120 116 116 116 113 113 113 121 121 121 130 130 130 131 131 131 136 136 136 142 142 142 137 137 137 131 131 131 123 123 123 120 120 120 125 125 125 121 121 121 114 114 114 119 119 119 122 122 122 116 116 116 116 116 116 120 120 120 124 124 124 127 127 127 128 128 128 127 127 127 127 127 127 127 127 127 125 125 125 123 123 123 121 121 121 116 116 116 115 115 115 118 118 118 116 116 116 120 120 120 127 127 127 127 127 127 127 127 127 124 124 124 119 119 119 123 123 123 129 129 129 126 126 126 120 120 120 115 115 115 121 121 121 126 126 126 123 123 123 124 124 124 131 131 131 131 131 131 121 121 121 116 116 116 124 124 124 0 0 0 
0 0 0 124 124 124 126 126 126 131 131 131 124 124 124 116 116 116 120 120 120 127 127 127 130 130 130 132 132 132 136 136 136 133 133 133 125 125 125 124 124 124 137 137 137 140 140 140 128 128 128 127 127 127 135 135 135 136 136 136 131 131 131 126 126 126 129 129 129 131 131 131 123 123 123 121 121 121 131 131 131 137 137 137 129 129 129 124 124 124 132 132 132 142 142 142 144 144 144 138 138 138 131 131 131 126 126 126 128 128 128 132 132 132 134 134 134 143 143 143 153 153 153 172 172 172 205 205 205 228 228 228 241 241 241 246 246 246 244 244 244 248 248 248 248 248 248 243 243 243 242 242 242 243 243 243 245 245 245 245 245 245 242 242 242 240 240 240 236 236 236 229 229 229 210 210 210 180 180 180 155 155 155 134 134 134 126 126 126 134 134 134 135 135 135 131 131 131 133 133 133 136 136 136 136 136 136 137 137 137 128 128 128 113 113 113 111 111 111 119 119 119 122 122 122 125 125 125 128 128 128 125 125 125 120 120 120 123 123 123 129 129 129 129 129 129 122 122 122 121 121 121 123 123 123 122 122 122 129 129 129 134 134 134 126 126 126 123 123 123 133 133 133 139 139 139 130 130 130 125 125 125 131 131 131 134 134 134 133 133 133 126 126 126 120 120 120 119 119 119 121 121 121 125 125 125 124 124 124 117 117 117 118 118 118 131 131 131 137 137 137 131 131 131 129 129 129 130 130 130 123 123 123 124 124 124 132 132 132 138 138 138 142 142 142 136 136 136 126 126 126 121 121 121 124 124 124 126 126 126 117 117 117 115 115 115 126 126 126 132 132 132 121 121 121 111 111 111 113 113 113 120 120 120 130 130 130 133 133 133 123 123 123 116 116 116 121 121 121 125 125 125 125 125 125 120 120 120 110 110 110 112 112 112 124 124 124 128 128 128 127 127 127 125 125 125 126 126 126 133 133 133 129 129 129 122 122 122 126 126 126 128 128 128 124 124 124 127 127 127 130 130 130 129 129 129 135 135 135 137 137 137 130 130 130 128 128 128 132 132 132 132 132 132 128 128 128 123 123 123 120 120 120 125 125 125 132 132 132 129 129 129 124 124 124 118 118 118 118 118 118 126 126 126 131 131 131 135 135 135 139 139 139 135 135 135 129 129 129 124 124 124 118 118 118 115 115 115 115 115 115 114 114 114 113 113 113 119 119 119 125 125 125 124 124 124 126 126 126 125 125 125 115 115 115 115 115 115 127 127 127 131 131 131 127 127 127 121 121 121 124 124 124 128 128 128 123 123 123 126 126 126 131 131 131 127 127 127 121 121 121 119 119 119 119 119 119 0 0 0 
0 0 0 117 117 117 122 122 122 125 125 125 117 117 117 117 117 117 126 126 126 121 121 121 119 119 119 131 131 131 137 137 137 133 133 133 128 128 128 128 128 128 134 134 134 138 138 138 130 130 130 123 123 123 123 123 123 128 128 128 129 129 129 129 129 129 134 134 134 133 133 133 123 123 123 114 114 114 119 119 119 128 128 128 125 125 125 118 118 118 126 126 126 136 136 136 135 135 135 129 129 129 127 127 127 129 129 129 131 131 131 136 136 136 151 151 151 180 180 180 208 208 208 228 228 228 245 245 245 251 251 251 245 245 245 243 243 243 245 245 245 249 249 249 248 248 248 242 242 242 240 240 240 244 244 244 249 249 249 247 247 247 240 240 240 239 239 239 243 243 243 248 248 248 245 245 245 232 232 232 204 204 204 165 165 165 145 145 145 141 141 141 133 133 133 129 129 129 132 132 132 133 133 133 132 132 132 128 128 128 118 118 118 112 112 112 119 119 119 121 121 121 116 116 116 119 119 119 124 124 124 127 127 127 130 130 130 138 138 138 142 142 142 131 131 131 120 120 120 124 124 124 130 130 130 127 127 127 126 126 126 126 126 126 122 122 122 130 130 130 141 141 141 139 139 139 126 126 126 121 121 121 127 127 127 128 128 128 128 128 128 128 128 128 131 131 131 134 134 134 129 129 129 122 122 122 119 119 119 114 114 114 113 113 113 127 127 127 136 136 136 129 129 129 127 127 127 127 127 127 121 121 121 119 119 119 120 120 120 130 130 130 139 139 139 132 132 132 123 123 123 119 119 119 122 122 122 125 125 125 119 119 119 118 118 118 126 126 126 130 130 130 124 124 124 118 118 118 116 116 116 121 121 121 134 134 134 139 139 139 131 131 131 120 120 120 116 116 116 116 116 116 119 119 119 117 117 117 108 108 108 108 108 108 120 120 120 124 124 124 121 121 121 126 126 126 135 135 135 137 137 137 137 137 137 132 132 132 130 130 130 137 137 137 136 136 136 133 133 133 134 134 134 133 133 133 125 125 125 122 122 122 123 123 123 125 125 125 133 133 133 135 135 135 127 127 127 125 125 125 128 128 128 124 124 124 126 126 126 133 133 133 129 129 129 123 123 123 120 120 120 126 126 126 131 131 131 132 132 132 134 134 134 133 133 133 131 131 131 127 127 127 120 120 120 122 122 122 128 128 128 127 127 127 124 124 124 122 122 122 119 119 119 117 117 117 120 120 120 120 120 120 113 113 113 114 114 114 127 127 127 138 138 138 137 137 137 131 131 131 136 136 136 138 138 138 132 132 132 132 132 132 134 134 134 126 126 126 120 120 120 123 123 123 121 121 121 0 0 0 
0 0 0 117 117 117 119 119 119 121 121 121 121 121 121 124 124 124 124 124 124 114 114 114 109 109 109 118 118 118 129 129 129 128 128 128 123 123 123 126 126 126 129 129 129 132 132 132 131 131 131 121 121 121 116 116 116 127 127 127 133 133 133 129 129 129 127 127 127 127 127 127 126 126 126 123 123 123 119 119 119 123 123 123 126 126 126 124 124 124 128 128 128 131 131 131 126 126 126 120 120 120 125 125 125 135 135 135 140 140 140 162 162 162 201 201 201 227 227 227 243 243 243 251 251 251 254 254 254 252 252 252 245 245 245 242 242 242 243 243 243 245 245 245 249 249 249 250 250 250 247 247 247 248 248 248 252 252 252 251 251 251 245 245 245 244 244 244 246 246 246 249 249 249 250 250 250 251 251 251 240 240 240 220 220 220 201 201 201 168 168 168 134 134 134 125 125 125 129 129 129 132 132 132 128 128 128 123 123 123 119 119 119 119 119 119 125 125 125 118 118 118 110 110 110 113 113 113 121 121 121 125 125 125 130 130 130 136 136 136 134 134 134 123 123 123 120 120 120 129 129 129 139 139 139 138 138 138 129 129 129 121 121 121 124 124 124 134 134 134 136 136 136 127 127 127 118 118 118 121 121 121 128 128 128 130 130 130 128 128 128 126 126 126 134 134 134 140 140 140 130 130 130 119 119 119 121 121 121 124 124 124 118 118 118 119 119 119 126 126 126 128 128 128 133 133 133 136 136 136 129 129 129 120 120 120 117 117 117 126 126 126 131 131 131 122 122 122 117 117 117 116 116 116 123 123 123 129 129 129 124 124 124 121 121 121 118 118 118 116 116 116 120 120 120 123 123 123 127 127 127 131 131 131 134 134 134 134 134 134 137 137 137 133 133 133 123 123 123 116 116 116 120 120 120 122 122 122 115 115 115 115 115 115 122 122 122 125 125 125 121 121 121 124 124 124 130 130 130 130 130 130 139 139 139 137 137 137 129 129 129 133 133 133 135 135 135 133 133 133 136 136 136 133 133 133 124 124 124 123 123 123 126 126 126 127 127 127 131 131 131 130 130 130 121 121 121 123 123 123 134 134 134 126 126 126 122 122 122 126 126 126 123 123 123 123 123 123 124 124 124 127 127 127 126 126 126 120 120 120 117 117 117 120 120 120 121 121 121 120 120 120 120 120 120 122 122 122 131 131 131 141 141 141 140 140 140 127 127 127 120 120 120 119 119 119 118 118 118 121 121 121 119 119 119 118 118 118 122 122 122 131 131 131 137 137 137 135 135 135 139 139 139 139 139 139 134 134 134 134 134 134 130 130 130 119 119 119 115 115 115 124 124 124 130 130 130 0 0 0 
0 0 0 124 124 124 120 120 120 123 123 123 129 129 129 129 129 129 122 122 122 118 118 118 116 116 116 116 116 116 123 123 123 126 126 126 120 120 120 118 118 118 128 128 128 135 135 135 132 132 132 122 122 122 116 116 116 127 127 127 138 138 138 132 132 132 124 124 124 126 126 126 132 132 132 132 132 132 126 126 126 124 124 124 125 125 125 126 126 126 127 127 127 124 124 124 120 120 120 125 125 125 132 132 132 142 142 142 166 166 166 203 203 203 233 233 233 242 242 242 243 243 243 246 246 246 250 250 250 250 250 250 245 245 245 239 239 239 240 240 240 244 244 244 250 250 250 254 254 254 254 254 254 253 253 253 253 253 253 251 251 251 247 247 247 246 246 246 247 247 247 247 247 247 244 244 244 244 244 244 247 247 247 250 250 250 245 245 245 214 214 214 166 166 166 132 132 132 124 124 124 127 127 127 124 124 124 121 121 121 125 125 125 125 125 125 123 123 123 120 120 120 117 117 117 120 120 120 124 124 124 127 127 127 127 127 127 124 124 124 121 121 121 122 122 122 127 127 127 132 132 132 138 138 138 138 138 138 127 127 127 121 121 121 124 124 124 125 125 125 125 125 125 125 125 125 125 125 125 127 127 127 128 128 128 127 127 127 125 125 125 121 121 121 124 124 124 129 129 129 127 127 127 122 122 122 128 128 128 134 134 134 126 126 126 118 118 118 120 120 120 127 127 127 137 137 137 139 139 139 135 135 135 131 131 131 123 123 123 120 120 120 122 122 122 119 119 119 115 115 115 113 113 113 120 120 120 128 128 128 124 124 124 119 119 119 119 119 119 123 123 123 124 124 124 120 120 120 123 123 123 125 125 125 121 121 121 123 123 123 135 135 135 140 140 140 134 134 134 129 129 129 129 129 129 128 128 128 131 131 131 133 133 133 129 129 129 126 126 126 126 126 126 125 125 125 119 119 119 118 118 118 133 133 133 136 136 136 130 130 130 128 128 128 131 131 131 135 135 135 133 133 133 125 125 125 124 124 124 132 132 132 131 131 131 128 128 128 129 129 129 124 124 124 115 115 115 120 120 120 131 131 131 130 130 130 126 126 126 119 119 119 117 117 117 124 124 124 128 128 128 132 132 132 134 134 134 126 126 126 116 116 116 115 115 115 116 116 116 121 121 121 122 122 122 119 119 119 122 122 122 136 136 136 142 142 142 133 133 133 128 128 128 126 126 126 120 120 120 125 125 125 132 132 132 128 128 128 126 126 126 130 130 130 133 133 133 133 133 133 135 135 135 129 129 129 125 125 125 130 130 130 125 125 125 115 115 115 119 119 119 131 131 131 136 136 136 0 0 0 
0 0 0 134 134 134 126 126 126 123 123 123 127 127 127 129 129 129 130 130 130 130 130 130 126 126 126 123 123 123 122 122 122 121 121 121 118 118 118 122 122 122 134 134 134 139 139 139 132 132 132 122 122 122 120 120 120 130 130 130 140 140 140 135 135 135 129 129 129 131 131 131 134 134 134 131 131 131 127 127 127 127 127 127 123 123 123 121 121 121 123 123 123 119 119 119 117 117 117 123 123 123 134 134 134 166 166 166 209 209 209 234 234 234 239 239 239 239 239 239 240 240 240 243 243 243 246 246 246 247 247 247 245 245 245 241 241 241 242 242 242 247 247 247 251 251 251 252 252 252 252 252 252 252 252 252 252 252 252 252 252 252 251 251 251 251 251 251 249 249 249 245 245 245 241 241 241 238 238 238 242 242 242 251 251 251 253 253 253 245 245 245 213 213 213 163 163 163 130 130 130 124 124 124 121 121 121 119 119 119 122 122 122 121 121 121 119 119 119 124 124 124 131 131 131 133 133 133 129 129 129 127 127 127 126 126 126 123 123 123 126 126 126 129 129 129 126 126 126 123 123 123 123 123 123 122 122 122 117 117 117 118 118 118 122 122 122 121 121 121 124 124 124 127 127 127 126 126 126 128 128 128 126 126 126 124 124 124 123 123 123 122 122 122 122 122 122 122 122 122 121 121 121 120 120 120 124 124 124 129 129 129 126 126 126 124 124 124 127 127 127 132 132 132 135 135 135 129 129 129 128 128 128 135 135 135 131 131 131 120 120 120 121 121 121 127 127 127 127 127 127 122 122 122 118 118 118 118 118 118 121 121 121 124 124 124 129 129 129 136 136 136 129 129 129 114 114 114 114 114 114 121 121 121 120 120 120 124 124 124 138 138 138 145 145 145 141 141 141 135 135 135 131 131 131 131 131 131 136 136 136 139 139 139 133 133 133 126 126 126 121 121 121 118 118 118 115 115 115 115 115 115 123 123 123 132 132 132 130 130 130 123 123 123 127 127 127 133 133 133 126 126 126 117 117 117 122 122 122 133 133 133 126 126 126 120 120 120 123 123 123 120 120 120 118 118 118 124 124 124 129 129 129 125 125 125 123 123 123 119 119 119 122 122 122 131 131 131 131 131 131 135 135 135 143 143 143 137 137 137 123 123 123 115 115 115 122 122 122 131 131 131 130 130 130 126 126 126 121 121 121 122 122 122 134 134 134 135 135 135 132 132 132 129 129 129 122 122 122 128 128 128 135 135 135 129 129 129 128 128 128 131 131 131 130 130 130 131 131 131 132 132 132 127 127 127 121 121 121 124 124 124 124 124 124 121 121 121 129 129 129 137 137 137 134 134 134 0 0 0 
0 0 0 134 134 134 130 130 130 123 123 123 119 119 119 122 122 122 134 134 134 136 136 136 129 129 129 129 129 129 125 125 125 118 118 118 123 123 123 131 131 131 134 134 134 131 131 131 122 122 122 117 117 117 120 120 120 128 128 128 136 136 136 133 133 133 129 129 129 135 135 135 138 138 138 130 130 130 122 122 122 122 122 122 122 122 122 117 117 117 117 117 117 119 119 119 117 117 117 126 126 126 161 161 161 210 210 210 239 239 239 244 244 244 245 245 245 246 246 246 246 246 246 246 246 246 247 247 247 247 247 247 248 248 248 248 248 248 246 246 246 249 249 249 250 250 250 247 247 247 248 248 248 251 251 251 249 249 249 249 249 249 251 251 251 253 253 253 252 252 252 250 250 250 246 246 246 240 240 240 242 242 242 251 251 251 252 252 252 249 249 249 241 241 241 211 211 211 169 169 169 139 139 139 129 129 129 127 127 127 124 124 124 122 122 122 123 123 123 127 127 127 131 131 131 135 135 135 133 133 133 124 124 124 123 123 123 131 131 131 134 134 134 127 127 127 122 122 122 119 119 119 116 116 116 114 114 114 117 117 117 124 124 124 128 128 128 132 132 132 134 134 134 129 129 129 123 123 123 126 126 126 130 130 130 128 128 128 126 126 126 129 129 129 126 126 126 117 117 117 118 118 118 123 123 123 124 124 124 126 126 126 128 128 128 129 129 129 131 131 131 134 134 134 133 133 133 122 122 122 119 119 119 129 129 129 130 130 130 122 122 122 121 121 121 127 127 127 131 131 131 133 133 133 128 128 128 121 121 121 123 123 123 128 128 128 130 130 130 130 130 130 124 124 124 115 115 115 119 119 119 131 131 131 129 129 129 130 130 130 144 144 144 147 147 147 138 138 138 131 131 131 124 124 124 124 124 124 129 129 129 131 131 131 131 131 131 127 127 127 122 122 122 119 119 119 118 118 118 118 118 118 122 122 122 127 127 127 129 129 129 127 127 127 126 126 126 127 127 127 125 125 125 122 122 122 124 124 124 129 129 129 126 126 126 128 128 128 132 132 132 126 126 126 124 124 124 130 130 130 133 133 133 127 127 127 120 120 120 122 122 122 130 130 130 136 136 136 130 130 130 127 127 127 132 132 132 127 127 127 117 117 117 117 117 117 128 128 128 134 134 134 135 135 135 134 134 134 123 123 123 115 115 115 123 123 123 130 130 130 129 129 129 129 129 129 130 130 130 134 134 134 134 134 134 128 128 128 127 127 127 128 128 128 128 128 128 129 129 129 132 132 132 131 131 131 121 121 121 118 118 118 122 122 122 128 128 128 135 135 135 138 138 138 129 129 129 0 0 0 
0 0 0 123 123 123 127 127 127 128 128 128 119 119 119 121 121 121 132 132 132 135 135 135 131 131 131 128 128 128 123 123 123 122 122 122 126 126 126 125 125 125 126 126 126 126 126 126 120 120 120 116 116 116 116 116 116 121 121 121 125 125 125 121 121 121 121 121 121 131 131 131 135 135 135 128 128 128 117 117 117 113 113 113 116 116 116 116 116 116 116 116 116 120 120 120 130 130 130 161 161 161 210 210 210 243 243 243 248 248 248 244 244 244 248 248 248 248 248 248 243 243 243 242 242 242 245 245 245 247 247 247 249 249 249 248 248 248 245 245 245 247 247 247 246 246 246 244 244 244 248 248 248 252 252 252 250 250 250 245 245 245 247 247 247 250 250 250 251 251 251 252 252 252 252 252 252 247 247 247 244 244 244 248 248 248 251 251 251 249 249 249 249 249 249 245 245 245 216 216 216 171 171 171 144 144 144 136 136 136 134 134 134 134 134 134 133 133 133 130 130 130 125 125 125 127 127 127 129 129 129 121 121 121 121 121 121 129 129 129 127 127 127 123 123 123 131 131 131 131 131 131 117 117 117 112 112 112 121 121 121 132 132 132 137 137 137 139 139 139 140 140 140 135 135 135 127 127 127 127 127 127 130 130 130 124 124 124 125 125 125 135 135 135 128 128 128 116 116 116 121 121 121 131 131 131 131 131 131 128 128 128 131 131 131 133 133 133 128 128 128 129 129 129 131 131 131 121 121 121 116 116 116 120 120 120 121 121 121 120 120 120 123 123 123 127 127 127 128 128 128 132 132 132 135 135 135 134 134 134 129 129 129 126 126 126 123 123 123 121 121 121 125 125 125 127 127 127 127 127 127 131 131 131 131 131 131 132 132 132 139 139 139 136 136 136 129 129 129 128 128 128 123 123 123 118 118 118 122 122 122 127 127 127 132 132 132 134 134 134 133 133 133 128 128 128 119 119 119 116 116 116 122 122 122 127 127 127 135 135 135 142 142 142 137 137 137 128 128 128 130 130 130 131 131 131 127 127 127 127 127 127 133 133 133 141 141 141 138 138 138 133 133 133 129 129 129 127 127 127 131 131 131 126 126 126 118 118 118 121 121 121 130 130 130 136 136 136 132 132 132 126 126 126 125 125 125 117 117 117 110 110 110 116 116 116 127 127 127 129 129 129 128 128 128 130 130 130 122 122 122 114 114 114 119 119 119 124 124 124 126 126 126 129 129 129 132 132 132 134 134 134 133 133 133 131 131 131 129 129 129 129 129 129 129 129 129 128 128 128 133 133 133 133 133 133 119 119 119 112 112 112 120 120 120 134 134 134 140 140 140 133 133 133 122 122 122 0 0 0 
0 0 0 120 120 120 124 124 124 132 132 132 127 127 127 125 125 125 131 131 131 137 137 137 135 135 135 122 122 122 119 119 119 126 126 126 125 125 125 120 120 120 126 126 126 127 127 127 120 120 120 116 116 116 119 119 119 124 124 124 120 120 120 112 112 112 118 118 118 127 127 127 125 125 125 120 120 120 116 116 116 111 111 111 114 114 114 118 118 118 119 119 119 123 123 123 148 148 148 202 202 202 241 241 241 252 252 252 253 253 253 250 250 250 250 250 250 247 247 247 240 240 240 237 237 237 241 241 241 244 244 244 246 246 246 248 248 248 245 245 245 242 242 242 240 240 240 244 244 244 250 250 250 253 253 253 252 252 252 248 248 248 247 247 247 248 248 248 247 247 247 250 250 250 252 252 252 248 248 248 243 243 243 244 244 244 250 250 250 253 253 253 251 251 251 249 249 249 240 240 240 207 207 207 158 158 158 133 133 133 137 137 137 138 138 138 128 128 128 127 127 127 127 127 127 122 122 122 123 123 123 124 124 124 120 120 120 121 121 121 121 121 121 126 126 126 138 138 138 134 134 134 118 118 118 115 115 115 122 122 122 129 129 129 133 133 133 132 132 132 135 135 135 136 136 136 128 128 128 126 126 126 127 127 127 125 125 125 130 130 130 139 139 139 135 135 135 120 120 120 119 119 119 126 126 126 123 123 123 120 120 120 126 126 126 131 131 131 127 127 127 122 122 122 121 121 121 120 120 120 120 120 120 115 115 115 116 116 116 124 124 124 130 130 130 134 134 134 134 134 134 132 132 132 131 131 131 133 133 133 130 130 130 124 124 124 120 120 120 120 120 120 131 131 131 136 136 136 126 126 126 122 122 122 125 125 125 126 126 126 126 126 126 121 121 121 119 119 119 123 123 123 122 122 122 118 118 118 120 120 120 125 125 125 132 132 132 137 137 137 133 133 133 130 130 130 125 125 125 118 118 118 119 119 119 128 128 128 140 140 140 145 145 145 138 138 138 129 129 129 132 132 132 137 137 137 135 135 135 129 129 129 131 131 131 131 131 131 126 126 126 130 130 130 129 129 129 120 120 120 118 118 118 117 117 117 118 118 118 125 125 125 129 129 129 132 132 132 135 135 135 133 133 133 130 130 130 122 122 122 113 113 113 114 114 114 121 121 121 127 127 127 128 128 128 128 128 128 125 125 125 118 118 118 116 116 116 121 121 121 132 132 132 136 136 136 131 131 131 128 128 128 127 127 127 128 128 128 128 128 128 129 129 129 131 131 131 127 127 127 131 131 131 133 133 133 121 121 121 113 113 113 120 120 120 130 130 130 133 133 133 124 124 124 122 122 122 0 0 0 
0 0 0 123 123 123 124 124 124 129 129 129 128 128 128 124 124 124 122 122 122 129 129 129 131 131 131 119 119 119 116 116 116 124 124 124 124 124 124 124 124 124 133 133 133 128 128 128 118 118 118 118 118 118 127 127 127 133 133 133 125 125 125 119 119 119 128 128 128 134 134 134 125 125 125 114 114 114 112 112 112 113 113 113 119 119 119 125 125 125 126 126 126 134 134 134 171 171 171 225 225 225 250 250 250 249 249 249 251 251 251 251 251 251 250 250 250 248 248 248 246 246 246 241 241 241 237 237 237 240 240 240 248 248 248 252 252 252 247 247 247 239 239 239 240 240 240 247 247 247 251 251 251 251 251 251 251 251 251 249 249 249 246 246 246 248 248 248 249 249 249 247 247 247 248 248 248 248 248 248 246 246 246 245 245 245 251 251 251 254 254 254 251 251 251 245 245 245 245 245 245 230 230 230 176 176 176 133 133 133 130 130 130 130 130 130 121 121 121 126 126 126 130 130 130 119 119 119 120 120 120 123 123 123 116 116 116 114 114 114 120 120 120 130 130 130 133 133 133 128 128 128 123 123 123 122 122 122 123 123 123 126 126 126 129 129 129 129 129 129 132 132 132 133 133 133 128 128 128 126 126 126 127 127 127 134 134 134 142 142 142 141 141 141 136 136 136 125 125 125 120 120 120 124 124 124 122 122 122 118 118 118 123 123 123 125 125 125 118 118 118 113 113 113 113 113 113 118 118 118 124 124 124 118 118 118 114 114 114 123 123 123 131 131 131 134 134 134 137 137 137 134 134 134 124 124 124 124 124 124 128 128 128 126 126 126 119 119 119 118 118 118 125 125 125 130 130 130 126 126 126 121 121 121 121 121 121 124 124 124 128 128 128 122 122 122 117 117 117 119 119 119 117 117 117 121 121 121 128 128 128 128 128 128 131 131 131 137 137 137 131 131 131 124 124 124 128 128 128 125 125 125 124 124 124 132 132 132 136 136 136 134 134 134 127 127 127 122 122 122 127 127 127 133 133 133 133 133 133 131 131 131 125 125 125 120 120 120 118 118 118 120 120 120 126 126 126 124 124 124 117 117 117 119 119 119 127 127 127 131 131 131 126 126 126 126 126 126 133 133 133 135 135 135 130 130 130 126 126 126 119 119 119 115 115 115 122 122 122 131 131 131 132 132 132 131 131 131 129 129 129 122 122 122 115 115 115 121 121 121 136 136 136 142 142 142 139 139 139 131 131 131 123 123 123 121 121 121 124 124 124 126 126 126 129 129 129 130 130 130 127 127 127 127 127 127 122 122 122 120 120 120 123 123 123 121 121 121 122 122 122 125 125 125 129 129 129 0 0 0 
0 0 0 128 128 128 128 128 128 127 127 127 129 129 129 129 129 129 124 124 124 123 123 123 122 122 122 117 117 117 118 118 118 128 128 128 132 132 132 129 129 129 132 132 132 128 128 128 123 123 123 124 124 124 131 131 131 137 137 137 132 132 132 128 128 128 134 134 134 138 138 138 128 128 128 111 111 111 106 106 106 116 116 116 128 128 128 131 131 131 129 129 129 150 150 150 201 201 201 238 238 238 245 245 245 243 243 243 246 246 246 248 248 248 246 246 246 243 243 243 244 244 244 244 244 244 237 237 237 238 238 238 247 247 247 251 251 251 245 245 245 240 240 240 245 245 245 251 251 251 249 249 249 248 248 248 251 251 251 250 250 250 246 246 246 250 250 250 251 251 251 247 247 247 247 247 247 250 250 250 250 250 250 247 247 247 247 247 247 250 250 250 250 250 250 246 246 246 248 248 248 243 243 243 199 199 199 143 143 143 125 125 125 125 125 125 123 123 123 128 128 128 128 128 128 122 122 122 124 124 124 120 120 120 110 110 110 110 110 110 120 120 120 131 131 131 131 131 131 129 129 129 128 128 128 126 126 126 123 123 123 125 125 125 131 131 131 133 133 133 134 134 134 133 133 133 130 130 130 126 126 126 122 122 122 135 135 135 147 147 147 139 139 139 128 128 128 122 122 122 124 124 124 130 130 130 129 129 129 125 125 125 126 126 126 125 125 125 116 116 116 112 112 112 119 119 119 122 122 122 121 121 121 124 124 124 123 123 123 123 123 123 129 129 129 132 132 132 130 130 130 130 130 130 126 126 126 126 126 126 132 132 132 130 130 130 121 121 121 120 120 120 121 121 121 123 123 123 128 128 128 130 130 130 129 129 129 125 125 125 129 129 129 126 126 126 121 121 121 123 123 123 124 124 124 131 131 131 136 136 136 132 132 132 132 132 132 133 133 133 128 128 128 123 123 123 122 122 122 123 123 123 134 134 134 140 140 140 132 132 132 129 129 129 127 127 127 124 124 124 125 125 125 121 121 121 120 120 120 123 123 123 122 122 122 125 125 125 123 123 123 116 116 116 124 124 124 129 129 129 122 122 122 126 126 126 132 132 132 128 128 128 123 123 123 122 122 122 125 125 125 128 128 128 127 127 127 126 126 126 123 123 123 120 120 120 129 129 129 132 132 132 125 125 125 121 121 121 123 123 123 123 123 123 119 119 119 122 122 122 131 131 131 137 137 137 140 140 140 135 135 135 125 125 125 120 120 120 122 122 122 121 121 121 125 125 125 130 130 130 123 123 123 121 121 121 127 127 127 132 132 132 133 133 133 122 122 122 120 120 120 126 126 126 131 131 131 0 0 0 
0 0 0 138 138 138 136 136 136 131 131 131 136 136 136 141 141 141 137 137 137 129 129 129 119 119 119 115 115 115 121 121 121 130 130 130 136 136 136 135 135 135 131 131 131 130 130 130 132 132 132 129 129 129 131 131 131 137 137 137 133 133 133 127 127 127 127 127 127 129 129 129 121 121 121 110 110 110 113 113 113 125 125 125 132 132 132 128 128 128 133 133 133 172 172 172 222 222 222 237 237 237 236 236 236 239 239 239 245 245 245 247 247 247 242 242 242 239 239 239 243 243 243 248 248 248 246 246 246 243 243 243 246 246 246 247 247 247 245 245 245 244 244 244 249 249 249 250 250 250 243 243 243 245 245 245 251 251 251 251 251 251 250 250 250 252 252 252 252 252 252 250 250 250 249 249 249 250 250 250 249 249 249 246 246 246 242 242 242 243 243 243 244 244 244 244 244 244 248 248 248 247 247 247 220 220 220 172 172 172 138 138 138 127 127 127 125 125 125 127 127 127 131 131 131 134 134 134 131 131 131 122 122 122 113 113 113 115 115 115 122 122 122 127 127 127 128 128 128 130 130 130 132 132 132 132 132 132 129 129 129 125 125 125 126 126 126 129 129 129 134 134 134 134 134 134 128 128 128 124 124 124 123 123 123 135 135 135 140 140 140 133 133 133 124 124 124 118 118 118 122 122 122 124 124 124 122 122 122 124 124 124 128 128 128 130 130 130 123 123 123 120 120 120 129 129 129 128 128 128 119 119 119 124 124 124 132 132 132 129 129 129 132 132 132 134 134 134 128 128 128 130 130 130 135 135 135 135 135 135 136 136 136 131 131 131 122 122 122 125 125 125 128 128 128 126 126 126 126 126 126 130 130 130 133 133 133 124 124 124 121 121 121 124 124 124 125 125 125 132 132 132 136 136 136 133 133 133 127 127 127 128 128 128 131 131 131 123 123 123 123 123 123 128 128 128 120 120 120 121 121 121 138 138 138 144 144 144 131 131 131 123 123 123 124 124 124 128 128 128 131 131 131 126 126 126 121 121 121 119 119 119 121 121 121 129 129 129 127 127 127 116 116 116 121 121 121 125 125 125 125 125 125 131 131 131 130 130 130 123 123 123 121 121 121 120 120 120 118 118 118 122 122 122 126 126 126 122 122 122 121 121 121 121 121 121 123 123 123 126 126 126 118 118 118 116 116 116 124 124 124 130 130 130 127 127 127 124 124 124 127 127 127 128 128 128 132 132 132 133 133 133 128 128 128 126 126 126 124 124 124 120 120 120 123 123 123 130 130 130 125 125 125 125 125 125 135 135 135 140 140 140 136 136 136 125 125 125 118 118 118 119 119 119 128 128 128 0 0 0 
0 0 0 141 141 141 142 142 142 138 138 138 140 140 140 141 141 141 134 134 134 127 127 127 118 118 118 116 116 116 120 120 120 122 122 122 128 128 128 137 137 137 137 137 137 133 133 133 136 136 136 134 134 134 130 130 130 132 132 132 130 130 130 121 121 121 118 118 118 122 122 122 115 115 115 112 112 112 124 124 124 129 129 129 127 127 127 124 124 124 145 145 145 200 200 200 234 234 234 234 234 234 234 234 234 240 240 240 245 245 245 248 248 248 246 246 246 247 247 247 250 250 250 253 253 253 253 253 253 251 251 251 251 251 251 251 251 251 249 249 249 247 247 247 251 251 251 250 250 250 243 243 243 245 245 245 250 250 250 251 251 251 253 253 253 253 253 253 252 252 252 250 250 250 247 247 247 243 243 243 241 241 241 244 244 244 242 242 242 240 240 240 241 241 241 244 244 244 244 244 244 240 240 240 236 236 236 209 209 209 158 158 158 127 127 127 123 123 123 130 130 130 139 139 139 141 141 141 132 132 132 122 122 122 118 118 118 120 120 120 121 121 121 120 120 120 122 122 122 128 128 128 134 134 134 136 136 136 132 132 132 123 123 123 118 118 118 122 122 122 130 130 130 131 131 131 127 127 127 122 122 122 127 127 127 135 135 135 131 131 131 128 128 128 130 130 130 128 128 128 128 128 128 124 124 124 120 120 120 121 121 121 124 124 124 128 128 128 127 127 127 130 130 130 135 135 135 134 134 134 126 126 126 124 124 124 134 134 134 136 136 136 134 134 134 134 134 134 131 131 131 133 133 133 138 138 138 137 137 137 132 132 132 123 123 123 115 115 115 121 121 121 130 130 130 130 130 130 126 126 126 127 127 127 128 128 128 121 121 121 124 124 124 133 133 133 134 134 134 137 137 137 138 138 138 127 127 127 115 115 115 119 119 119 126 126 126 120 120 120 123 123 123 129 129 129 122 122 122 123 123 123 136 136 136 137 137 137 122 122 122 113 113 113 116 116 116 126 126 126 139 139 139 140 140 140 134 134 134 124 124 124 120 120 120 129 129 129 127 127 127 119 119 119 125 125 125 128 128 128 128 128 128 134 134 134 131 131 131 124 124 124 121 121 121 119 119 119 120 120 120 125 125 125 127 127 127 124 124 124 123 123 123 120 120 120 119 119 119 125 125 125 126 126 126 128 128 128 132 132 132 133 133 133 128 128 128 128 128 128 133 133 133 125 125 125 123 123 123 128 128 128 126 126 126 124 124 124 122 122 122 123 123 123 127 127 127 132 132 132 131 131 131 128 128 128 131 131 131 135 135 135 133 133 133 130 130 130 124 124 124 119 119 119 125 125 125 0 0 0 
0 0 0 131 131 131 136 136 136 139 139 139 137 137 137 132 132 132 124 124 124 119 119 119 120 120 120 123 123 123 125 125 125 125 125 125 129 129 129 133 133 133 134 134 134 132 132 132 133 133 133 137 137 137 131 131 131 126 126 126 123 123 123 117 117 117 120 120 120 128 128 128 122 122 122 119 119 119 126 126 126 126 126 126 123 123 123 128 128 128 164 164 164 219 219 219 240 240 240 234 234 234 234 234 234 241 241 241 248 248 248 252 252 252 252 252 252 253 253 253 252 252 252 252 252 252 251 251 251 250 250 250 252 252 252 252 252 252 248 248 248 248 248 248 251 251 251 251 251 251 246 246 246 245 245 245 247 247 247 248 248 248 252 252 252 254 254 254 251 251 251 246 246 246 241 241 241 235 235 235 236 236 236 244 244 244 246 246 246 244 244 244 247 247 247 249 249 249 243 243 243 237 237 237 242 242 242 230 230 230 179 179 179 132 132 132 123 123 123 133 133 133 139 139 139 135 135 135 128 128 128 125 125 125 123 123 123 119 119 119 121 121 121 125 125 125 126 126 126 130 130 130 135 135 135 135 135 135 134 134 134 130 130 130 123 123 123 122 122 122 123 123 123 125 125 125 130 130 130 126 126 126 126 126 126 131 131 131 130 130 130 131 131 131 131 131 131 134 134 134 133 133 133 125 125 125 126 126 126 125 125 125 123 123 123 130 130 130 133 133 133 132 132 132 133 133 133 133 133 133 132 132 132 130 130 130 131 131 131 131 131 131 130 130 130 131 131 131 133 133 133 130 130 130 130 130 130 132 132 132 125 125 125 115 115 115 112 112 112 118 118 118 126 126 126 131 131 131 133 133 133 129 129 129 119 119 119 118 118 118 133 133 133 140 140 140 131 131 131 128 128 128 130 130 130 128 128 128 124 124 124 121 121 121 122 122 122 122 122 122 124 124 124 128 128 128 126 126 126 129 129 129 137 137 137 133 133 133 117 117 117 111 111 111 117 117 117 128 128 128 143 143 143 146 146 146 136 136 136 125 125 125 125 125 125 136 136 136 133 133 133 124 124 124 131 131 131 136 136 136 135 135 135 138 138 138 138 138 138 132 132 132 124 124 124 122 122 122 130 130 130 136 136 136 136 136 136 133 133 133 128 128 128 122 122 122 126 126 126 134 134 134 134 134 134 135 135 135 137 137 137 133 133 133 127 127 127 131 131 131 135 135 135 125 125 125 119 119 119 121 121 121 119 119 119 117 117 117 118 118 118 124 124 124 130 130 130 130 130 130 130 130 130 123 123 123 118 118 118 126 126 126 132 132 132 135 135 135 137 137 137 131 131 131 125 125 125 0 0 0 
0 0 0 122 122 122 126 126 126 129 129 129 126 126 126 126 126 126 127 127 127 124 124 124 128 128 128 130 130 130 127 127 127 128 128 128 133 133 133 131 131 131 131 131 131 129 129 129 126 126 126 133 133 133 138 138 138 133 133 133 125 125 125 123 123 123 129 129 129 136 136 136 137 137 137 134 134 134 132 132 132 131 131 131 126 126 126 142 142 142 194 194 194 235 235 235 241 241 241 235 235 235 235 235 235 244 244 244 252 252 252 253 253 253 250 250 250 250 250 250 250 250 250 250 250 250 247 247 247 245 245 245 250 250 250 250 250 250 246 246 246 249 249 249 253 253 253 252 252 252 246 246 246 241 241 241 238 238 238 239 239 239 247 247 247 251 251 251 248 248 248 245 245 245 244 244 244 240 240 240 241 241 241 248 248 248 251 251 251 251 251 251 253 253 253 250 250 250 243 243 243 242 242 242 244 244 244 242 242 242 207 207 207 152 152 152 129 129 129 128 128 128 129 129 129 126 126 126 123 123 123 127 127 127 130 130 130 129 129 129 129 129 129 133 133 133 133 133 133 135 135 135 136 136 136 133 133 133 134 134 134 136 136 136 129 129 129 120 120 120 116 116 116 123 123 123 132 132 132 130 130 130 128 128 128 130 130 130 134 134 134 135 135 135 131 131 131 134 134 134 133 133 133 121 121 121 121 121 121 127 127 127 130 130 130 134 134 134 135 135 135 130 130 130 131 131 131 130 130 130 128 128 128 129 129 129 124 124 124 123 123 123 129 129 129 133 133 133 134 134 134 126 126 126 123 123 123 131 131 131 130 130 130 124 124 124 123 123 123 128 128 128 131 131 131 128 128 128 131 131 131 129 129 129 120 120 120 123 123 123 137 137 137 137 137 137 125 125 125 120 120 120 123 123 123 128 128 128 135 135 135 134 134 134 124 124 124 120 120 120 126 126 126 129 129 129 127 127 127 127 127 127 133 133 133 133 133 133 126 126 126 124 124 124 124 124 124 129 129 129 143 143 143 146 146 146 139 139 139 132 132 132 135 135 135 138 138 138 134 134 134 129 129 129 130 130 130 138 138 138 140 140 140 137 137 137 137 137 137 134 134 134 126 126 126 125 125 125 131 131 131 135 135 135 136 136 136 135 135 135 128 128 128 123 123 123 130 130 130 139 139 139 138 138 138 132 132 132 133 133 133 137 137 137 137 137 137 138 138 138 136 136 136 131 131 131 126 126 126 121 121 121 118 118 118 116 116 116 114 114 114 120 120 120 129 129 129 129 129 129 128 128 128 123 123 123 116 116 116 118 118 118 126 126 126 130 130 130 136 136 136 134 134 134 126 126 126 0 0 0 
0 0 0 124 124 124 122 122 122 123 123 123 120 120 120 123 123 123 130 130 130 135 135 135 136 136 136 136 136 136 130 130 130 123 123 123 129 129 129 137 137 137 136 136 136 132 132 132 123 123 123 123 123 123 133 133 133 137 137 137 133 133 133 130 130 130 132 132 132 137 137 137 141 141 141 140 140 140 136 136 136 139 139 139 136 136 136 156 156 156 215 215 215 247 247 247 243 243 243 238 238 238 238 238 238 243 243 243 250 250 250 248 248 248 241 241 241 241 241 241 247 247 247 250 250 250 249 249 249 249 249 249 252 252 252 251 251 251 249 249 249 252 252 252 254 254 254 253 253 253 250 250 250 243 243 243 236 236 236 236 236 236 241 241 241 245 245 245 242 242 242 246 246 246 251 251 251 250 250 250 250 250 250 250 250 250 253 253 253 255 255 255 255 255 255 249 249 249 240 240 240 241 241 241 244 244 244 244 244 244 215 215 215 158 158 158 128 128 128 124 124 124 128 128 128 134 134 134 129 129 129 123 123 123 128 128 128 135 135 135 133 133 133 128 128 128 131 131 131 138 138 138 138 138 138 133 133 133 134 134 134 133 133 133 127 127 127 124 124 124 123 123 123 125 125 125 128 128 128 126 126 126 127 127 127 127 127 127 128 128 128 129 129 129 128 128 128 133 133 133 132 132 132 122 122 122 121 121 121 129 129 129 134 134 134 133 133 133 129 129 129 126 126 126 130 130 130 134 134 134 130 130 130 125 125 125 120 120 120 127 127 127 140 140 140 143 143 143 137 137 137 128 128 128 126 126 126 133 133 133 136 136 136 133 133 133 132 132 132 138 138 138 136 136 136 124 124 124 127 127 127 133 133 133 131 131 131 128 128 128 132 132 132 132 132 132 128 128 128 126 126 126 119 119 119 116 116 116 129 129 129 136 136 136 127 127 127 121 121 121 128 128 128 130 130 130 123 123 123 118 118 118 119 119 119 125 125 125 133 133 133 141 141 141 134 134 134 128 128 128 139 139 139 144 144 144 139 139 139 133 133 133 132 132 132 129 129 129 127 127 127 132 132 132 132 132 132 135 135 135 133 133 133 125 125 125 124 124 124 126 126 126 124 124 124 120 120 120 123 123 123 126 126 126 129 129 129 134 134 134 127 127 127 123 123 123 129 129 129 139 139 139 141 141 141 129 129 129 122 122 122 128 128 128 135 135 135 137 137 137 134 134 134 132 132 132 131 131 131 123 123 123 119 119 119 121 121 121 117 117 117 119 119 119 130 130 130 134 134 134 131 131 131 128 128 128 125 125 125 125 125 125 131 131 131 133 133 133 129 129 129 127 127 127 129 129 129 0 0 0 
0 0 0 122 122 122 121 121 121 126 126 126 123 123 123 116 116 116 121 121 121 133 133 133 137 137 137 136 136 136 131 131 131 120 120 120 127 127 127 139 139 139 140 140 140 135 135 135 125 125 125 118 118 118 119 119 119 128 128 128 133 133 133 131 131 131 133 133 133 134 134 134 137 137 137 138 138 138 137 137 137 140 140 140 135 135 135 155 155 155 214 214 214 248 248 248 245 245 245 240 240 240 238 238 238 242 242 242 246 246 246 244 244 244 237 237 237 236 236 236 243 243 243 249 249 249 249 249 249 249 249 249 248 248 248 249 249 249 250 250 250 249 249 249 250 250 250 251 251 251 253 253 253 247 247 247 240 240 240 240 240 240 240 240 240 241 241 241 242 242 242 246 246 246 249 249 249 252 252 252 253 253 253 252 252 252 252 252 252 250 250 250 250 250 250 248 248 248 241 241 241 239 239 239 240 240 240 240 240 240 212 212 212 153 153 153 120 120 120 121 121 121 131 131 131 140 140 140 136 136 136 123 123 123 120 120 120 127 127 127 130 130 130 127 127 127 130 130 130 137 137 137 137 137 137 134 134 134 136 136 136 133 133 133 129 129 129 134 134 134 131 131 131 125 125 125 122 122 122 124 124 124 130 130 130 124 124 124 118 118 118 119 119 119 121 121 121 124 124 124 124 124 124 122 122 122 126 126 126 133 133 133 136 136 136 130 130 130 124 124 124 122 122 122 126 126 126 137 137 137 141 141 141 132 132 132 125 125 125 133 133 133 143 143 143 143 143 143 137 137 137 134 134 134 131 131 131 128 128 128 129 129 129 127 127 127 129 129 129 136 136 136 133 133 133 125 125 125 130 130 130 135 135 135 129 129 129 124 124 124 125 125 125 127 127 127 131 131 131 132 132 132 122 122 122 117 117 117 123 123 123 126 126 126 123 123 123 121 121 121 124 124 124 126 126 126 127 127 127 123 123 123 117 117 117 125 125 125 136 136 136 143 143 143 139 139 139 133 133 133 136 136 136 138 138 138 134 134 134 123 123 123 116 116 116 117 117 117 122 122 122 130 130 130 129 129 129 125 125 125 124 124 124 120 120 120 117 117 117 123 123 123 125 125 125 116 116 116 120 120 120 128 128 128 131 131 131 136 136 136 130 130 130 121 121 121 124 124 124 135 135 135 137 137 137 126 126 126 117 117 117 119 119 119 123 123 123 123 123 123 122 122 122 121 121 121 118 118 118 113 113 113 114 114 114 119 119 119 122 122 122 124 124 124 130 130 130 140 140 140 141 141 141 134 134 134 134 134 134 138 138 138 141 141 141 142 142 142 138 138 138 131 131 131 129 129 129 0 0 0 
0 0 0 124 124 124 129 129 129 130 130 130 121 121 121 112 112 112 114 114 114 127 127 127 136 136 136 133 133 133 122 122 122 116 116 116 122 122 122 129 129 129 129 129 129 129 129 129 125 125 125 121 121 121 118 118 118 123 123 123 126 126 126 124 124 124 127 127 127 126 126 126 132 132 132 142 142 142 142 142 142 136 136 136 127 127 127 151 151 151 213 213 213 249 249 249 250 250 250 244 244 244 241 241 241 245 245 245 247 247 247 245 245 245 242 242 242 240 240 240 244 244 244 248 248 248 247 247 247 244 244 244 244 244 244 247 247 247 245 245 245 241 241 241 242 242 242 246 246 246 251 251 251 250 250 250 244 244 244 243 243 243 241 241 241 241 241 241 243 243 243 247 247 247 246 246 246 247 247 247 252 252 252 254 254 254 252 252 252 246 246 246 243 243 243 246 246 246 246 246 246 245 245 245 245 245 245 245 245 245 219 219 219 159 159 159 120 120 120 118 118 118 124 124 124 132 132 132 131 131 131 120 120 120 115 115 115 119 119 119 130 130 130 132 132 132 126 126 126 129 129 129 131 131 131 128 128 128 133 133 133 132 132 132 129 129 129 131 131 131 127 127 127 124 124 124 124 124 124 127 127 127 134 134 134 132 132 132 126 126 126 125 125 125 125 125 125 123 123 123 124 124 124 125 125 125 127 127 127 132 132 132 132 132 132 121 121 121 118 118 118 125 125 125 127 127 127 129 129 129 137 137 137 137 137 137 135 135 135 136 136 136 139 139 139 139 139 139 134 134 134 138 138 138 137 137 137 125 125 125 120 120 120 122 122 122 129 129 129 132 132 132 130 130 130 126 126 126 126 126 126 132 132 132 128 128 128 124 124 124 125 125 125 121 121 121 123 123 123 125 125 125 127 127 127 128 128 128 124 124 124 118 118 118 118 118 118 123 123 123 124 124 124 124 124 124 133 133 133 136 136 136 130 130 130 134 134 134 136 136 136 133 133 133 134 134 134 135 135 135 135 135 135 135 135 135 133 133 133 122 122 122 109 109 109 113 113 113 120 120 120 124 124 124 122 122 122 118 118 118 125 125 125 128 128 128 120 120 120 125 125 125 126 126 126 116 116 116 119 119 119 127 127 127 130 130 130 133 133 133 131 131 131 124 124 124 123 123 123 130 130 130 129 129 129 122 122 122 121 121 121 126 126 126 128 128 128 121 121 121 115 115 115 112 112 112 109 109 109 110 110 110 111 111 111 111 111 111 119 119 119 128 128 128 131 131 131 137 137 137 138 138 138 133 133 133 134 134 134 139 139 139 139 139 139 141 141 141 148 148 148 143 143 143 130 130 130 0 0 0 
0 0 0 130 130 130 136 136 136 137 137 137 128 128 128 119 119 119 116 116 116 127 127 127 138 138 138 136 136 136 125 125 125 115 115 115 114 114 114 115 115 115 117 117 117 122 122 122 122 122 122 121 121 121 119 119 119 122 122 122 123 123 123 119 119 119 117 117 117 115 115 115 124 124 124 138 138 138 138 138 138 130 130 130 122 122 122 148 148 148 212 212 212 248 248 248 249 249 249 248 248 248 247 247 247 247 247 247 247 247 247 246 246 246 245 245 245 243 243 243 244 244 244 248 248 248 249 249 249 248 248 248 247 247 247 246 246 246 242 242 242 239 239 239 239 239 239 243 243 243 249 249 249 250 250 250 246 246 246 243 243 243 243 243 243 244 244 244 245 245 245 248 248 248 245 245 245 244 244 244 251 251 251 254 254 254 251 251 251 247 247 247 245 245 245 244 244 244 245 245 245 250 250 250 252 252 252 250 250 250 219 219 219 157 157 157 117 117 117 116 116 116 124 124 124 128 128 128 124 124 124 117 117 117 115 115 115 122 122 122 132 132 132 132 132 132 124 124 124 128 128 128 132 132 132 126 126 126 125 125 125 123 123 123 124 124 124 124 124 124 121 121 121 124 124 124 128 128 128 129 129 129 132 132 132 137 137 137 136 136 136 134 134 134 133 133 133 126 126 126 121 121 121 125 125 125 125 125 125 123 123 123 123 123 123 119 119 119 120 120 120 128 128 128 125 125 125 116 116 116 119 119 119 130 130 130 136 136 136 136 136 136 135 135 135 134 134 134 132 132 132 137 137 137 138 138 138 129 129 129 120 120 120 118 118 118 125 125 125 131 131 131 131 131 131 122 122 122 122 122 122 136 136 136 137 137 137 129 129 129 123 123 123 120 120 120 119 119 119 118 118 118 120 120 120 123 123 123 122 122 122 120 120 120 124 124 124 131 131 131 133 133 133 132 132 132 134 134 134 135 135 135 133 133 133 131 131 131 126 126 126 122 122 122 126 126 126 130 130 130 128 128 128 130 130 130 131 131 131 122 122 122 115 115 115 119 119 119 121 121 121 119 119 119 118 118 118 120 120 120 132 132 132 133 133 133 125 125 125 125 125 125 121 121 121 114 114 114 114 114 114 124 124 124 135 135 135 134 134 134 132 132 132 133 133 133 135 135 135 135 135 135 129 129 129 126 126 126 128 128 128 132 132 132 136 136 136 131 131 131 119 119 119 114 114 114 119 119 119 123 123 123 121 121 121 116 116 116 117 117 117 127 127 127 134 134 134 130 130 130 125 125 125 124 124 124 125 125 125 131 131 131 134 134 134 135 135 135 141 141 141 141 141 141 136 136 136 0 0 0 
0 0 0 122 122 122 131 131 131 140 140 140 137 137 137 126 126 126 120 120 120 123 123 123 131 131 131 137 137 137 131 131 131 120 120 120 113 113 113 111 111 111 116 116 116 122 122 122 123 123 123 117 117 117 114 114 114 122 122 122 128 128 128 124 124 124 116 116 116 116 116 116 124 124 124 127 127 127 128 128 128 126 126 126 117 117 117 145 145 145 210 210 210 244 244 244 246 246 246 247 247 247 247 247 247 246 246 246 247 247 247 248 248 248 247 247 247 246 246 246 243 243 243 245 245 245 248 248 248 247 247 247 245 245 245 244 244 244 243 243 243 243 243 243 243 243 243 244 244 244 247 247 247 248 248 248 247 247 247 244 244 244 243 243 243 246 246 246 249 249 249 248 248 248 245 245 245 247 247 247 253 253 253 253 253 253 248 248 248 245 245 245 247 247 247 245 245 245 243 243 243 249 249 249 254 254 254 251 251 251 218 218 218 154 154 154 119 119 119 117 117 117 122 122 122 122 122 122 118 118 118 116 116 116 117 117 117 124 124 124 131 131 131 134 134 134 135 135 135 137 137 137 136 136 136 132 132 132 125 125 125 119 119 119 118 118 118 119 119 119 123 123 123 126 126 126 128 128 128 128 128 128 127 127 127 132 132 132 134 134 134 130 130 130 127 127 127 120 120 120 115 115 115 119 119 119 120 120 120 115 115 115 117 117 117 126 126 126 129 129 129 127 127 127 122 122 122 115 115 115 117 117 117 127 127 127 134 134 134 133 133 133 130 130 130 128 128 128 128 128 128 128 128 128 132 132 132 135 135 135 128 128 128 121 121 121 122 122 122 129 129 129 129 129 129 122 122 122 126 126 126 140 140 140 145 145 145 138 138 138 129 129 129 129 129 129 129 129 129 122 122 122 117 117 117 120 120 120 125 125 125 130 130 130 134 134 134 135 135 135 134 134 134 136 136 136 135 135 135 134 134 134 131 131 131 123 123 123 119 119 119 120 120 120 124 124 124 125 125 125 121 121 121 126 126 126 130 130 130 127 127 127 128 128 128 129 129 129 122 122 122 116 116 116 115 115 115 120 120 120 131 131 131 129 129 129 127 127 127 130 130 130 121 121 121 113 113 113 115 115 115 126 126 126 140 140 140 138 138 138 135 135 135 139 139 139 143 143 143 143 143 143 138 138 138 135 135 135 135 135 135 134 134 134 136 136 136 133 133 133 124 124 124 122 122 122 128 128 128 131 131 131 130 130 130 125 125 125 118 118 118 122 122 122 130 130 130 129 129 129 127 127 127 126 126 126 124 124 124 126 126 126 129 129 129 130 130 130 132 132 132 132 132 132 136 136 136 0 0 0 
0 0 0 118 118 118 126 126 126 136 136 136 133 133 133 125 125 125 125 125 125 122 122 122 121 121 121 127 127 127 124 124 124 119 119 119 118 118 118 121 121 121 123 123 123 122 122 122 124 124 124 122 122 122 120 120 120 126 126 126 132 132 132 132 132 132 125 125 125 126 126 126 131 131 131 127 127 127 124 124 124 124 124 124 117 117 117 145 145 145 211 211 211 244 244 244 245 245 245 247 247 247 248 248 248 249 249 249 251 251 251 250 250 250 250 250 250 249 249 249 244 244 244 241 241 241 244 244 244 242 242 242 241 241 241 243 243 243 241 241 241 241 241 241 245 245 245 246 246 246 247 247 247 246 246 246 243 243 243 241 241 241 243 243 243 247 247 247 248 248 248 249 249 249 250 250 250 253 253 253 254 254 254 251 251 251 246 246 246 246 246 246 248 248 248 246 246 246 244 244 244 249 249 249 252 252 252 251 251 251 222 222 222 162 162 162 128 128 128 121 121 121 115 115 115 113 113 113 117 117 117 119 119 119 116 116 116 122 122 122 135 135 135 141 141 141 145 145 145 140 140 140 134 134 134 136 136 136 131 131 131 124 124 124 120 120 120 119 119 119 123 123 123 123 123 123 123 123 123 129 129 129 132 132 132 133 133 133 134 134 134 130 130 130 121 121 121 118 118 118 122 122 122 124 124 124 124 124 124 120 120 120 119 119 119 130 130 130 135 135 135 131 131 131 130 130 130 125 125 125 123 123 123 130 130 130 135 135 135 134 134 134 128 128 128 128 128 128 128 128 128 126 126 126 129 129 129 133 133 133 133 133 133 133 133 133 129 129 129 129 129 129 127 127 127 122 122 122 128 128 128 134 134 134 141 141 141 141 141 141 132 132 132 128 128 128 126 126 126 125 125 125 126 126 126 127 127 127 130 130 130 131 131 131 131 131 131 128 128 128 125 125 125 128 128 128 132 132 132 133 133 133 127 127 127 119 119 119 122 122 122 128 128 128 129 129 129 125 125 125 118 118 118 124 124 124 130 130 130 132 132 132 135 135 135 131 131 131 120 120 120 116 116 116 118 118 118 122 122 122 126 126 126 124 124 124 128 128 128 134 134 134 127 127 127 118 118 118 118 118 118 125 125 125 130 130 130 126 126 126 131 131 131 140 140 140 138 138 138 140 140 140 142 142 142 138 138 138 135 135 135 134 134 134 132 132 132 122 122 122 121 121 121 127 127 127 123 123 123 124 124 124 131 131 131 127 127 127 120 120 120 121 121 121 120 120 120 123 123 123 128 128 128 128 128 128 129 129 129 129 129 129 127 127 127 128 128 128 132 132 132 133 133 133 134 134 134 0 0 0 
0 0 0 127 127 127 126 126 126 128 128 128 128 128 128 129 129 129 131 131 131 125 125 125 121 121 121 124 124 124 120 120 120 115 115 115 120 120 120 128 128 128 124 124 124 118 118 118 124 124 124 132 132 132 131 131 131 125 125 125 129 129 129 136 136 136 134 134 134 130 130 130 130 130 130 129 129 129 127 127 127 123 123 123 117 117 117 146 146 146 211 211 211 241 241 241 242 242 242 248 248 248 251 251 251 252 252 252 251 251 251 249 249 249 247 247 247 246 246 246 246 246 246 243 243 243 242 242 242 242 242 242 243 243 243 242 242 242 238 238 238 239 239 239 245 245 245 246 246 246 246 246 246 244 244 244 239 239 239 239 239 239 244 244 244 246 246 246 245 245 245 250 250 250 254 254 254 254 254 254 254 254 254 251 251 251 251 251 251 252 252 252 251 251 251 248 248 248 248 248 248 250 250 250 249 249 249 247 247 247 220 220 220 160 160 160 125 125 125 122 122 122 117 117 117 117 117 117 128 128 128 131 131 131 124 124 124 127 127 127 134 134 134 134 134 134 137 137 137 135 135 135 128 128 128 127 127 127 127 127 127 129 129 129 130 130 130 128 128 128 123 123 123 118 118 118 122 122 122 135 135 135 140 140 140 134 134 134 128 128 128 127 127 127 126 126 126 124 124 124 128 128 128 129 129 129 129 129 129 130 130 130 128 128 128 134 134 134 139 139 139 137 137 137 131 131 131 122 122 122 123 123 123 130 130 130 136 136 136 136 136 136 127 127 127 123 123 123 125 125 125 127 127 127 128 128 128 128 128 128 132 132 132 132 132 132 126 126 126 131 131 131 132 132 132 125 125 125 120 120 120 118 118 118 125 125 125 130 130 130 126 126 126 123 123 123 121 121 121 121 121 121 123 123 123 127 127 127 129 129 129 124 124 124 118 118 118 118 118 118 119 119 119 122 122 122 129 129 129 128 128 128 120 120 120 117 117 117 124 124 124 130 130 130 132 132 132 129 129 129 116 116 116 114 114 114 123 123 123 127 127 127 131 131 131 125 125 125 118 118 118 119 119 119 123 123 123 127 127 127 127 127 127 123 123 123 127 127 127 129 129 129 125 125 125 123 123 123 117 117 117 116 116 116 117 117 117 116 116 116 126 126 126 136 136 136 134 134 134 135 135 135 137 137 137 131 131 131 129 129 129 130 130 130 126 126 126 119 119 119 121 121 121 127 127 127 122 122 122 124 124 124 131 131 131 122 122 122 119 119 119 125 125 125 122 122 122 116 116 116 115 115 115 119 119 119 128 128 128 135 135 135 136 136 136 134 134 134 135 135 135 137 137 137 134 134 134 0 0 0 
0 0 0 137 137 137 126 126 126 122 122 122 127 127 127 132 132 132 130 130 130 121 121 121 124 124 124 129 129 129 121 121 121 114 114 114 121 121 121 124 124 124 116 116 116 118 118 118 127 127 127 131 131 131 128 128 128 122 122 122 128 128 128 135 135 135 129 129 129 121 121 121 119 119 119 126 126 126 135 135 135 131 131 131 118 118 118 147 147 147 213 213 213 241 241 241 241 241 241 248 248 248 249 249 249 247 247 247 246 246 246 247 247 247 246 246 246 244 244 244 247 247 247 248 248 248 244 244 244 243 243 243 245 245 245 246 246 246 245 245 245 246 246 246 249 249 249 247 247 247 244 244 244 242 242 242 241 241 241 244 244 244 248 248 248 248 248 248 247 247 247 248 248 248 250 250 250 253 253 253 254 254 254 254 254 254 253 253 253 251 251 251 249 249 249 249 249 249 248 248 248 248 248 248 248 248 248 247 247 247 221 221 221 159 159 159 120 120 120 121 121 121 123 123 123 129 129 129 138 138 138 138 138 138 133 133 133 130 130 130 123 123 123 121 121 121 126 126 126 125 125 125 118 118 118 120 120 120 126 126 126 131 131 131 130 130 130 128 128 128 126 126 126 126 126 126 132 132 132 140 140 140 141 141 141 133 133 133 120 120 120 119 119 119 125 125 125 127 127 127 127 127 127 125 125 125 126 126 126 133 133 133 134 134 134 134 134 134 135 135 135 134 134 134 126 126 126 119 119 119 123 123 123 126 126 126 131 131 131 133 133 133 121 121 121 115 115 115 118 118 118 120 120 120 127 127 127 133 133 133 133 133 133 127 127 127 124 124 124 133 133 133 139 139 139 130 130 130 116 116 116 109 109 109 118 118 118 130 130 130 128 128 128 126 126 126 128 128 128 120 120 120 117 117 117 127 127 127 131 131 131 125 125 125 120 120 120 119 119 119 120 120 120 123 123 123 130 130 130 129 129 129 122 122 122 124 124 124 125 125 125 121 121 121 125 125 125 129 129 129 119 119 119 115 115 115 121 121 121 124 124 124 126 126 126 122 122 122 120 120 120 123 123 123 123 123 123 122 122 122 118 118 118 117 117 117 125 125 125 128 128 128 126 126 126 127 127 127 121 121 121 114 114 114 114 114 114 118 118 118 126 126 126 133 133 133 137 137 137 132 132 132 124 124 124 121 121 121 130 130 130 134 134 134 126 126 126 124 124 124 124 124 124 122 122 122 124 124 124 129 129 129 130 130 130 122 122 122 120 120 120 127 127 127 126 126 126 116 116 116 111 111 111 114 114 114 125 125 125 136 136 136 138 138 138 135 135 135 136 136 136 138 138 138 137 137 137 0 0 0 
0 0 0 136 136 136 125 125 125 124 124 124 130 130 130 130 130 130 122 122 122 118 118 118 125 125 125 129 129 129 119 119 119 115 115 115 123 123 123 119 119 119 113 113 113 123 123 123 127 127 127 121 121 121 119 119 119 122 122 122 129 129 129 134 134 134 129 129 129 120 120 120 120 120 120 127 127 127 135 135 135 133 133 133 124 124 124 155 155 155 217 217 217 244 244 244 245 245 245 249 249 249 247 247 247 242 242 242 241 241 241 243 243 243 244 244 244 245 245 245 247 247 247 250 250 250 248 248 248 243 243 243 245 245 245 250 250 250 252 252 252 251 251 251 250 250 250 247 247 247 243 243 243 241 241 241 242 242 242 248 248 248 251 251 251 249 249 249 246 246 246 243 243 243 245 245 245 251 251 251 255 255 255 255 255 255 252 252 252 247 247 247 246 246 246 248 248 248 246 246 246 245 245 245 250 250 250 252 252 252 223 223 223 160 160 160 121 121 121 120 120 120 125 125 125 130 130 130 131 131 131 127 127 127 126 126 126 125 125 125 118 118 118 119 119 119 125 125 125 119 119 119 113 113 113 122 122 122 129 129 129 127 127 127 123 123 123 121 121 121 127 127 127 133 133 133 134 134 134 138 138 138 140 140 140 137 137 137 129 129 129 123 123 123 123 123 123 126 126 126 132 132 132 130 130 130 126 126 126 126 126 126 128 128 128 132 132 132 133 133 133 132 132 132 133 133 133 129 129 129 123 123 123 121 121 121 124 124 124 128 128 128 120 120 120 119 119 119 123 123 123 122 122 122 130 130 130 135 135 135 128 128 128 126 126 126 129 129 129 131 131 131 130 130 130 127 127 127 125 125 125 120 120 120 122 122 122 132 132 132 131 131 131 127 127 127 128 128 128 119 119 119 115 115 115 125 125 125 128 128 128 130 130 130 131 131 131 127 127 127 124 124 124 123 123 123 128 128 128 133 133 133 132 132 132 133 133 133 129 129 129 121 121 121 121 121 121 125 125 125 129 129 129 133 133 133 131 131 131 128 128 128 126 126 126 123 123 123 124 124 124 124 124 124 120 120 120 115 115 115 110 110 110 112 112 112 124 124 124 131 131 131 132 132 132 132 132 132 134 134 134 130 130 130 120 120 120 123 123 123 133 133 133 139 139 139 138 138 138 126 126 126 118 118 118 125 125 125 141 141 141 143 143 143 130 130 130 122 122 122 118 118 118 117 117 117 125 125 125 130 130 130 133 133 133 131 131 131 122 122 122 119 119 119 117 117 117 116 116 116 119 119 119 119 119 119 124 124 124 132 132 132 131 131 131 133 133 133 136 136 136 138 138 138 139 139 139 0 0 0 
0 0 0 129 129 129 125 125 125 130 130 130 137 137 137 132 132 132 121 121 121 124 124 124 133 133 133 131 131 131 124 124 124 120 120 120 125 125 125 125 125 125 123 123 123 127 127 127 126 126 126 119 119 119 119 119 119 127 127 127 130 130 130 131 131 131 130 130 130 127 127 127 128 128 128 127 127 127 126 126 126 126 126 126 127 127 127 162 162 162 220 220 220 245 245 245 246 246 246 249 249 249 248 248 248 245 245 245 244 244 244 243 243 243 244 244 244 247 247 247 249 249 249 250 250 250 250 250 250 249 249 249 249 249 249 250 250 250 251 251 251 248 248 248 245 245 245 242 242 242 243 243 243 244 244 244 242 242 242 246 246 246 249 249 249 249 249 249 247 247 247 244 244 244 247 247 247 250 250 250 250 250 250 250 250 250 251 251 251 250 250 250 248 248 248 248 248 248 247 247 247 247 247 247 251 251 251 253 253 253 220 220 220 152 152 152 119 119 119 125 125 125 128 128 128 124 124 124 119 119 119 122 122 122 128 128 128 124 124 124 116 116 116 120 120 120 129 129 129 122 122 122 112 112 112 115 115 115 117 117 117 120 120 120 126 126 126 126 126 126 128 128 128 129 129 129 130 130 130 137 137 137 139 139 139 137 137 137 138 138 138 138 138 138 134 134 134 133 133 133 139 139 139 139 139 139 134 134 134 128 128 128 127 127 127 135 135 135 136 136 136 135 135 135 143 143 143 137 137 137 121 121 121 120 120 120 127 127 127 126 126 126 122 122 122 124 124 124 130 130 130 132 132 132 136 136 136 133 133 133 124 124 124 130 130 130 135 135 135 131 131 131 125 125 125 124 124 124 134 134 134 132 132 132 123 123 123 126 126 126 130 130 130 131 131 131 124 124 124 115 115 115 120 120 120 127 127 127 128 128 128 133 133 133 136 136 136 128 128 128 124 124 124 122 122 122 125 125 125 136 136 136 142 142 142 140 140 140 136 136 136 133 133 133 126 126 126 123 123 123 132 132 132 138 138 138 133 133 133 129 129 129 131 131 131 131 131 131 130 130 130 126 126 126 121 121 121 119 119 119 117 117 117 117 117 117 120 120 120 126 126 126 128 128 128 128 128 128 134 134 134 133 133 133 127 127 127 135 135 135 142 142 142 140 140 140 135 135 135 124 124 124 126 126 126 134 134 134 142 142 142 143 143 143 133 133 133 121 121 121 116 116 116 124 124 124 133 133 133 134 134 134 133 133 133 129 129 129 120 120 120 114 114 114 113 113 113 118 118 118 125 125 125 126 126 126 126 126 126 129 129 129 133 133 133 135 135 135 138 138 138 140 140 140 138 138 138 0 0 0 
0 0 0 126 126 126 121 121 121 129 129 129 139 139 139 135 135 135 126 126 126 131 131 131 140 140 140 140 140 140 137 137 137 133 133 133 133 133 133 136 136 136 129 129 129 120 120 120 119 119 119 118 118 118 123 123 123 132 132 132 132 132 132 124 124 124 124 124 124 127 127 127 127 127 127 123 123 123 121 121 121 122 122 122 124 124 124 159 159 159 222 222 222 249 249 249 248 248 248 249 249 249 246 246 246 246 246 246 249 249 249 249 249 249 248 248 248 246 246 246 247 247 247 248 248 248 249 249 249 251 251 251 247 247 247 242 242 242 243 243 243 243 243 243 242 242 242 242 242 242 244 244 244 246 246 246 243 243 243 242 242 242 245 245 245 250 250 250 251 251 251 249 249 249 251 251 251 250 250 250 244 244 244 241 241 241 245 245 245 250 250 250 248 248 248 244 244 244 246 246 246 250 250 250 252 252 252 252 252 252 219 219 219 150 150 150 119 119 119 134 134 134 139 139 139 128 128 128 124 124 124 134 134 134 137 137 137 125 125 125 114 114 114 121 121 121 134 134 134 129 129 129 117 117 117 112 112 112 114 114 114 118 118 118 123 123 123 125 125 125 124 124 124 128 128 128 133 133 133 134 134 134 134 134 134 135 135 135 136 136 136 136 136 136 138 138 138 139 139 139 136 136 136 135 135 135 138 138 138 136 136 136 135 135 135 138 138 138 137 137 137 137 137 137 143 143 143 136 136 136 124 124 124 130 130 130 134 134 134 126 126 126 124 124 124 125 125 125 124 124 124 127 127 127 132 132 132 128 128 128 125 125 125 133 133 133 137 137 137 135 135 135 132 132 132 132 132 132 139 139 139 137 137 137 126 126 126 124 124 124 131 131 131 132 132 132 121 121 121 119 119 119 133 133 133 141 141 141 138 138 138 140 140 140 139 139 139 131 131 131 126 126 126 128 128 128 130 130 130 134 134 134 140 140 140 139 139 139 140 140 140 141 141 141 131 131 131 125 125 125 131 131 131 134 134 134 127 127 127 125 125 125 134 134 134 140 140 140 135 135 135 127 127 127 124 124 124 123 123 123 124 124 124 121 121 121 116 116 116 118 118 118 121 121 121 122 122 122 124 124 124 129 129 129 135 135 135 140 140 140 141 141 141 138 138 138 134 134 134 129 129 129 130 130 130 132 132 132 133 133 133 135 135 135 130 130 130 122 122 122 123 123 123 130 130 130 133 133 133 130 130 130 125 125 125 121 121 121 121 121 121 121 121 121 121 121 121 122 122 122 129 129 129 130 130 130 124 124 124 126 126 126 133 133 133 133 133 133 132 132 132 134 134 134 136 136 136 0 0 0 
0 0 0 124 124 124 122 122 122 128 128 128 133 133 133 129 129 129 122 122 122 128 128 128 137 137 137 137 137 137 135 135 135 137 137 137 140 140 140 137 137 137 122 122 122 112 112 112 116 116 116 120 120 120 126 126 126 134 134 134 135 135 135 128 128 128 126 126 126 132 132 132 131 131 131 125 125 125 120 120 120 117 117 117 117 117 117 140 140 140 199 199 199 242 242 242 250 250 250 248 248 248 243 243 243 245 245 245 248 248 248 248 248 248 247 247 247 243 243 243 240 240 240 243 243 243 247 247 247 248 248 248 242 242 242 238 238 238 239 239 239 242 242 242 243 243 243 244 244 244 247 247 247 248 248 248 243 243 243 241 241 241 245 245 245 251 251 251 253 253 253 252 252 252 253 253 253 251 251 251 242 242 242 237 237 237 240 240 240 245 245 245 245 245 245 242 242 242 243 243 243 247 247 247 248 248 248 240 240 240 205 205 205 147 147 147 118 118 118 130 130 130 139 139 139 135 135 135 135 135 135 136 136 136 132 132 132 126 126 126 117 117 117 122 122 122 133 133 133 130 130 130 122 122 122 118 118 118 119 119 119 120 120 120 119 119 119 118 118 118 123 123 123 134 134 134 134 134 134 126 126 126 125 125 125 128 128 128 130 130 130 128 128 128 131 131 131 138 138 138 133 133 133 128 128 128 130 130 130 132 132 132 138 138 138 138 138 138 133 133 133 136 136 136 140 140 140 135 135 135 127 127 127 130 130 130 134 134 134 129 129 129 124 124 124 125 125 125 121 121 121 118 118 118 122 122 122 125 125 125 124 124 124 126 126 126 128 128 128 130 130 130 132 132 132 133 133 133 139 139 139 143 143 143 135 135 135 126 126 126 128 128 128 126 126 126 119 119 119 124 124 124 131 131 131 134 134 134 134 134 134 133 133 133 131 131 131 127 127 127 122 122 122 125 125 125 131 131 131 133 133 133 132 132 132 126 126 126 128 128 128 133 133 133 131 131 131 131 131 131 135 135 135 136 136 136 129 129 129 124 124 124 128 128 128 135 135 135 131 131 131 126 126 126 125 125 125 121 121 121 121 121 121 122 122 122 119 119 119 120 120 120 126 126 126 127 127 127 124 124 124 130 130 130 133 133 133 129 129 129 134 134 134 140 140 140 135 135 135 130 130 130 130 130 130 132 132 132 136 136 136 135 135 135 123 123 123 118 118 118 123 123 123 123 123 123 123 123 123 128 128 128 124 124 124 121 121 121 125 125 125 125 125 125 124 124 124 127 127 127 134 134 134 133 133 133 126 126 126 127 127 127 131 131 131 129 129 129 123 123 123 125 125 125 136 136 136 0 0 0 
0 0 0 132 132 132 135 135 135 131 131 131 124 124 124 120 120 120 117 117 117 126 126 126 135 135 135 128 128 128 120 120 120 127 127 127 136 136 136 129 129 129 114 114 114 115 115 115 123 123 123 125 125 125 129 129 129 132 132 132 129 129 129 129 129 129 134 134 134 140 140 140 133 133 133 123 123 123 120 120 120 114 114 114 109 109 109 117 117 117 160 160 160 219 219 219 248 248 248 247 247 247 243 243 243 245 245 245 243 243 243 243 243 243 247 247 247 244 244 244 241 241 241 243 243 243 247 247 247 245 245 245 244 244 244 246 246 246 246 246 246 245 245 245 241 241 241 242 242 242 250 250 250 251 251 251 247 247 247 246 246 246 248 248 248 251 251 251 253 253 253 254 254 254 253 253 253 246 246 246 239 239 239 237 237 237 242 242 242 246 246 246 246 246 246 246 246 246 245 245 245 243 243 243 239 239 239 217 217 217 171 171 171 132 132 132 115 115 115 119 119 119 131 131 131 137 137 137 134 134 134 123 123 123 124 124 124 131 131 131 124 124 124 124 124 124 127 127 127 125 125 125 123 123 123 120 120 120 119 119 119 123 123 123 126 126 126 124 124 124 132 132 132 138 138 138 127 127 127 123 123 123 126 126 126 128 128 128 132 132 132 129 129 129 128 128 128 132 132 132 132 132 132 127 127 127 122 122 122 124 124 124 135 135 135 134 134 134 130 130 130 139 139 139 138 138 138 131 131 131 131 131 131 127 127 127 124 124 124 124 124 124 121 121 121 124 124 124 125 125 125 117 117 117 116 116 116 121 121 121 118 118 118 118 118 118 120 120 120 126 126 126 133 133 133 134 134 134 138 138 138 145 145 145 140 140 140 128 128 128 127 127 127 126 126 126 121 121 121 122 122 122 120 120 120 118 118 118 122 122 122 119 119 119 115 115 115 117 117 117 120 120 120 120 120 120 126 126 126 133 133 133 130 130 130 121 121 121 120 120 120 124 124 124 126 126 126 129 129 129 134 134 134 137 137 137 135 135 135 127 127 127 124 124 124 129 129 129 131 131 131 129 129 129 125 125 125 121 121 121 122 122 122 125 125 125 124 124 124 123 123 123 128 128 128 128 128 128 122 122 122 123 123 123 124 124 124 118 118 118 124 124 124 136 136 136 135 135 135 131 131 131 135 135 135 141 141 141 143 143 143 139 139 139 127 127 127 120 120 120 121 121 121 118 118 118 118 118 118 128 128 128 130 130 130 123 123 123 120 120 120 115 115 115 118 118 118 129 129 129 132 132 132 128 128 128 132 132 132 133 133 133 133 133 133 132 132 132 127 127 127 129 129 129 140 140 140 0 0 0 
0 0 0 141 141 141 141 141 141 128 128 128 119 119 119 119 119 119 123 123 123 136 136 136 139 139 139 127 127 127 117 117 117 118 118 118 123 123 123 117 117 117 113 113 113 122 122 122 130 130 130 129 129 129 134 134 134 132 132 132 120 120 120 124 124 124 141 141 141 143 143 143 130 130 130 124 124 124 126 126 126 122 122 122 117 117 117 120 120 120 143 143 143 194 194 194 236 236 236 248 248 248 248 248 248 247 247 247 242 242 242 243 243 243 248 248 248 248 248 248 244 244 244 244 244 244 243 243 243 240 240 240 243 243 243 250 250 250 253 253 253 252 252 252 246 246 246 243 243 243 249 249 249 248 248 248 245 245 245 248 248 248 247 247 247 247 247 247 248 248 248 249 249 249 245 245 245 239 239 239 239 239 239 241 241 241 242 242 242 246 246 246 248 248 248 247 247 247 249 249 249 246 246 246 232 232 232 196 196 196 148 148 148 121 121 121 114 114 114 119 119 119 129 129 129 131 131 131 127 127 127 117 117 117 121 121 121 130 130 130 128 128 128 131 131 131 130 130 130 124 124 124 124 124 124 127 127 127 130 130 130 129 129 129 128 128 128 127 127 127 132 132 132 129 129 129 118 118 118 120 120 120 128 128 128 134 134 134 134 134 134 128 128 128 124 124 124 123 123 123 125 125 125 128 128 128 127 127 127 128 128 128 129 129 129 129 129 129 136 136 136 142 142 142 132 132 132 122 122 122 129 129 129 132 132 132 122 122 122 117 117 117 122 122 122 127 127 127 128 128 128 120 120 120 114 114 114 117 117 117 121 121 121 123 123 123 120 120 120 120 120 120 132 132 132 140 140 140 143 143 143 143 143 143 137 137 137 132 132 132 135 135 135 132 132 132 127 127 127 128 128 128 125 125 125 121 121 121 123 123 123 119 119 119 113 113 113 120 120 120 130 130 130 127 127 127 126 126 126 130 130 130 126 126 126 122 122 122 123 123 123 127 127 127 127 127 127 125 125 125 129 129 129 133 133 133 133 133 133 130 130 130 129 129 129 134 134 134 136 136 136 134 134 134 132 132 132 127 127 127 128 128 128 132 132 132 128 128 128 124 124 124 121 121 121 122 122 122 126 126 126 126 126 126 123 123 123 116 116 116 119 119 119 130 130 130 136 136 136 133 133 133 133 133 133 137 137 137 135 135 135 132 132 132 134 134 134 132 132 132 127 127 127 125 125 125 123 123 123 125 125 125 131 131 131 129 129 129 121 121 121 113 113 113 117 117 117 130 130 130 125 125 125 119 119 119 127 127 127 130 130 130 131 131 131 133 133 133 130 130 130 134 134 134 139 139 139 0 0 0 
0 0 0 135 135 135 137 137 137 128 128 128 119 119 119 121 121 121 128 128 128 139 139 139 141 141 141 131 131 131 121 121 121 114 114 114 114 114 114 117 117 117 121 121 121 126 126 126 131 131 131 135 135 135 139 139 139 137 137 137 126 126 126 130 130 130 144 144 144 141 141 141 129 129 129 128 128 128 132 132 132 129 129 129 128 128 128 133 133 133 140 140 140 170 170 170 221 221 221 248 248 248 250 250 250 249 249 249 245 245 245 242 242 242 247 247 247 249 249 249 243 243 243 241 241 241 241 241 241 240 240 240 243 243 243 249 249 249 254 254 254 254 254 254 253 253 253 251 251 251 249 249 249 242 242 242 241 241 241 246 246 246 246 246 246 245 245 245 242 242 242 241 241 241 238 238 238 237 237 237 244 244 244 249 249 249 245 245 245 242 242 242 244 244 244 245 245 245 248 248 248 249 249 249 225 225 225 176 176 176 138 138 138 122 122 122 115 115 115 120 120 120 127 127 127 131 131 131 132 132 132 123 123 123 122 122 122 127 127 127 129 129 129 136 136 136 134 134 134 121 121 121 121 121 121 131 131 131 140 140 140 134 134 134 123 123 123 122 122 122 125 125 125 117 117 117 110 110 110 113 113 113 121 121 121 131 131 131 133 133 133 127 127 127 123 123 123 122 122 122 126 126 126 133 133 133 135 135 135 134 134 134 131 131 131 131 131 131 137 137 137 135 135 135 123 123 123 113 113 113 120 120 120 136 136 136 133 133 133 123 123 123 123 123 123 125 125 125 124 124 124 121 121 121 116 116 116 120 120 120 128 128 128 130 130 130 122 122 122 115 115 115 123 123 123 139 139 139 142 142 142 133 133 133 124 124 124 127 127 127 140 140 140 139 139 139 130 130 130 129 129 129 130 130 130 126 126 126 122 122 122 122 122 122 119 119 119 126 126 126 135 135 135 129 129 129 125 125 125 127 127 127 122 122 122 118 118 118 121 121 121 127 127 127 127 127 127 126 126 126 132 132 132 132 132 132 125 125 125 126 126 126 135 135 135 140 140 140 142 142 142 139 139 139 132 132 132 124 124 124 128 128 128 138 138 138 133 133 133 124 124 124 117 117 117 117 117 117 127 127 127 132 132 132 128 128 128 120 120 120 120 120 120 124 124 124 129 129 129 129 129 129 124 124 124 127 127 127 123 123 123 119 119 119 132 132 132 139 139 139 129 129 129 125 125 125 128 128 128 131 131 131 132 132 132 132 132 132 133 133 133 124 124 124 122 122 122 130 130 130 126 126 126 123 123 123 130 130 130 128 128 128 123 123 123 123 123 123 126 126 126 131 131 131 131 131 131 0 0 0 
0 0 0 132 132 132 135 135 135 130 130 130 120 120 120 122 122 122 128 128 128 128 128 128 133 133 133 136 136 136 128 128 128 120 120 120 123 123 123 129 129 129 128 128 128 124 124 124 131 131 131 142 142 142 145 145 145 141 141 141 137 137 137 140 140 140 141 141 141 132 132 132 126 126 126 130 130 130 132 132 132 125 125 125 119 119 119 126 126 126 132 132 132 153 153 153 204 204 204 241 241 241 246 246 246 246 246 246 245 245 245 242 242 242 245 245 245 249 249 249 245 245 245 244 244 244 247 247 247 249 249 249 250 250 250 252 252 252 252 252 252 252 252 252 253 253 253 250 250 250 246 246 246 243 243 243 247 247 247 249 249 249 248 248 248 245 245 245 241 241 241 240 240 240 241 241 241 239 239 239 245 245 245 251 251 251 247 247 247 239 239 239 239 239 239 244 244 244 247 247 247 241 241 241 209 209 209 157 157 157 130 130 130 127 127 127 119 119 119 119 119 119 129 129 129 137 137 137 136 136 136 128 128 128 127 127 127 129 129 129 127 127 127 129 129 129 126 126 126 116 116 116 121 121 121 135 135 135 139 139 139 136 136 136 131 131 131 126 126 126 119 119 119 111 111 111 110 110 110 115 115 115 119 119 119 125 125 125 127 127 127 124 124 124 124 124 124 128 128 128 132 132 132 135 135 135 131 131 131 128 128 128 131 131 131 134 134 134 134 134 134 128 128 128 120 120 120 115 115 115 120 120 120 135 135 135 143 143 143 133 133 133 122 122 122 119 119 119 123 123 123 122 122 122 120 120 120 123 123 123 125 125 125 124 124 124 123 123 123 121 121 121 124 124 124 134 134 134 137 137 137 128 128 128 117 117 117 120 120 120 133 133 133 133 133 133 124 124 124 119 119 119 120 120 120 121 121 121 118 118 118 119 119 119 123 123 123 130 130 130 138 138 138 131 131 131 124 124 124 128 128 128 126 126 126 122 122 122 120 120 120 118 118 118 121 121 121 125 125 125 130 130 130 131 131 131 122 122 122 122 122 122 136 136 136 142 142 142 141 141 141 136 136 136 124 124 124 119 119 119 128 128 128 142 142 142 138 138 138 122 122 122 115 115 115 115 115 115 120 120 120 129 129 129 134 134 134 131 131 131 128 128 128 126 126 126 124 124 124 121 121 121 120 120 120 124 124 124 120 120 120 117 117 117 130 130 130 138 138 138 126 126 126 122 122 122 130 130 130 136 136 136 132 132 132 128 128 128 132 132 132 127 127 127 121 121 121 129 129 129 131 131 131 130 130 130 136 136 136 134 134 134 121 121 121 120 120 120 130 130 130 129 129 129 126 126 126 0 0 0 
0 0 0 135 135 135 133 133 133 123 123 123 114 114 114 119 119 119 124 124 124 119 119 119 125 125 125 135 135 135 129 129 129 124 124 124 130 130 130 133 133 133 130 130 130 127 127 127 130 130 130 139 139 139 143 143 143 140 140 140 137 137 137 135 135 135 135 135 135 131 131 131 127 127 127 133 133 133 136 136 136 126 126 126 117 117 117 124 124 124 133 133 133 142 142 142 183 183 183 230 230 230 241 241 241 241 241 241 246 246 246 244 244 244 245 245 245 251 251 251 250 250 250 249 249 249 250 250 250 250 250 250 251 251 251 251 251 251 247 247 247 247 247 247 248 248 248 243 243 243 241 241 241 245 245 245 249 249 249 249 249 249 245 245 245 242 242 242 241 241 241 243 243 243 245 245 245 245 245 245 245 245 245 246 246 246 246 246 246 243 243 243 243 243 243 249 249 249 248 248 248 223 223 223 179 179 179 141 141 141 123 123 123 121 121 121 121 121 121 124 124 124 132 132 132 133 133 133 131 131 131 131 131 131 129 129 129 128 128 128 124 124 124 120 120 120 119 119 119 121 121 121 130 130 130 135 135 135 130 130 130 132 132 132 137 137 137 130 130 130 118 118 118 117 117 117 118 118 118 119 119 119 121 121 121 122 122 122 120 120 120 118 118 118 124 124 124 130 130 130 132 132 132 131 131 131 125 125 125 118 118 118 120 120 120 130 130 130 136 136 136 129 129 129 122 122 122 126 126 126 130 130 130 135 135 135 139 139 139 134 134 134 125 125 125 123 123 123 130 130 130 132 132 132 124 124 124 122 122 122 124 124 124 124 124 124 124 124 124 127 127 127 131 131 131 133 133 133 138 138 138 135 135 135 124 124 124 124 124 124 131 131 131 129 129 129 120 120 120 113 113 113 113 113 113 118 118 118 120 120 120 118 118 118 124 124 124 135 135 135 137 137 137 131 131 131 128 128 128 130 130 130 131 131 131 130 130 130 122 122 122 115 115 115 120 120 120 124 124 124 126 126 126 129 129 129 125 125 125 123 123 123 130 130 130 129 129 129 125 125 125 126 126 126 121 121 121 118 118 118 126 126 126 137 137 137 133 133 133 119 119 119 119 119 119 126 126 126 126 126 126 132 132 132 140 140 140 135 135 135 128 128 128 127 127 127 124 124 124 122 122 122 123 123 123 120 120 120 117 117 117 123 123 123 132 132 132 130 130 130 120 120 120 122 122 122 131 131 131 137 137 137 137 137 137 131 131 131 127 127 127 124 124 124 118 118 118 121 121 121 126 126 126 128 128 128 135 135 135 136 136 136 124 124 124 123 123 123 132 132 132 128 128 128 125 125 125 0 0 0 
0 0 0 126 126 126 126 126 126 118 118 118 109 109 109 111 111 111 115 115 115 119 119 119 127 127 127 127 127 127 121 121 121 120 120 120 124 124 124 126 126 126 130 130 130 130 130 130 123 123 123 126 126 126 134 134 134 132 132 132 128 128 128 123 123 123 126 126 126 133 133 133 131 131 131 135 135 135 137 137 137 132 132 132 129 129 129 131 131 131 135 135 135 137 137 137 164 164 164 210 210 210 234 234 234 242 242 242 246 246 246 243 243 243 243 243 243 249 249 249 251 251 251 249 249 249 248 248 248 246 246 246 246 246 246 247 247 247 246 246 246 247 247 247 248 248 248 242 242 242 242 242 242 245 245 245 246 246 246 243 243 243 241 241 241 243 243 243 246 246 246 247 247 247 248 248 248 250 250 250 248 248 248 244 244 244 248 248 248 249 249 249 248 248 248 251 251 251 245 245 245 204 204 204 155 155 155 132 132 132 118 118 118 111 111 111 119 119 119 129 129 129 132 132 132 131 131 131 131 131 131 134 134 134 133 133 133 127 127 127 124 124 124 124 124 124 126 126 126 132 132 132 135 135 135 128 128 128 122 122 122 124 124 124 126 126 126 121 121 121 118 118 118 123 123 123 121 121 121 116 116 116 121 121 121 125 125 125 123 123 123 118 118 118 120 120 120 124 124 124 127 127 127 129 129 129 126 126 126 122 122 122 120 120 120 128 128 128 138 138 138 133 133 133 127 127 127 132 132 132 136 136 136 136 136 136 130 130 130 128 128 128 129 129 129 127 127 127 129 129 129 132 132 132 124 124 124 117 117 117 123 123 123 126 126 126 126 126 126 132 132 132 134 134 134 130 130 130 133 133 133 133 133 133 129 129 129 131 131 131 138 138 138 140 140 140 130 130 130 119 119 119 120 120 120 127 127 127 127 127 127 120 120 120 122 122 122 132 132 132 130 130 130 123 123 123 126 126 126 129 129 129 128 128 128 129 129 129 129 129 129 123 123 123 123 123 123 126 126 126 126 126 126 126 126 126 125 125 125 125 125 125 124 124 124 121 121 121 121 121 121 124 124 124 123 123 123 123 123 123 127 127 127 130 130 130 125 125 125 119 119 119 121 121 121 130 130 130 131 131 131 134 134 134 138 138 138 126 126 126 117 117 117 122 122 122 126 126 126 128 128 128 128 128 128 123 123 123 122 122 122 131 131 131 132 132 132 122 122 122 118 118 118 126 126 126 132 132 132 132 132 132 136 136 136 134 134 134 125 125 125 121 121 121 115 115 115 114 114 114 125 125 125 135 135 135 137 137 137 131 131 131 123 123 123 124 124 124 126 126 126 124 124 124 124 124 124 0 0 0 
0 0 0 125 125 125 125 125 125 121 121 121 114 114 114 115 115 115 118 118 118 121 121 121 127 127 127 122 122 122 120 120 120 122 122 122 118 118 118 118 118 118 123 123 123 123 123 123 122 122 122 126 126 126 125 125 125 122 122 122 121 121 121 116 116 116 118 118 118 131 131 131 136 136 136 134 134 134 133 133 133 131 131 131 131 131 131 126 126 126 123 123 123 126 126 126 140 140 140 173 173 173 213 213 213 242 242 242 249 249 249 244 244 244 243 243 243 244 244 244 244 244 244 245 245 245 246 246 246 247 247 247 248 248 248 249 249 249 250 250 250 251 251 251 252 252 252 248 248 248 246 246 246 248 248 248 246 246 246 242 242 242 240 240 240 243 243 243 248 248 248 250 250 250 251 251 251 253 253 253 251 251 251 246 246 246 248 248 248 249 249 249 246 246 246 242 242 242 217 217 217 174 174 174 142 142 142 130 130 130 123 123 123 114 114 114 119 119 119 131 131 131 138 138 138 140 140 140 137 137 137 133 133 133 135 135 135 130 130 130 126 126 126 132 132 132 133 133 133 132 132 132 128 128 128 121 121 121 119 119 119 121 121 121 119 119 119 116 116 116 113 113 113 116 116 116 116 116 116 113 113 113 119 119 119 126 126 126 125 125 125 119 119 119 119 119 119 124 124 124 130 130 130 133 133 133 133 133 133 129 129 129 123 123 123 127 127 127 132 132 132 130 130 130 128 128 128 128 128 128 130 130 130 132 132 132 125 125 125 124 124 124 128 128 128 122 122 122 118 118 118 121 121 121 120 120 120 118 118 118 122 122 122 125 125 125 129 129 129 137 137 137 134 134 134 125 125 125 124 124 124 123 123 123 125 125 125 132 132 132 136 136 136 137 137 137 128 128 128 120 120 120 127 127 127 135 135 135 135 135 135 128 128 128 123 123 123 129 129 129 132 132 132 126 126 126 122 122 122 126 126 126 130 130 130 132 132 132 137 137 137 137 137 137 130 130 130 126 126 126 123 123 123 124 124 124 125 125 125 123 123 123 123 123 123 128 128 128 133 133 133 128 128 128 121 121 121 124 124 124 129 129 129 130 130 130 126 126 126 118 118 118 120 120 120 126 126 126 127 127 127 132 132 132 135 135 135 123 123 123 119 119 119 129 129 129 133 133 133 130 130 130 128 128 128 129 129 129 131 131 131 135 135 135 131 131 131 127 127 127 131 131 131 136 136 136 132 132 132 121 121 121 120 120 120 124 124 124 122 122 122 122 122 122 122 122 122 120 120 120 126 126 126 136 136 136 136 136 136 126 126 126 123 123 123 133 133 133 132 132 132 128 128 128 130 130 130 0 0 0 
0 0 0 130 130 130 126 126 126 122 122 122 121 121 121 128 128 128 132 132 132 130 130 130 128 128 128 126 126 126 126 126 126 125 125 125 119 119 119 123 123 123 126 126 126 124 124 124 129 129 129 130 130 130 120 120 120 113 113 113 116 116 116 119 119 119 121 121 121 133 133 133 137 137 137 133 133 133 131 131 131 127 127 127 126 126 126 119 119 119 113 113 113 118 118 118 125 125 125 138 138 138 167 167 167 212 212 212 242 242 242 245 245 245 242 242 242 240 240 240 240 240 240 243 243 243 247 247 247 250 250 250 250 250 250 249 249 249 249 249 249 250 250 250 252 252 252 252 252 252 251 251 251 251 251 251 249 249 249 247 247 247 242 242 242 238 238 238 243 243 243 247 247 247 250 250 250 251 251 251 249 249 249 246 246 246 248 248 248 248 248 248 241 241 241 216 216 216 173 173 173 141 141 141 128 128 128 130 130 130 133 133 133 127 127 127 125 125 125 130 130 130 137 137 137 139 139 139 131 131 131 127 127 127 134 134 134 133 133 133 125 125 125 130 130 130 131 131 131 127 127 127 124 124 124 119 119 119 120 120 120 120 120 120 119 119 119 118 118 118 112 112 112 111 111 111 112 112 112 110 110 110 112 112 112 116 116 116 118 118 118 122 122 122 122 122 122 126 126 126 136 136 136 139 139 139 138 138 138 131 131 131 128 128 128 130 130 130 125 125 125 122 122 122 123 123 123 124 124 124 128 128 128 129 129 129 123 123 123 120 120 120 125 125 125 124 124 124 121 121 121 123 123 123 125 125 125 128 128 128 129 129 129 130 130 130 134 134 134 141 141 141 140 140 140 131 131 131 126 126 126 123 123 123 123 123 123 125 125 125 123 123 123 118 118 118 115 115 115 119 119 119 121 121 121 127 127 127 137 137 137 134 134 134 126 126 126 129 129 129 140 140 140 135 135 135 123 123 123 125 125 125 131 131 131 137 137 137 142 142 142 144 144 144 137 137 137 125 125 125 122 122 122 123 123 123 120 120 120 114 114 114 114 114 114 125 125 125 134 134 134 125 125 125 114 114 114 115 115 115 120 120 120 125 125 125 125 125 125 120 120 120 125 125 125 131 131 131 128 128 128 127 127 127 128 128 128 127 127 127 129 129 129 133 133 133 135 135 135 129 129 129 127 127 127 128 128 128 128 128 128 131 131 131 130 130 130 130 130 130 137 137 137 141 141 141 130 130 130 114 114 114 112 112 112 121 121 121 125 125 125 123 123 123 127 127 127 126 126 126 119 119 119 120 120 120 130 130 130 129 129 129 128 128 128 135 135 135 138 138 138 137 137 137 139 139 139 0 0 0 
0 0 0 122 122 122 117 117 117 119 119 119 125 125 125 129 129 129 136 136 136 134 134 134 130 130 130 132 132 132 130 130 130 125 125 125 126 126 126 133 133 133 132 132 132 123 123 123 120 120 120 122 122 122 120 120 120 113 113 113 118 118 118 127 127 127 125 125 125 128 128 128 133 133 133 135 135 135 132 132 132 128 128 128 126 126 126 118 118 118 117 117 117 125 125 125 129 129 129 127 127 127 129 129 129 162 162 162 211 211 211 235 235 235 238 238 238 239 239 239 240 240 240 245 245 245 249 249 249 248 248 248 247 247 247 243 243 243 241 241 241 244 244 244 249 249 249 253 253 253 254 254 254 253 253 253 252 252 252 250 250 250 242 242 242 237 237 237 243 243 243 247 247 247 246 246 246 245 245 245 242 242 242 244 244 244 250 250 250 245 245 245 217 217 217 172 172 172 139 139 139 124 124 124 121 121 121 133 133 133 138 138 138 133 133 133 132 132 132 126 126 126 125 125 125 129 129 129 127 127 127 129 129 129 135 135 135 131 131 131 122 122 122 120 120 120 122 122 122 126 126 126 127 127 127 125 125 125 130 130 130 129 129 129 127 127 127 123 123 123 120 120 120 123 123 123 121 121 121 113 113 113 110 110 110 112 112 112 119 119 119 128 128 128 124 124 124 125 125 125 135 135 135 136 136 136 132 132 132 132 132 132 139 139 139 138 138 138 127 127 127 120 120 120 117 117 117 120 120 120 127 127 127 131 131 131 124 124 124 118 118 118 126 126 126 132 132 132 129 129 129 126 126 126 127 127 127 132 132 132 133 133 133 131 131 131 132 132 132 139 139 139 144 144 144 143 143 143 135 135 135 125 125 125 122 122 122 121 121 121 120 120 120 114 114 114 114 114 114 120 120 120 115 115 115 118 118 118 135 135 135 134 134 134 123 123 123 125 125 125 135 135 135 131 131 131 122 122 122 122 122 122 122 122 122 129 129 129 139 139 139 143 143 143 140 140 140 128 128 128 121 121 121 119 119 119 113 113 113 112 112 112 116 116 116 123 123 123 128 128 128 120 120 120 110 110 110 112 112 112 118 118 118 121 121 121 122 122 122 121 121 121 127 127 127 134 134 134 132 132 132 127 127 127 127 127 127 131 131 131 133 133 133 132 132 132 136 136 136 132 132 132 123 123 123 120 120 120 123 123 123 131 131 131 129 129 129 121 121 121 129 129 129 139 139 139 132 132 132 118 118 118 116 116 116 124 124 124 129 129 129 129 129 129 128 128 128 127 127 127 121 121 121 124 124 124 134 134 134 132 132 132 126 126 126 126 126 126 131 131 131 134 134 134 134 134 134 0 0 0 
0 0 0 121 121 121 113 113 113 122 122 122 130 130 130 124 124 124 122 122 122 123 123 123 129 129 129 136 136 136 129 129 129 127 127 127 133 133 133 130 130 130 122 122 122 114 114 114 113 113 113 121 121 121 128 128 128 123 123 123 126 126 126 134 134 134 127 127 127 121 121 121 127 127 127 137 137 137 139 139 139 136 136 136 129 129 129 122 122 122 121 121 121 123 123 123 128 128 128 130 130 130 125 125 125 135 135 135 167 167 167 203 203 203 233 233 233 242 242 242 241 241 241 245 245 245 248 248 248 245 245 245 243 243 243 243 243 243 242 242 242 245 245 245 250 250 250 253 253 253 252 252 252 251 251 251 253 253 253 251 251 251 243 243 243 243 243 243 248 248 248 247 247 247 246 246 246 246 246 246 242 242 242 247 247 247 245 245 245 215 215 215 169 169 169 137 137 137 129 129 129 129 129 129 129 129 129 134 134 134 136 136 136 137 137 137 138 138 138 128 128 128 120 120 120 121 121 121 126 126 126 129 129 129 129 129 129 126 126 126 121 121 121 117 117 117 117 117 117 123 123 123 128 128 128 128 128 128 134 134 134 138 138 138 136 136 136 131 131 131 127 127 127 131 131 131 129 129 129 120 120 120 121 121 121 124 124 124 124 124 124 128 128 128 126 126 126 126 126 126 132 132 132 127 127 127 121 121 121 127 127 127 135 135 135 137 137 137 133 133 133 123 123 123 112 112 112 112 112 112 122 122 122 129 129 129 125 125 125 123 123 123 129 129 129 131 131 131 129 129 129 122 122 122 115 115 115 122 122 122 130 130 130 127 127 127 123 123 123 129 129 129 140 140 140 144 144 144 137 137 137 127 127 127 122 122 122 128 128 128 133 133 133 127 127 127 125 125 125 126 126 126 123 123 123 126 126 126 136 136 136 133 133 133 122 122 122 125 125 125 126 126 126 117 117 117 116 116 116 121 121 121 120 120 120 122 122 122 130 130 130 138 138 138 140 140 140 130 130 130 121 121 121 120 120 120 119 119 119 121 121 121 126 126 126 129 129 129 128 128 128 122 122 122 113 113 113 116 116 116 123 123 123 118 118 118 115 115 115 117 117 117 122 122 122 131 131 131 135 135 135 135 135 135 133 133 133 134 134 134 134 134 134 132 132 132 139 139 139 138 138 138 124 124 124 115 115 115 119 119 119 130 130 130 129 129 129 117 117 117 122 122 122 135 135 135 133 133 133 121 121 121 114 114 114 117 117 117 127 127 127 134 134 134 134 134 134 135 135 135 137 137 137 142 142 142 142 142 142 130 130 130 117 117 117 119 119 119 126 126 126 121 121 121 116 116 116 0 0 0 
0 0 0 131 131 131 123 123 123 133 133 133 135 135 135 120 120 120 113 113 113 119 119 119 134 134 134 137 137 137 125 125 125 127 127 127 131 131 131 124 124 124 117 117 117 114 114 114 118 118 118 129 129 129 137 137 137 130 130 130 126 126 126 132 132 132 130 130 130 123 123 123 124 124 124 131 131 131 134 134 134 131 131 131 126 126 126 123 123 123 118 118 118 116 116 116 127 127 127 133 133 133 131 131 131 127 127 127 131 131 131 156 156 156 198 198 198 226 226 226 240 240 240 247 247 247 250 250 250 247 247 247 244 244 244 248 248 248 250 250 250 248 248 248 249 249 249 252 252 252 250 250 250 243 243 243 245 245 245 248 248 248 245 245 245 248 248 248 248 248 248 244 244 244 248 248 248 251 251 251 242 242 242 231 231 231 212 212 212 171 171 171 136 136 136 127 127 127 129 129 129 133 133 133 133 133 133 130 130 130 134 134 134 142 142 142 141 141 141 130 130 130 125 125 125 121 121 121 121 121 121 121 121 121 119 119 119 121 121 121 123 123 123 128 128 128 124 124 124 119 119 119 124 124 124 127 127 127 132 132 132 132 132 132 129 129 129 129 129 129 127 127 127 126 126 126 124 124 124 123 123 123 132 132 132 134 134 134 124 124 124 123 123 123 128 128 128 131 131 131 134 134 134 131 131 131 123 123 123 120 120 120 122 122 122 132 132 132 137 137 137 123 123 123 110 110 110 118 118 118 128 128 128 130 130 130 130 130 130 129 129 129 126 126 126 127 127 127 129 129 129 119 119 119 108 108 108 115 115 115 129 129 129 127 127 127 119 119 119 122 122 122 132 132 132 132 132 132 130 130 130 129 129 129 127 127 127 138 138 138 147 147 147 142 142 142 138 138 138 139 139 139 138 138 138 138 138 138 136 136 136 130 130 130 122 122 122 128 128 128 125 125 125 113 113 113 116 116 116 125 125 125 126 126 126 123 123 123 121 121 121 129 129 129 135 135 135 129 129 129 125 125 125 126 126 126 130 130 130 132 132 132 129 129 129 127 127 127 125 125 125 124 124 124 121 121 121 122 122 122 124 124 124 118 118 118 113 113 113 113 113 113 119 119 119 128 128 128 135 135 135 136 136 136 128 128 128 123 123 123 126 126 126 125 125 125 128 128 128 134 134 134 131 131 131 120 120 120 115 115 115 120 120 120 125 125 125 120 120 120 120 120 120 127 127 127 131 131 131 122 122 122 109 109 109 110 110 110 123 123 123 130 130 130 134 134 134 139 139 139 144 144 144 143 143 143 139 139 139 130 130 130 118 118 118 120 120 120 128 128 128 118 118 118 110 110 110 0 0 0 
0 0 0 132 132 132 131 131 131 138 138 138 132 132 132 116 116 116 112 112 112 121 121 121 132 132 132 133 133 133 125 125 125 129 129 129 130 130 130 126 126 126 125 125 125 120 120 120 120 120 120 128 128 128 135 135 135 132 132 132 126 126 126 125 125 125 129 129 129 130 130 130 125 125 125 123 123 123 123 123 123 122 122 122 122 122 122 121 121 121 119 119 119 121 121 121 130 130 130 135 135 135 129 129 129 120 120 120 116 116 116 125 125 125 145 145 145 172 172 172 200 200 200 221 221 221 241 241 241 249 249 249 246 246 246 250 250 250 252 252 252 248 248 248 246 246 246 251 251 251 250 250 250 241 241 241 241 241 241 245 245 245 245 245 245 248 248 248 246 246 246 242 242 242 240 240 240 229 229 229 206 206 206 178 178 178 160 160 160 146 146 146 130 130 130 124 124 124 121 121 121 120 120 120 122 122 122 124 124 124 131 131 131 139 139 139 133 133 133 126 126 126 129 129 129 126 126 126 119 119 119 116 116 116 113 113 113 114 114 114 122 122 122 132 132 132 127 127 127 119 119 119 122 122 122 128 128 128 130 130 130 128 128 128 128 128 128 127 127 127 128 128 128 125 125 125 118 118 118 123 123 123 134 134 134 132 132 132 120 120 120 117 117 117 129 129 129 134 134 134 133 133 133 137 137 137 135 135 135 124 124 124 121 121 121 129 129 129 131 131 131 121 121 121 118 118 118 128 128 128 136 136 136 132 132 132 130 130 130 128 128 128 124 124 124 124 124 124 129 129 129 123 123 123 113 113 113 119 119 119 131 131 131 134 134 134 129 129 129 129 129 129 130 130 130 121 121 121 119 119 119 126 126 126 130 130 130 140 140 140 148 148 148 145 145 145 139 139 139 140 140 140 142 142 142 137 137 137 135 135 135 131 131 131 124 124 124 126 126 126 122 122 122 115 115 115 121 121 121 125 125 125 128 128 128 129 129 129 122 122 122 122 122 122 130 130 130 128 128 128 125 125 125 126 126 126 131 131 131 134 134 134 132 132 132 129 129 129 128 128 128 132 132 132 131 131 131 128 128 128 126 126 126 122 122 122 119 119 119 119 119 119 121 121 121 123 123 123 130 130 130 133 133 133 124 124 124 117 117 117 117 117 117 118 118 118 119 119 119 126 126 126 131 131 131 128 128 128 122 122 122 118 118 118 123 123 123 125 125 125 124 124 124 126 126 126 129 129 129 123 123 123 110 110 110 111 111 111 126 126 126 131 131 131 128 128 128 131 131 131 136 136 136 131 131 131 126 126 126 128 128 128 124 124 124 124 124 124 132 132 132 127 127 127 123 123 123 0 0 0 
0 0 0 125 125 125 127 127 127 128 128 128 120 120 120 112 112 112 115 115 115 120 120 120 123 123 123 126 126 126 129 129 129 135 135 135 133 133 133 131 131 131 131 131 131 124 124 124 123 123 123 127 127 127 129 129 129 132 132 132 135 135 135 130 130 130 129 129 129 131 131 131 123 123 123 122 122 122 123 123 123 124 124 124 126 126 126 127 127 127 129 129 129 127 127 127 129 129 129 133 133 133 129 129 129 122 122 122 118 118 118 120 120 120 123 123 123 126 126 126 136 136 136 159 159 159 195 195 195 222 222 222 237 237 237 246 246 246 249 249 249 250 250 250 249 249 249 250 250 250 252 252 252 250 250 250 249 249 249 248 248 248 245 245 245 246 246 246 238 238 238 221 221 221 202 202 202 176 176 176 152 152 152 133 133 133 128 128 128 134 134 134 127 127 127 123 123 123 122 122 122 118 118 118 120 120 120 122 122 122 125 125 125 129 129 129 121 121 121 117 117 117 125 125 125 124 124 124 117 117 117 114 114 114 117 117 117 117 117 117 120 120 120 126 126 126 122 122 122 119 119 119 123 123 123 126 126 126 125 125 125 129 129 129 138 138 138 136 136 136 130 130 130 124 124 124 120 120 120 128 128 128 135 135 135 128 128 128 117 117 117 115 115 115 123 123 123 125 125 125 125 125 125 133 133 133 135 135 135 130 130 130 131 131 131 128 128 128 123 123 123 124 124 124 127 127 127 129 129 129 130 130 130 125 125 125 121 121 121 125 125 125 125 125 125 124 124 124 131 131 131 130 130 130 122 122 122 123 123 123 129 129 129 133 133 133 140 140 140 141 141 141 135 135 135 126 126 126 119 119 119 121 121 121 129 129 129 139 139 139 143 143 143 139 139 139 133 133 133 135 135 135 134 134 134 129 129 129 132 132 132 134 134 134 134 134 134 133 133 133 122 122 122 114 114 114 119 119 119 123 123 123 127 127 127 136 136 136 134 134 134 131 131 131 132 132 132 126 126 126 124 124 124 127 127 127 129 129 129 133 133 133 137 137 137 136 136 136 135 135 135 135 135 135 134 134 134 129 129 129 124 124 124 120 120 120 122 122 122 130 130 130 127 127 127 117 117 117 121 121 121 133 133 133 134 134 134 125 125 125 120 120 120 120 120 120 127 127 127 131 131 131 127 127 127 127 127 127 125 125 125 120 120 120 124 124 124 127 127 127 128 128 128 129 129 129 123 123 123 114 114 114 107 107 107 113 113 113 131 131 131 135 135 135 123 123 123 120 120 120 126 126 126 128 128 128 128 128 128 128 128 128 124 124 124 121 121 121 127 127 127 130 130 130 131 131 131 0 0 0 
0 0 0 124 124 124 123 123 123 117 117 117 113 113 113 116 116 116 126 126 126 131 131 131 125 125 125 123 123 123 131 131 131 133 133 133 125 125 125 123 123 123 128 128 128 125 125 125 121 121 121 121 121 121 122 122 122 129 129 129 138 138 138 136 136 136 130 130 130 124 124 124 118 118 118 123 123 123 125 125 125 122 122 122 127 127 127 130 130 130 125 125 125 121 121 121 122 122 122 125 125 125 127 127 127 132 132 132 129 129 129 126 126 126 124 124 124 116 116 116 111 111 111 120 120 120 140 140 140 169 169 169 200 200 200 215 215 215 219 219 219 222 222 222 218 218 218 216 216 216 221 221 221 221 221 221 218 218 218 215 215 215 211 211 211 212 212 212 203 203 203 170 170 170 145 145 145 134 134 134 128 128 128 124 124 124 124 124 124 131 131 131 129 129 129 128 128 128 132 132 132 132 132 132 131 131 131 125 125 125 121 121 121 127 127 127 123 123 123 117 117 117 121 121 121 121 121 121 118 118 118 120 120 120 128 128 128 128 128 128 126 126 126 126 126 126 120 120 120 118 118 118 121 121 121 119 119 119 120 120 120 127 127 127 136 136 136 137 137 137 129 129 129 122 122 122 123 123 123 135 135 135 142 142 142 137 137 137 129 129 129 124 124 124 123 123 123 117 117 117 118 118 118 125 125 125 121 121 121 122 122 122 130 130 130 130 130 130 126 126 126 129 129 129 131 131 131 128 128 128 123 123 123 119 119 119 120 120 120 124 124 124 122 122 122 125 125 125 136 136 136 134 134 134 128 128 128 130 130 130 125 125 125 128 128 128 141 141 141 141 141 141 136 136 136 133 133 133 128 128 128 125 125 125 130 130 130 139 139 139 140 140 140 133 133 133 133 133 133 138 138 138 132 132 132 122 122 122 122 122 122 127 127 127 138 138 138 141 141 141 128 128 128 120 120 120 122 122 122 125 125 125 125 125 125 131 131 131 138 138 138 137 137 137 134 134 134 128 128 128 126 126 126 126 126 126 125 125 125 129 129 129 132 132 132 134 134 134 134 134 134 133 133 133 133 133 133 130 130 130 123 123 123 115 115 115 117 117 117 129 129 129 133 133 133 125 125 125 120 120 120 128 128 128 129 129 129 121 121 121 119 119 119 123 123 123 133 133 133 137 137 137 129 129 129 123 123 123 118 118 118 117 117 117 123 123 123 126 126 126 130 130 130 129 129 129 118 118 118 109 109 109 112 112 112 119 119 119 131 131 131 135 135 135 122 122 122 115 115 115 118 118 118 126 126 126 129 129 129 127 127 127 125 125 125 120 120 120 117 117 117 118 118 118 121 121 121 0 0 0 
0 0 0 125 125 125 123 123 123 122 122 122 123 123 123 125 125 125 131 131 131 134 134 134 127 127 127 123 123 123 130 130 130 130 130 130 121 121 121 116 116 116 124 124 124 129 129 129 124 124 124 120 120 120 121 121 121 127 127 127 135 135 135 136 136 136 127 127 127 115 115 115 117 117 117 128 128 128 123 123 123 115 115 115 120 120 120 122 122 122 116 116 116 113 113 113 120 120 120 124 124 124 124 124 124 132 132 132 137 137 137 135 135 135 132 132 132 126 126 126 120 120 120 119 119 119 124 124 124 137 137 137 156 156 156 164 164 164 161 161 161 159 159 159 154 154 154 153 153 153 160 160 160 157 157 157 148 148 148 152 152 152 155 155 155 155 155 155 152 152 152 131 131 131 121 121 121 128 128 128 128 128 128 121 121 121 121 121 121 129 129 129 130 130 130 130 130 130 134 134 134 136 136 136 134 134 134 124 124 124 119 119 119 131 131 131 136 136 136 129 129 129 122 122 122 122 122 122 127 127 127 130 130 130 132 132 132 132 132 132 129 129 129 132 132 132 128 128 128 126 126 126 127 127 127 121 121 121 120 120 120 123 123 123 126 126 126 129 129 129 127 127 127 127 127 127 127 127 127 133 133 133 140 140 140 142 142 142 140 140 140 133 133 133 128 128 128 124 124 124 122 122 122 125 125 125 117 117 117 112 112 112 123 123 123 131 131 131 130 130 130 131 131 131 134 134 134 132 132 132 129 129 129 129 129 129 133 133 133 130 130 130 120 120 120 125 125 125 136 136 136 132 132 132 132 132 132 136 136 136 127 127 127 129 129 129 139 139 139 139 139 139 135 135 135 130 130 130 127 127 127 128 128 128 131 131 131 136 136 136 133 133 133 131 131 131 134 134 134 138 138 138 135 135 135 123 123 123 115 115 115 119 119 119 131 131 131 134 134 134 128 128 128 130 130 130 132 132 132 130 130 130 126 126 126 125 125 125 128 128 128 127 127 127 127 127 127 125 125 125 124 124 124 123 123 123 120 120 120 122 122 122 125 125 125 128 128 128 136 136 136 140 140 140 137 137 137 130 130 130 123 123 123 113 113 113 111 111 111 127 127 127 139 139 139 139 139 139 130 130 130 124 124 124 116 116 116 109 109 109 112 112 112 125 125 125 139 139 139 140 140 140 132 132 132 126 126 126 120 120 120 118 118 118 126 126 126 131 131 131 132 132 132 127 127 127 116 116 116 118 118 118 131 131 131 133 133 133 134 134 134 137 137 137 128 128 128 118 118 118 113 113 113 113 113 113 115 115 115 120 120 120 132 132 132 131 131 131 116 116 116 113 113 113 117 117 117 0 0 0 
0 0 0 125 125 125 127 127 127 137 137 137 138 138 138 129 129 129 125 125 125 127 127 127 124 124 124 121 121 121 128 128 128 134 134 134 130 130 130 121 121 121 125 125 125 134 134 134 132 132 132 128 128 128 128 128 128 129 129 129 134 134 134 137 137 137 126 126 126 115 115 115 122 122 122 131 131 131 123 123 123 116 116 116 118 118 118 121 121 121 118 118 118 117 117 117 127 127 127 130 130 130 124 124 124 123 123 123 128 128 128 133 133 133 135 135 135 133 133 133 127 127 127 124 124 124 128 128 128 134 134 134 138 138 138 135 135 135 126 126 126 123 123 123 124 124 124 127 127 127 133 133 133 128 128 128 121 121 121 132 132 132 139 139 139 135 135 135 133 133 133 128 128 128 129 129 129 133 133 133 130 130 130 124 124 124 118 118 118 118 118 118 119 119 119 123 123 123 130 130 130 132 132 132 130 130 130 122 122 122 119 119 119 127 127 127 132 132 132 126 126 126 119 119 119 124 124 124 129 129 129 133 133 133 135 135 135 131 131 131 129 129 129 134 134 134 136 136 136 135 135 135 132 132 132 126 126 126 121 121 121 119 119 119 122 122 122 127 127 127 125 125 125 129 129 129 131 131 131 129 129 129 129 129 129 128 128 128 129 129 129 128 128 128 129 129 129 128 128 128 124 124 124 126 126 126 121 121 121 113 113 113 120 120 120 129 129 129 129 129 129 134 134 134 135 135 135 130 130 130 134 134 134 138 138 138 137 137 137 135 135 135 127 127 127 127 127 127 134 134 134 132 132 132 136 136 136 134 134 134 125 125 125 130 130 130 140 140 140 140 140 140 132 132 132 123 123 123 122 122 122 126 126 126 131 131 131 132 132 132 128 128 128 129 129 129 131 131 131 133 133 133 134 134 134 125 125 125 116 116 116 122 122 122 129 129 129 128 128 128 130 130 130 132 132 132 132 132 132 128 128 128 126 126 126 124 124 124 125 125 125 125 125 125 126 126 126 126 126 126 124 124 124 120 120 120 118 118 118 126 126 126 131 131 131 131 131 131 138 138 138 142 142 142 134 134 134 123 123 123 120 120 120 116 116 116 118 118 118 132 132 132 142 142 142 145 145 145 142 142 142 131 131 131 122 122 122 117 117 117 121 121 121 136 136 136 145 145 145 140 140 140 133 133 133 132 132 132 130 130 130 125 125 125 127 127 127 130 130 130 128 128 128 125 125 125 120 120 120 128 128 128 140 140 140 139 139 139 139 139 139 143 143 143 139 139 139 128 128 128 113 113 113 106 106 106 109 109 109 119 119 119 133 133 133 135 135 135 123 123 123 122 122 122 128 128 128 0 0 0 
0 0 0 133 133 133 130 130 130 137 137 137 135 135 135 125 125 125 124 124 124 131 131 131 131 131 131 121 121 121 123 123 123 133 133 133 131 131 131 124 124 124 126 126 126 132 132 132 132 132 132 130 130 130 132 132 132 132 132 132 131 131 131 134 134 134 130 130 130 125 125 125 130 130 130 130 130 130 122 122 122 122 122 122 125 125 125 127 127 127 124 124 124 122 122 122 126 126 126 128 128 128 126 126 126 120 120 120 119 119 119 123 123 123 124 124 124 127 127 127 125 125 125 124 124 124 132 132 132 140 140 140 137 137 137 125 125 125 119 119 119 122 122 122 128 128 128 133 133 133 136 136 136 129 129 129 125 125 125 136 136 136 142 142 142 139 139 139 136 136 136 135 135 135 131 131 131 127 127 127 131 131 131 136 136 136 129 129 129 123 123 123 122 122 122 120 120 120 123 123 123 125 125 125 124 124 124 124 124 124 121 121 121 120 120 120 118 118 118 117 117 117 123 123 123 128 128 128 125 125 125 130 130 130 135 135 135 130 130 130 128 128 128 129 129 129 132 132 132 138 138 138 135 135 135 129 129 129 127 127 127 128 128 128 132 132 132 132 132 132 124 124 124 124 124 124 126 126 126 123 123 123 125 125 125 120 120 120 120 120 120 128 128 128 130 130 130 122 122 122 114 114 114 117 117 117 123 123 123 120 120 120 122 122 122 127 127 127 126 126 126 132 132 132 133 133 133 126 126 126 132 132 132 135 135 135 128 128 128 129 129 129 131 131 131 129 129 129 127 127 127 128 128 128 134 134 134 132 132 132 125 125 125 132 132 132 141 141 141 139 139 139 132 132 132 131 131 131 132 132 132 133 133 133 136 136 136 136 136 136 132 132 132 131 131 131 130 130 130 128 128 128 125 125 125 115 115 115 113 113 113 128 128 128 131 131 131 128 128 128 127 127 127 125 125 125 124 124 124 125 125 125 123 123 123 125 125 125 131 131 131 131 131 131 130 130 130 132 132 132 129 129 129 120 120 120 118 118 118 128 128 128 133 133 133 127 127 127 125 125 125 127 127 127 125 125 125 123 123 123 125 125 125 127 127 127 131 131 131 136 136 136 137 137 137 142 142 142 139 139 139 127 127 127 124 124 124 125 125 125 128 128 128 136 136 136 138 138 138 137 137 137 138 138 138 138 138 138 139 139 139 131 131 131 120 120 120 119 119 119 124 124 124 125 125 125 124 124 124 131 131 131 134 134 134 129 129 129 134 134 134 143 143 143 141 141 141 129 129 129 116 116 116 112 112 112 118 118 118 125 125 125 129 129 129 132 132 132 128 128 128 126 126 126 133 133 133 0 0 0 
0 0 0 135 135 135 126 126 126 127 127 127 125 125 125 122 122 122 124 124 124 134 134 134 138 138 138 124 124 124 119 119 119 125 125 125 127 127 127 127 127 127 128 128 128 134 134 134 137 137 137 131 131 131 131 131 131 132 132 132 130 130 130 132 132 132 133 133 133 132 132 132 130 130 130 124 124 124 123 123 123 127 127 127 131 131 131 133 133 133 129 129 129 121 121 121 118 118 118 121 121 121 126 126 126 125 125 125 120 120 120 115 115 115 113 113 113 120 120 120 125 125 125 128 128 128 137 137 137 140 140 140 132 132 132 124 124 124 125 125 125 130 130 130 132 132 132 129 129 129 128 128 128 124 124 124 124 124 124 131 131 131 137 137 137 138 138 138 136 136 136 137 137 137 131 131 131 125 125 125 132 132 132 138 138 138 135 135 135 135 135 135 132 132 132 122 122 122 117 117 117 118 118 118 122 122 122 126 126 126 123 123 123 117 117 117 116 116 116 122 122 122 130 130 130 128 128 128 122 122 122 124 124 124 124 124 124 124 124 124 126 126 126 125 125 125 128 128 128 138 138 138 141 141 141 135 135 135 134 134 134 139 139 139 137 137 137 131 131 131 122 122 122 120 120 120 123 123 123 122 122 122 124 124 124 124 124 124 129 129 129 136 136 136 131 131 131 117 117 117 109 109 109 111 111 111 122 122 122 128 128 128 129 129 129 130 130 130 126 126 126 129 129 129 131 131 131 127 127 127 134 134 134 138 138 138 130 130 130 124 124 124 123 123 123 122 122 122 120 120 120 123 123 123 130 130 130 135 135 135 135 135 135 136 136 136 139 139 139 138 138 138 139 139 139 144 144 144 143 143 143 137 137 137 134 134 134 135 135 135 140 140 140 140 140 140 132 132 132 124 124 124 119 119 119 112 112 112 115 115 115 129 129 129 129 129 129 119 119 119 118 118 118 120 120 120 123 123 123 125 125 125 121 121 121 123 123 123 131 131 131 126 126 126 119 119 119 123 123 123 126 126 126 123 123 123 117 117 117 120 120 120 123 123 123 119 119 119 117 117 117 120 120 120 122 122 122 125 125 125 129 129 129 134 134 134 137 137 137 138 138 138 136 136 136 133 133 133 130 130 130 121 121 121 117 117 117 120 120 120 125 125 125 127 127 127 125 125 125 130 130 130 137 137 137 138 138 138 141 141 141 138 138 138 123 123 123 119 119 119 126 126 126 126 126 126 123 123 123 129 129 129 131 131 131 123 123 123 124 124 124 133 133 133 128 128 128 118 118 118 119 119 119 123 123 123 126 126 126 126 126 126 126 126 126 131 131 131 132 132 132 129 129 129 133 133 133 0 0 0 
0 0 0 128 128 128 121 121 121 121 121 121 126 126 126 131 131 131 129 129 129 134 134 134 139 139 139 129 129 129 121 121 121 122 122 122 129 129 129 132 132 132 127 127 127 128 128 128 132 132 132 124 124 124 122 122 122 125 125 125 127 127 127 134 134 134 133 133 133 127 127 127 121 121 121 120 120 120 127 127 127 134 134 134 134 134 134 134 134 134 133 133 133 126 126 126 124 124 124 124 124 124 125 125 125 127 127 127 125 125 125 116 116 116 115 115 115 126 126 126 130 130 130 133 133 133 136 136 136 132 132 132 127 127 127 130 130 130 129 129 129 128 128 128 130 130 130 129 129 129 126 126 126 127 127 127 128 128 128 128 128 128 135 135 135 138 138 138 137 137 137 139 139 139 133 133 133 129 129 129 132 132 132 132 132 132 132 132 132 132 132 132 126 126 126 122 122 122 121 121 121 116 116 116 119 119 119 125 125 125 123 123 123 114 114 114 115 115 115 129 129 129 135 135 135 131 131 131 128 128 128 122 122 122 116 116 116 120 120 120 128 128 128 131 131 131 128 128 128 129 129 129 136 136 136 135 135 135 132 132 132 135 135 135 132 132 132 127 127 127 122 122 122 118 118 118 125 125 125 126 126 126 119 119 119 120 120 120 129 129 129 132 132 132 125 125 125 117 117 117 115 115 115 118 118 118 123 123 123 130 130 130 135 135 135 135 135 135 130 130 130 128 128 128 126 126 126 127 127 127 136 136 136 138 138 138 131 131 131 122 122 122 114 114 114 114 114 114 123 123 123 131 131 131 133 133 133 136 136 136 135 135 135 132 132 132 134 134 134 137 137 137 136 136 136 138 138 138 141 141 141 134 134 134 125 125 125 129 129 129 140 140 140 140 140 140 127 127 127 121 121 121 124 124 124 124 124 124 121 121 121 123 123 123 125 125 125 121 121 121 119 119 119 123 123 123 126 126 126 124 124 124 119 119 119 121 121 121 126 126 126 118 118 118 109 109 109 114 114 114 119 119 119 121 121 121 123 123 123 127 127 127 131 131 131 127 127 127 126 126 126 126 126 126 119 119 119 116 116 116 120 120 120 128 128 128 132 132 132 136 136 136 134 134 134 126 126 126 129 129 129 129 129 129 122 122 122 127 127 127 134 134 134 133 133 133 127 127 127 122 122 122 123 123 123 130 130 130 138 138 138 141 141 141 133 133 133 125 125 125 129 129 129 129 129 129 127 127 127 133 133 133 133 133 133 123 123 123 122 122 122 128 128 128 126 126 126 121 121 121 121 121 121 124 124 124 126 126 126 123 123 123 126 126 126 133 133 133 134 134 134 131 131 131 136 136 136 0 0 0 
0 0 0 128 128 128 124 124 124 120 120 120 127 127 127 139 139 139 139 139 139 135 135 135 136 136 136 130 130 130 121 121 121 118 118 118 125 125 125 129 129 129 119 119 119 119 119 119 125 125 125 121 121 121 124 124 124 129 129 129 127 127 127 127 127 127 122 122 122 119 119 119 119 119 119 124 124 124 133 133 133 134 134 134 128 128 128 126 126 126 129 129 129 134 134 134 135 135 135 131 131 131 128 128 128 128 128 128 125 125 125 122 122 122 125 125 125 130 130 130 133 133 133 135 135 135 132 132 132 131 131 131 129 129 129 129 129 129 127 127 127 120 120 120 123 123 123 132 132 132 133 133 133 135 135 135 132 132 132 125 125 125 128 128 128 128 128 128 130 130 130 130 130 130 124 124 124 124 124 124 126 126 126 130 130 130 135 135 135 131 131 131 123 123 123 124 124 124 127 127 127 121 121 121 115 115 115 118 118 118 120 120 120 113 113 113 114 114 114 129 129 129 137 137 137 136 136 136 131 131 131 121 121 121 117 117 117 120 120 120 127 127 127 132 132 132 126 126 126 117 117 117 122 122 122 129 129 129 125 125 125 125 125 125 130 130 130 131 131 131 126 126 126 117 117 117 122 122 122 130 130 130 124 124 124 122 122 122 123 123 123 122 122 122 120 120 120 118 118 118 124 124 124 133 133 133 132 132 132 130 130 130 131 131 131 127 127 127 124 124 124 128 128 128 124 124 124 122 122 122 129 129 129 128 128 128 119 119 119 112 112 112 111 111 111 113 113 113 122 122 122 132 132 132 135 135 135 133 133 133 128 128 128 126 126 126 130 130 130 128 128 128 118 118 118 121 121 121 131 131 131 130 130 130 123 123 123 129 129 129 138 138 138 132 132 132 123 123 123 127 127 127 135 135 135 130 130 130 119 119 119 116 116 116 127 127 127 132 132 132 127 127 127 129 129 129 134 134 134 127 127 127 119 119 119 121 121 121 125 125 125 117 117 117 112 112 112 118 118 118 124 124 124 125 125 125 129 129 129 135 135 135 138 138 138 131 131 131 129 129 129 131 131 131 123 123 123 114 114 114 113 113 113 118 118 118 122 122 122 128 128 128 126 126 126 119 119 119 128 128 128 133 133 133 128 128 128 132 132 132 139 139 139 139 139 139 134 134 134 123 123 123 116 116 116 126 126 126 140 140 140 141 141 141 129 129 129 118 118 118 121 121 121 126 126 126 128 128 128 135 135 135 134 134 134 127 127 127 128 128 128 132 132 132 134 134 134 131 131 131 123 123 123 117 117 117 119 119 119 122 122 122 126 126 126 133 133 133 133 133 133 127 127 127 129 129 129 0 0 0 
0 0 0 129 129 129 132 132 132 129 129 129 125 125 125 133 133 133 136 136 136 131 131 131 132 132 132 130 130 130 122 122 122 119 119 119 124 124 124 126 126 126 119 119 119 124 124 124 133 133 133 135 135 135 137 137 137 138 138 138 128 128 128 115 115 115 113 113 113 124 124 124 129 129 129 128 128 128 127 127 127 128 128 128 128 128 128 121 121 121 121 121 121 130 130 130 134 134 134 133 133 133 132 132 132 129 129 129 124 124 124 126 126 126 129 129 129 129 129 129 136 136 136 136 136 136 129 129 129 134 134 134 131 131 131 125 125 125 128 128 128 123 123 123 118 118 118 123 123 123 129 129 129 135 135 135 129 129 129 123 123 123 121 121 121 117 117 117 121 121 121 121 121 121 119 119 119 123 123 123 122 122 122 124 124 124 129 129 129 133 133 133 130 130 130 123 123 123 123 123 123 123 123 123 118 118 118 118 118 118 122 122 122 120 120 120 123 123 123 132 132 132 131 131 131 127 127 127 123 123 123 120 120 120 123 123 123 126 126 126 128 128 128 130 130 130 127 127 127 116 116 116 119 119 119 128 128 128 121 121 121 120 120 120 130 130 130 136 136 136 132 132 132 117 117 117 117 117 117 126 126 126 131 131 131 132 132 132 126 126 126 121 121 121 117 117 117 117 117 117 128 128 128 140 140 140 137 137 137 131 131 131 130 130 130 122 122 122 120 120 120 125 125 125 122 122 122 120 120 120 124 124 124 124 124 124 115 115 115 109 109 109 112 112 112 122 122 122 125 125 125 126 126 126 128 128 128 124 124 124 123 123 123 124 124 124 122 122 122 118 118 118 113 113 113 116 116 116 126 126 126 131 131 131 129 129 129 132 132 132 133 133 133 126 126 126 125 125 125 134 134 134 137 137 137 128 128 128 118 118 118 119 119 119 134 134 134 140 140 140 135 135 135 138 138 138 140 140 140 127 127 127 120 120 120 125 125 125 125 125 125 122 122 122 121 121 121 131 131 131 139 139 139 133 133 133 128 128 128 130 130 130 127 127 127 121 121 121 123 123 123 131 131 131 132 132 132 121 121 121 113 113 113 115 115 115 120 120 120 127 127 127 127 127 127 123 123 123 128 128 128 129 129 129 122 122 122 123 123 123 131 131 131 138 138 138 135 135 135 121 121 121 115 115 115 125 125 125 135 135 135 130 130 130 117 117 117 110 110 110 114 114 114 122 122 122 125 125 125 131 131 131 137 137 137 136 136 136 132 132 132 125 125 125 125 125 125 130 130 130 127 127 127 120 120 120 120 120 120 120 120 120 120 120 120 127 127 127 131 131 131 125 125 125 119 119 119 0 0 0 
0 0 0 130 130 130 135 135 135 135 135 135 125 125 125 119 119 119 122 122 122 126 126 126 129 129 129 127 127 127 125 125 125 128 128 128 132 132 132 129 129 129 124 124 124 130 130 130 139 139 139 142 142 142 140 140 140 138 138 138 127 127 127 114 114 114 119 119 119 131 131 131 130 130 130 120 120 120 117 117 117 128 128 128 134 134 134 127 127 127 124 124 124 126 126 126 131 131 131 135 135 135 133 133 133 129 129 129 124 124 124 124 124 124 128 128 128 130 130 130 135 135 135 130 130 130 124 124 124 129 129 129 125 125 125 121 121 121 129 129 129 131 131 131 121 121 121 120 120 120 130 130 130 135 135 135 133 133 133 130 130 130 120 120 120 114 114 114 120 120 120 125 125 125 126 126 126 124 124 124 122 122 122 123 123 123 126 126 126 134 134 134 131 131 131 121 121 121 124 124 124 128 128 128 121 121 121 122 122 122 127 127 127 130 130 130 136 136 136 135 135 135 121 121 121 116 116 116 122 122 122 124 124 124 124 124 124 131 131 131 136 136 136 135 135 135 128 128 128 119 119 119 127 127 127 133 133 133 125 125 125 124 124 124 127 127 127 132 132 132 129 129 129 115 115 115 108 108 108 112 112 112 125 125 125 132 132 132 126 126 126 123 123 123 121 121 121 120 120 120 126 126 126 133 133 133 131 131 131 128 128 128 130 130 130 126 126 126 122 122 122 121 121 121 122 122 122 126 126 126 125 125 125 120 120 120 118 118 118 118 118 118 119 119 119 126 126 126 124 124 124 121 121 121 123 123 123 117 117 117 119 119 119 124 124 124 120 120 120 119 119 119 126 126 126 130 130 130 135 135 135 135 135 135 130 130 130 130 130 130 129 129 129 129 129 129 132 132 132 133 133 133 130 130 130 123 123 123 120 120 120 124 124 124 136 136 136 143 143 143 138 138 138 138 138 138 135 135 135 126 126 126 128 128 128 135 135 135 132 132 132 129 129 129 126 126 126 133 133 133 138 138 138 129 129 129 127 127 127 131 131 131 126 126 126 122 122 122 123 123 123 127 127 127 134 134 134 126 126 126 115 115 115 118 118 118 124 124 124 131 131 131 135 135 135 131 131 131 128 128 128 125 125 125 116 116 116 118 118 118 129 129 129 139 139 139 136 136 136 119 119 119 112 112 112 120 120 120 124 124 124 122 122 122 118 118 118 115 115 115 120 120 120 129 129 129 130 130 130 132 132 132 141 141 141 144 144 144 134 134 134 118 118 118 114 114 114 127 127 127 132 132 132 129 129 129 129 129 129 121 121 121 119 119 119 126 126 126 129 129 129 128 128 128 120 120 120 0 0 0 
0 0 0 138 138 138 135 135 135 130 130 130 118 118 118 108 108 108 110 110 110 118 118 118 121 121 121 120 120 120 122 122 122 126 126 126 130 130 130 129 129 129 124 124 124 129 129 129 139 139 139 139 139 139 136 136 136 134 134 134 125 125 125 118 118 118 125 125 125 127 127 127 120 120 120 114 114 114 119 119 119 130 130 130 134 134 134 135 135 135 134 134 134 131 131 131 134 134 134 134 134 134 130 130 130 130 130 130 123 123 123 117 117 117 122 122 122 130 130 130 134 134 134 126 126 126 118 118 118 122 122 122 120 120 120 119 119 119 133 133 133 137 137 137 125 125 125 126 126 126 136 136 136 137 137 137 136 136 136 131 131 131 122 122 122 122 122 122 126 126 126 130 130 130 134 134 134 130 130 130 126 126 126 129 129 129 133 133 133 138 138 138 132 132 132 124 124 124 129 129 129 132 132 132 126 126 126 124 124 124 131 131 131 136 136 136 134 134 134 126 126 126 117 117 117 117 117 117 126 126 126 127 127 127 123 123 123 132 132 132 137 137 137 133 133 133 124 124 124 120 120 120 129 129 129 135 135 135 130 130 130 124 124 124 118 118 118 118 118 118 120 120 120 118 118 118 112 112 112 110 110 110 121 121 121 128 128 128 127 127 127 127 127 127 129 129 129 129 129 129 125 125 125 122 122 122 124 124 124 126 126 126 125 125 125 122 122 122 120 120 120 125 125 125 133 133 133 131 131 131 122 122 122 120 120 120 126 126 126 127 127 127 120 120 120 116 116 116 116 116 116 120 120 120 125 125 125 123 123 123 126 126 126 133 133 133 129 129 129 126 126 126 131 131 131 134 134 134 135 135 135 131 131 131 123 123 123 126 126 126 133 133 133 137 137 137 133 133 133 123 123 123 116 116 116 116 116 116 121 121 121 124 124 124 130 130 130 139 139 139 136 136 136 130 130 130 128 128 128 131 131 131 137 137 137 141 141 141 139 139 139 134 134 134 126 126 126 122 122 122 122 122 122 122 122 122 125 125 125 133 133 133 133 133 133 129 129 129 125 125 125 125 125 125 129 129 129 121 121 121 117 117 117 125 125 125 127 127 127 127 127 127 132 132 132 128 128 128 124 124 124 127 127 127 122 122 122 123 123 123 131 131 131 136 136 136 133 133 133 121 121 121 117 117 117 121 121 121 120 120 120 123 123 123 125 125 125 124 124 124 126 126 126 128 128 128 126 126 126 128 128 128 134 134 134 140 140 140 134 134 134 117 117 117 112 112 112 122 122 122 127 127 127 129 129 129 131 131 131 127 127 127 125 125 125 125 125 125 128 128 128 133 133 133 129 129 129 0 0 0 
0 0 0 137 137 137 133 133 133 121 121 121 112 112 112 108 108 108 108 108 108 113 113 113 119 119 119 121 121 121 121 121 121 122 122 122 127 127 127 129 129 129 124 124 124 123 123 123 130 130 130 135 135 135 132 132 132 127 127 127 119 119 119 117 117 117 121 121 121 119 119 119 117 117 117 120 120 120 129 129 129 135 135 135 130 130 130 132 132 132 133 133 133 133 133 133 138 138 138 131 131 131 124 124 124 127 127 127 124 124 124 117 117 117 117 117 117 128 128 128 138 138 138 130 130 130 120 120 120 119 119 119 117 117 117 120 120 120 134 134 134 136 136 136 125 125 125 125 125 125 132 132 132 136 136 136 134 134 134 127 127 127 126 126 126 128 128 128 124 124 124 121 121 121 129 129 129 135 135 135 133 133 133 130 130 130 134 134 134 136 136 136 131 131 131 127 127 127 129 129 129 128 128 128 125 125 125 126 126 126 133 133 133 133 133 133 122 122 122 115 115 115 118 118 118 124 124 124 128 128 128 130 130 130 130 130 130 130 130 130 127 127 127 120 120 120 117 117 117 118 118 118 123 123 123 131 131 131 132 132 132 124 124 124 117 117 117 114 114 114 116 116 116 123 123 123 121 121 121 119 119 119 124 124 124 129 129 129 135 135 135 134 134 134 131 131 131 133 133 133 129 129 129 122 122 122 120 120 120 122 122 122 122 122 122 119 119 119 119 119 119 130 130 130 141 141 141 137 137 137 130 130 130 130 130 130 134 134 134 132 132 132 118 118 118 111 111 111 116 116 116 122 122 122 131 131 131 133 133 133 132 132 132 135 135 135 129 129 129 123 123 123 127 127 127 131 131 131 129 129 129 124 124 124 119 119 119 125 125 125 134 134 134 133 133 133 127 127 127 119 119 119 112 112 112 115 115 115 123 123 123 124 124 124 126 126 126 137 137 137 137 137 137 129 129 129 128 128 128 133 133 133 130 130 130 127 127 127 128 128 128 127 127 127 126 126 126 120 120 120 115 115 115 116 116 116 122 122 122 129 129 129 131 131 131 126 126 126 121 121 121 125 125 125 126 126 126 121 121 121 124 124 124 130 130 130 127 127 127 124 124 124 130 130 130 128 128 128 123 123 123 130 130 130 132 132 132 130 130 130 133 133 133 132 132 132 126 126 126 123 123 123 126 126 126 125 125 125 119 119 119 120 120 120 126 126 126 130 130 130 129 129 129 125 125 125 123 123 123 120 120 120 119 119 119 132 132 132 134 134 134 117 117 117 115 115 115 122 122 122 119 119 119 119 119 119 125 125 125 126 126 126 124 124 124 125 125 125 131 131 131 135 135 135 136 136 136 0 0 0 
0 0 0 123 123 123 125 125 125 119 119 119 115 115 115 117 117 117 117 117 117 123 123 123 128 128 128 124 124 124 119 119 119 119 119 119 122 122 122 126 126 126 127 127 127 122 122 122 124 124 124 130 130 130 127 127 127 119 119 119 118 118 118 122 122 122 122 122 122 120 120 120 125 125 125 130 130 130 134 134 134 133 133 133 127 127 127 128 128 128 127 127 127 128 128 128 136 136 136 137 137 137 131 131 131 124 124 124 123 123 123 126 126 126 124 124 124 128 128 128 133 133 133 127 127 127 120 120 120 117 117 117 116 116 116 124 124 124 131 131 131 128 128 128 123 123 123 120 120 120 124 124 124 130 130 130 128 128 128 124 124 124 124 124 124 122 122 122 116 116 116 112 112 112 117 117 117 127 127 127 131 131 131 133 133 133 136 136 136 133 133 133 129 129 129 130 130 130 131 131 131 129 129 129 121 121 121 120 120 120 130 130 130 128 128 128 117 117 117 112 112 112 118 118 118 129 129 129 132 132 132 134 134 134 135 135 135 125 125 125 117 117 117 113 113 113 116 116 116 120 120 120 120 120 120 128 128 128 131 131 131 124 124 124 124 124 124 126 126 126 121 121 121 121 121 121 120 120 120 123 123 123 131 131 131 130 130 130 130 130 130 127 127 127 124 124 124 132 132 132 136 136 136 132 132 132 122 122 122 116 116 116 117 117 117 117 117 117 114 114 114 122 122 122 136 136 136 141 141 141 140 140 140 137 137 137 134 134 134 129 129 129 119 119 119 116 116 116 122 122 122 128 128 128 132 132 132 131 131 131 127 127 127 127 127 127 122 122 122 121 121 121 131 131 131 137 137 137 135 135 135 130 130 130 126 126 126 125 125 125 123 123 123 120 120 120 121 121 121 125 125 125 124 124 124 123 123 123 127 127 127 131 131 131 134 134 134 136 136 136 134 134 134 127 127 127 127 127 127 129 129 129 121 121 121 116 116 116 119 119 119 120 120 120 124 124 124 124 124 124 116 116 116 117 117 117 124 124 124 130 130 130 133 133 133 127 127 127 121 121 121 122 122 122 123 123 123 129 129 129 135 135 135 131 131 131 126 126 126 129 129 129 132 132 132 127 127 127 121 121 121 124 124 124 127 127 127 128 128 128 130 130 130 127 127 127 121 121 121 123 123 123 129 129 129 127 127 127 120 120 120 121 121 121 128 128 128 133 133 133 133 133 133 132 132 132 130 130 130 124 124 124 121 121 121 133 133 133 135 135 135 119 119 119 117 117 117 124 124 124 121 121 121 122 122 122 124 124 124 120 120 120 120 120 120 130 130 130 136 136 136 134 134 134 135 135 135 0 0 0 
0 0 0 123 123 123 125 125 125 122 122 122 119 119 119 120 120 120 126 126 126 135 135 135 136 136 136 126 126 126 119 119 119 117 117 117 117 117 117 122 122 122 128 128 128 129 129 129 129 129 129 126 126 126 122 122 122 119 119 119 123 123 123 131 131 131 129 129 129 124 124 124 131 131 131 137 137 137 131 131 131 125 125 125 125 125 125 127 127 127 127 127 127 126 126 126 132 132 132 141 141 141 140 140 140 128 128 128 126 126 126 135 135 135 137 137 137 131 131 131 122 122 122 118 118 118 121 121 121 123 123 123 125 125 125 131 131 131 130 130 130 123 123 123 122 122 122 121 121 121 119 119 119 119 119 119 117 117 117 118 118 118 120 120 120 122 122 122 120 120 120 120 120 120 120 120 120 118 118 118 121 121 121 133 133 133 140 140 140 138 138 138 136 136 136 131 131 131 128 128 128 130 130 130 123 123 123 119 119 119 128 128 128 130 130 130 122 122 122 111 111 111 116 116 116 131 131 131 134 134 134 130 130 130 131 131 131 130 130 130 125 125 125 120 120 120 122 122 122 122 122 122 122 122 122 130 130 130 132 132 132 126 126 126 127 127 127 130 130 130 126 126 126 125 125 125 128 128 128 132 132 132 137 137 137 129 129 129 120 120 120 119 119 119 121 121 121 129 129 129 134 134 134 134 134 134 125 125 125 118 118 118 118 118 118 118 118 118 110 110 110 111 111 111 125 125 125 134 134 134 133 133 133 134 134 134 131 131 131 124 124 124 122 122 122 122 122 122 127 127 127 131 131 131 130 130 130 128 128 128 127 127 127 125 125 125 123 123 123 125 125 125 131 131 131 133 133 133 130 130 130 132 132 132 137 137 137 129 129 129 115 115 115 113 113 113 121 121 121 128 128 128 130 130 130 128 128 128 130 130 130 136 136 136 134 134 134 129 129 129 125 125 125 121 121 121 124 124 124 129 129 129 126 126 126 123 123 123 120 120 120 119 119 119 124 124 124 124 124 124 117 117 117 117 117 117 126 126 126 136 136 136 137 137 137 134 134 134 127 127 127 118 118 118 120 120 120 132 132 132 140 140 140 135 135 135 130 130 130 129 129 129 128 128 128 122 122 122 114 114 114 116 116 116 120 120 120 122 122 122 126 126 126 125 125 125 124 124 124 128 128 128 131 131 131 127 127 127 121 121 121 121 121 121 128 128 128 134 134 134 133 133 133 129 129 129 128 128 128 129 129 129 131 131 131 139 139 139 136 136 136 120 120 120 116 116 116 122 122 122 129 129 129 132 132 132 126 126 126 121 121 121 123 123 123 132 132 132 139 139 139 134 134 134 125 125 125 0 0 0 
0 0 0 137 137 137 135 135 135 127 127 127 122 122 122 120 120 120 123 123 123 131 131 131 133 133 133 128 128 128 127 127 127 123 123 123 123 123 123 127 127 127 129 129 129 135 135 135 136 136 136 127 127 127 124 124 124 125 125 125 126 126 126 130 130 130 130 130 130 128 128 128 135 135 135 141 141 141 133 133 133 124 124 124 126 126 126 128 128 128 130 130 130 132 132 132 134 134 134 133 133 133 131 131 131 129 129 129 130 130 130 136 136 136 137 137 137 128 128 128 118 118 118 121 121 121 133 133 133 137 137 137 137 137 137 135 135 135 130 130 130 128 128 128 128 128 128 123 123 123 118 118 118 115 115 115 115 115 115 117 117 117 121 121 121 127 127 127 131 131 131 135 135 135 132 132 132 122 122 122 121 121 121 131 131 131 138 138 138 139 139 139 139 139 139 128 128 128 118 118 118 122 122 122 129 129 129 128 128 128 124 124 124 128 128 128 127 127 127 115 115 115 119 119 119 130 130 130 128 128 128 126 126 126 134 134 134 141 141 141 134 134 134 125 125 125 122 122 122 118 118 118 123 123 123 131 131 131 133 133 133 134 134 134 131 131 131 127 127 127 125 125 125 129 129 129 135 135 135 137 137 137 138 138 138 135 135 135 131 131 131 129 129 129 131 131 131 133 133 133 131 131 131 129 129 129 127 127 127 123 123 123 124 124 124 127 127 127 118 118 118 110 110 110 118 118 118 126 126 126 120 120 120 117 117 117 120 120 120 122 122 122 123 123 123 123 123 123 122 122 122 122 122 122 126 126 126 134 134 134 137 137 137 137 137 137 133 133 133 127 127 127 125 125 125 121 121 121 120 120 120 129 129 129 139 139 139 136 136 136 119 119 119 112 112 112 118 118 118 127 127 127 128 128 128 124 124 124 131 131 131 134 134 134 130 130 130 130 130 130 127 127 127 123 123 123 128 128 128 132 132 132 130 130 130 125 125 125 117 117 117 117 117 117 128 128 128 128 128 128 120 120 120 119 119 119 127 127 127 137 137 137 138 138 138 132 132 132 127 127 127 123 123 123 127 127 127 132 132 132 133 133 133 131 131 131 125 125 125 120 120 120 120 120 120 114 114 114 109 109 109 116 116 116 126 126 126 127 127 127 131 131 131 134 134 134 131 131 131 132 132 132 131 131 131 126 126 126 122 122 122 121 121 121 128 128 128 130 130 130 123 123 123 117 117 117 118 118 118 123 123 123 128 128 128 137 137 137 133 133 133 122 122 122 123 123 123 126 126 126 135 135 135 136 136 136 126 126 126 125 125 125 129 129 129 134 134 134 139 139 139 134 134 134 124 124 124 0 0 0 
0 0 0 142 142 142 145 145 145 135 135 135 128 128 128 125 125 125 126 126 126 126 126 126 123 123 123 123 123 123 130 130 130 130 130 130 132 132 132 132 132 132 127 127 127 134 134 134 139 139 139 133 133 133 129 129 129 127 127 127 128 128 128 129 129 129 128 128 128 135 135 135 143 143 143 142 142 142 135 135 135 128 128 128 125 125 125 127 127 127 132 132 132 133 133 133 131 131 131 126 126 126 121 121 121 125 125 125 128 128 128 129 129 129 129 129 129 124 124 124 124 124 124 135 135 135 142 142 142 142 142 142 140 140 140 138 138 138 134 134 134 134 134 134 134 134 134 125 125 125 119 119 119 120 120 120 120 120 120 120 120 120 125 125 125 128 128 128 132 132 132 137 137 137 133 133 133 130 130 130 133 133 133 134 134 134 132 132 132 130 130 130 129 129 129 123 123 123 113 113 113 115 115 115 132 132 132 137 137 137 123 123 123 122 122 122 126 126 126 120 120 120 126 126 126 128 128 128 121 121 121 130 130 130 143 143 143 139 139 139 124 124 124 116 116 116 118 118 118 121 121 121 128 128 128 130 130 130 129 129 129 136 136 136 135 135 135 127 127 127 123 123 123 126 126 126 131 131 131 133 133 133 137 137 137 141 141 141 141 141 141 138 138 138 136 136 136 139 139 139 136 136 136 129 129 129 127 127 127 123 123 123 122 122 122 129 129 129 128 128 128 116 116 116 117 117 117 125 125 125 121 121 121 113 113 113 113 113 113 118 118 118 122 122 122 122 122 122 118 118 118 113 113 113 120 120 120 134 134 134 141 141 141 140 140 140 134 134 134 122 122 122 116 116 116 117 117 117 121 121 121 126 126 126 131 131 131 133 133 133 126 126 126 118 118 118 121 121 121 130 130 130 130 130 130 123 123 123 133 133 133 138 138 138 135 135 135 138 138 138 134 134 134 126 126 126 129 129 129 132 132 132 125 125 125 121 121 121 119 119 119 120 120 120 130 130 130 135 135 135 131 131 131 128 128 128 129 129 129 134 134 134 135 135 135 130 130 130 127 127 127 129 129 129 129 129 129 125 125 125 117 117 117 114 114 114 112 112 112 110 110 110 113 113 113 115 115 115 115 115 115 124 124 124 138 138 138 138 138 138 135 135 135 137 137 137 129 129 129 125 125 125 131 131 131 131 131 131 126 126 126 123 123 123 128 128 128 125 125 125 117 117 117 117 117 117 119 119 119 120 120 120 124 124 124 135 135 135 130 130 130 121 121 121 126 126 126 129 129 129 134 134 134 131 131 131 124 124 124 127 127 127 126 126 126 129 129 129 137 137 137 136 136 136 134 134 134 0 0 0 
0 0 0 138 138 138 144 144 144 139 139 139 132 132 132 132 132 132 134 134 134 131 131 131 121 121 121 121 121 121 126 126 126 126 126 126 130 130 130 126 126 126 123 123 123 131 131 131 130 130 130 126 126 126 124 124 124 122 122 122 125 125 125 129 129 129 126 126 126 129 129 129 136 136 136 133 133 133 128 128 128 127 127 127 123 123 123 124 124 124 131 131 131 129 129 129 124 124 124 125 125 125 125 125 125 125 125 125 127 127 127 126 126 126 126 126 126 128 128 128 135 135 135 140 140 140 139 139 139 138 138 138 138 138 138 138 138 138 134 134 134 131 131 131 131 131 131 124 124 124 122 122 122 128 128 128 129 129 129 129 129 129 132 132 132 128 128 128 124 124 124 126 126 126 125 125 125 127 127 127 131 131 131 129 129 129 125 125 125 120 120 120 119 119 119 120 120 120 118 118 118 123 123 123 134 134 134 136 136 136 128 128 128 123 123 123 123 123 123 125 125 125 134 134 134 135 135 135 126 126 126 133 133 133 142 142 142 133 133 133 119 119 119 111 111 111 116 116 116 130 130 130 140 140 140 136 136 136 127 127 127 132 132 132 138 138 138 132 132 132 128 128 128 130 130 130 131 131 131 131 131 131 132 132 132 135 135 135 135 135 135 127 127 127 127 127 127 135 135 135 136 136 136 132 132 132 127 127 127 121 121 121 118 118 118 126 126 126 128 128 128 121 121 121 117 117 117 121 121 121 127 127 127 128 128 128 120 120 120 116 116 116 120 120 120 121 121 121 121 121 121 116 116 116 115 115 115 126 126 126 133 133 133 132 132 132 125 125 125 118 118 118 113 113 113 115 115 115 118 118 118 117 117 117 118 118 118 125 125 125 128 128 128 129 129 129 134 134 134 135 135 135 130 130 130 125 125 125 131 131 131 139 139 139 138 138 138 133 133 133 126 126 126 123 123 123 127 127 127 130 130 130 128 128 128 127 127 127 132 132 132 130 130 130 127 127 127 128 128 128 129 129 129 130 130 130 125 125 125 123 123 123 124 124 124 126 126 126 127 127 127 123 123 123 124 124 124 123 123 123 114 114 114 110 110 110 113 113 113 113 113 113 119 119 119 128 128 128 127 127 127 131 131 131 140 140 140 137 137 137 137 137 137 139 139 139 127 127 127 118 118 118 127 127 127 136 136 136 130 130 130 121 121 121 124 124 124 122 122 122 118 118 118 126 126 126 130 130 130 124 124 124 127 127 127 135 135 135 131 131 131 119 119 119 120 120 120 129 129 129 131 131 131 126 126 126 123 123 123 125 125 125 119 119 119 118 118 118 129 129 129 139 139 139 142 142 142 0 0 0 
0 0 0 133 133 133 136 136 136 134 134 134 132 132 132 136 136 136 135 135 135 126 126 126 119 119 119 121 121 121 123 123 123 122 122 122 124 124 124 122 122 122 128 128 128 132 132 132 122 122 122 120 120 120 124 124 124 119 119 119 118 118 118 125 125 125 122 122 122 118 118 118 126 126 126 130 130 130 125 125 125 125 125 125 127 127 127 126 126 126 126 126 126 127 127 127 124 124 124 127 127 127 131 131 131 129 129 129 129 129 129 128 128 128 129 129 129 133 133 133 134 134 134 132 132 132 132 132 132 135 135 135 138 138 138 136 136 136 128 128 128 126 126 126 130 130 130 126 126 126 121 121 121 129 129 129 134 134 134 136 136 136 136 136 136 130 130 130 125 125 125 123 123 123 125 125 125 124 124 124 122 122 122 124 124 124 125 125 125 119 119 119 117 117 117 121 121 121 129 129 129 135 135 135 134 134 134 130 130 130 129 129 129 125 125 125 124 124 124 131 131 131 137 137 137 135 135 135 129 129 129 135 135 135 138 138 138 129 129 129 123 123 123 113 113 113 112 112 112 127 127 127 142 142 142 141 141 141 127 127 127 127 127 127 136 136 136 133 133 133 133 133 133 138 138 138 133 133 133 127 127 127 123 123 123 123 123 123 125 125 125 121 121 121 124 124 124 127 127 127 124 124 124 122 122 122 126 126 126 125 125 125 123 123 123 128 128 128 133 133 133 129 129 129 122 122 122 121 121 121 127 127 127 133 133 133 126 126 126 116 116 116 118 118 118 123 123 123 126 126 126 125 125 125 120 120 120 117 117 117 123 123 123 129 129 129 125 125 125 122 122 122 121 121 121 121 121 121 119 119 119 115 115 115 119 119 119 127 127 127 135 135 135 139 139 139 138 138 138 130 130 130 125 125 125 126 126 126 128 128 128 132 132 132 128 128 128 118 118 118 118 118 118 125 125 125 124 124 124 125 125 125 130 130 130 135 135 135 140 140 140 133 133 133 121 121 121 117 117 117 120 120 120 122 122 122 116 116 116 110 110 110 113 113 113 126 126 126 132 132 132 125 125 125 126 126 126 131 131 131 126 126 126 119 119 119 120 120 120 122 122 122 129 129 129 138 138 138 132 132 132 129 129 129 131 131 131 130 130 130 136 136 136 141 141 141 132 132 132 119 119 119 121 121 121 136 136 136 135 135 135 123 123 123 123 123 123 122 122 122 121 121 121 132 132 132 136 136 136 133 133 133 131 131 131 131 131 131 132 132 132 124 124 124 118 118 118 124 124 124 129 129 129 128 128 128 127 127 127 126 126 126 123 123 123 122 122 122 126 126 126 133 133 133 137 137 137 0 0 0 
0 0 0 135 135 135 129 129 129 126 126 126 124 124 124 128 128 128 124 124 124 113 113 113 109 109 109 112 112 112 119 119 119 126 126 126 129 129 129 129 129 129 137 137 137 137 137 137 125 125 125 123 123 123 126 126 126 123 123 123 121 121 121 124 124 124 125 125 125 121 121 121 127 127 127 133 133 133 128 128 128 126 126 126 132 132 132 127 127 127 118 118 118 122 122 122 123 123 123 125 125 125 129 129 129 128 128 128 126 126 126 126 126 126 129 129 129 131 131 131 127 127 127 125 125 125 130 130 130 132 132 132 134 134 134 136 136 136 130 130 130 129 129 129 133 133 133 129 129 129 121 121 121 122 122 122 130 130 130 131 131 131 128 128 128 130 130 130 134 134 134 133 133 133 134 134 134 130 130 130 125 125 125 125 125 125 125 125 125 125 125 125 123 123 123 120 120 120 123 123 123 127 127 127 127 127 127 130 130 130 131 131 131 130 130 130 132 132 132 135 135 135 132 132 132 124 124 124 125 125 125 136 136 136 138 138 138 128 128 128 120 120 120 114 114 114 113 113 113 124 124 124 136 136 136 137 137 137 132 132 132 131 131 131 128 128 128 124 124 124 131 131 131 141 141 141 137 137 137 126 126 126 121 121 121 118 118 118 119 119 119 129 129 129 134 134 134 127 127 127 121 121 121 120 120 120 127 127 127 133 133 133 132 132 132 136 136 136 142 142 142 135 135 135 127 127 127 130 130 130 128 128 128 124 124 124 124 124 124 118 118 118 118 118 118 126 126 126 132 132 132 134 134 134 128 128 128 119 119 119 123 123 123 132 132 132 133 133 133 133 133 133 131 131 131 132 132 132 133 133 133 128 128 128 127 127 127 132 132 132 135 135 135 136 136 136 132 132 132 124 124 124 124 124 124 130 130 130 134 134 134 131 131 131 122 122 122 118 118 118 127 127 127 132 132 132 123 123 123 120 120 120 123 123 123 130 130 130 136 136 136 125 125 125 114 114 114 117 117 117 124 124 124 126 126 126 119 119 119 112 112 112 116 116 116 131 131 131 141 141 141 138 138 138 132 132 132 129 129 129 128 128 128 125 125 125 123 123 123 125 125 125 133 133 133 139 139 139 131 131 131 124 124 124 128 128 128 130 130 130 131 131 131 136 136 136 136 136 136 125 125 125 118 118 118 132 132 132 139 139 139 131 131 131 126 126 126 119 119 119 118 118 118 124 124 124 129 129 129 136 136 136 136 136 136 134 134 134 136 136 136 130 130 130 122 122 122 122 122 122 125 125 125 126 126 126 131 131 131 137 137 137 135 135 135 134 134 134 130 130 130 124 124 124 124 124 124 0 0 0 
0 0 0 129 129 129 125 125 125 125 125 125 119 119 119 117 117 117 119 119 119 116 116 116 114 114 114 114 114 114 119 119 119 128 128 128 134 134 134 137 137 137 141 141 141 139 139 139 128 128 128 123 123 123 123 123 123 123 123 123 123 123 123 126 126 126 130 130 130 128 128 128 125 125 125 127 127 127 131 131 131 132 132 132 132 132 132 128 128 128 121 121 121 122 122 122 123 123 123 123 123 123 128 128 128 127 127 127 122 122 122 120 120 120 124 124 124 124 124 124 119 119 119 121 121 121 125 125 125 126 126 126 131 131 131 135 135 135 134 134 134 133 133 133 132 132 132 131 131 131 125 125 125 124 124 124 126 126 126 121 121 121 120 120 120 127 127 127 133 133 133 136 136 136 136 136 136 131 131 131 127 127 127 127 127 127 130 130 130 138 138 138 135 135 135 121 121 121 116 116 116 119 119 119 126 126 126 137 137 137 139 139 139 138 138 138 139 139 139 137 137 137 129 129 129 124 124 124 130 130 130 137 137 137 139 139 139 132 132 132 123 123 123 119 119 119 118 118 118 122 122 122 128 128 128 130 130 130 134 134 134 134 134 134 125 125 125 124 124 124 135 135 135 139 139 139 136 136 136 127 127 127 125 125 125 121 121 121 122 122 122 137 137 137 140 140 140 129 129 129 128 128 128 129 129 129 128 128 128 132 132 132 135 135 135 138 138 138 142 142 142 131 131 131 122 122 122 126 126 126 124 124 124 117 117 117 118 118 118 119 119 119 120 120 120 123 123 123 126 126 126 131 131 131 128 128 128 125 125 125 132 132 132 135 135 135 133 133 133 133 133 133 132 132 132 131 131 131 132 132 132 127 127 127 123 123 123 122 122 122 121 121 121 124 124 124 128 128 128 125 125 125 126 126 126 133 133 133 137 137 137 133 133 133 126 126 126 128 128 128 137 137 137 134 134 134 127 127 127 124 124 124 122 122 122 124 124 124 129 129 129 122 122 122 112 112 112 117 117 117 131 131 131 137 137 137 130 130 130 123 123 123 121 121 121 128 128 128 139 139 139 137 137 137 131 131 131 127 127 127 125 125 125 129 129 129 128 128 128 126 126 126 131 131 131 134 134 134 131 131 131 130 130 130 133 133 133 130 130 130 124 124 124 128 128 128 134 134 134 131 131 131 125 125 125 129 129 129 136 136 136 134 134 134 129 129 129 118 118 118 113 113 113 114 114 114 121 121 121 136 136 136 140 140 140 137 137 137 136 136 136 132 132 132 129 129 129 125 125 125 121 121 121 123 123 123 135 135 135 145 145 145 141 141 141 135 135 135 133 133 133 126 126 126 123 123 123 0 0 0 
0 0 0 119 119 119 124 124 124 128 128 128 120 120 120 116 116 116 123 123 123 129 129 129 131 131 131 132 132 132 131 131 131 133 133 133 138 138 138 141 141 141 142 142 142 140 140 140 132 132 132 128 128 128 126 126 126 122 122 122 122 122 122 128 128 128 130 130 130 127 127 127 126 126 126 128 128 128 131 131 131 132 132 132 130 130 130 130 130 130 129 129 129 128 128 128 127 127 127 123 123 123 126 126 126 128 128 128 124 124 124 119 119 119 119 119 119 119 119 119 116 116 116 120 120 120 122 122 122 120 120 120 126 126 126 132 132 132 137 137 137 139 139 139 137 137 137 132 132 132 127 127 127 125 125 125 121 121 121 118 118 118 120 120 120 124 124 124 130 130 130 136 136 136 133 133 133 122 122 122 117 117 117 125 125 125 136 136 136 144 144 144 140 140 140 127 127 127 122 122 122 124 124 124 130 130 130 137 137 137 140 140 140 138 138 138 134 134 134 128 128 128 124 124 124 126 126 126 129 129 129 130 130 130 131 131 131 132 132 132 131 131 131 127 127 127 119 119 119 118 118 118 126 126 126 128 128 128 127 127 127 129 129 129 128 128 128 134 134 134 136 136 136 129 129 129 127 127 127 126 126 126 123 123 123 121 121 121 122 122 122 134 134 134 134 134 134 121 121 121 122 122 122 125 125 125 121 121 121 125 125 125 133 133 133 133 133 133 133 133 133 128 128 128 120 120 120 118 118 118 118 118 118 120 120 120 121 121 121 121 121 121 123 123 123 124 124 124 126 126 126 127 127 127 123 123 123 124 124 124 134 134 134 136 136 136 127 127 127 123 123 123 127 127 127 127 127 127 121 121 121 115 115 115 115 115 115 117 117 117 116 116 116 122 122 122 127 127 127 125 125 125 128 128 128 133 133 133 131 131 131 126 126 126 123 123 123 129 129 129 136 136 136 133 133 133 126 126 126 123 123 123 124 124 124 123 123 123 125 125 125 127 127 127 123 123 123 124 124 124 130 130 130 133 133 133 129 129 129 123 123 123 119 119 119 121 121 121 131 131 131 132 132 132 132 132 132 134 134 134 130 130 130 125 125 125 125 125 125 129 129 129 131 131 131 130 130 130 136 136 136 139 139 139 133 133 133 120 120 120 115 115 115 120 120 120 127 127 127 133 133 133 135 135 135 135 135 135 132 132 132 129 129 129 127 127 127 124 124 124 122 122 122 119 119 119 124 124 124 132 132 132 131 131 131 127 127 127 126 126 126 127 127 127 128 128 128 123 123 123 120 120 120 128 128 128 137 137 137 142 142 142 138 138 138 134 134 134 137 137 137 132 132 132 123 123 123 0 0 0 
0 0 0 122 122 122 121 121 121 120 120 120 121 121 121 123 123 123 126 126 126 130 130 130 136 136 136 141 141 141 139 139 139 138 138 138 138 138 138 132 132 132 136 136 136 138 138 138 128 128 128 124 124 124 127 127 127 125 125 125 124 124 124 128 128 128 127 127 127 123 123 123 127 127 127 130 130 130 129 129 129 130 130 130 126 126 126 125 125 125 127 127 127 128 128 128 125 125 125 119 119 119 122 122 122 126 126 126 122 122 122 117 117 117 118 118 118 123 123 123 123 123 123 126 126 126 123 123 123 115 115 115 120 120 120 128 128 128 133 133 133 140 140 140 140 140 140 129 129 129 120 120 120 118 118 118 119 119 119 119 119 119 121 121 121 126 126 126 133 133 133 135 135 135 128 128 128 118 118 118 115 115 115 122 122 122 127 127 127 132 132 132 136 136 136 134 134 134 131 131 131 131 131 131 128 128 128 130 130 130 135 135 135 132 132 132 125 125 125 120 120 120 120 120 120 122 122 122 117 117 117 115 115 115 124 124 124 134 134 134 136 136 136 132 132 132 125 125 125 124 124 124 129 129 129 123 123 123 120 120 120 127 127 127 131 131 131 128 128 128 122 122 122 119 119 119 123 123 123 122 122 122 120 120 120 121 121 121 122 122 122 129 129 129 130 130 130 119 119 119 113 113 113 115 115 115 120 120 120 127 127 127 135 135 135 132 132 132 126 126 126 133 133 133 135 135 135 127 127 127 124 124 124 129 129 129 133 133 133 130 130 130 130 130 130 134 134 134 134 134 134 131 131 131 127 127 127 127 127 127 132 132 132 133 133 133 127 127 127 121 121 121 122 122 122 124 124 124 119 119 119 113 113 113 118 118 118 125 125 125 123 123 123 124 124 124 125 125 125 124 124 124 128 128 128 133 133 133 129 129 129 120 120 120 120 120 120 130 130 130 135 135 135 129 129 129 122 122 122 122 122 122 125 125 125 122 122 122 122 122 122 129 129 129 134 134 134 137 137 137 132 132 132 123 123 123 125 125 125 128 128 128 128 128 128 127 127 127 126 126 126 128 128 128 131 131 131 137 137 137 135 135 135 125 125 125 126 126 126 137 137 137 137 137 137 135 135 135 139 139 139 136 136 136 124 124 124 113 113 113 109 109 109 110 110 110 117 117 117 127 127 127 132 132 132 134 134 134 137 137 137 134 134 134 128 128 128 128 128 128 132 132 132 133 133 133 128 128 128 123 123 123 120 120 120 119 119 119 123 123 123 127 127 127 124 124 124 121 121 121 122 122 122 128 128 128 130 130 130 133 133 133 138 138 138 136 136 136 137 137 137 131 131 131 119 119 119 0 0 0 
0 0 0 124 124 124 116 116 116 114 114 114 124 124 124 133 133 133 133 133 133 135 135 135 137 137 137 134 134 134 128 128 128 127 127 127 125 125 125 122 122 122 131 131 131 138 138 138 126 126 126 117 117 117 123 123 123 126 126 126 125 125 125 126 126 126 124 124 124 121 121 121 121 121 121 124 124 124 127 127 127 126 126 126 123 123 123 122 122 122 125 125 125 129 129 129 127 127 127 123 123 123 125 125 125 121 121 121 117 117 117 123 123 123 128 128 128 131 131 131 126 126 126 121 121 121 116 116 116 114 114 114 124 124 124 127 127 127 125 125 125 133 133 133 140 140 140 133 133 133 121 121 121 116 116 116 117 117 117 119 119 119 121 121 121 129 129 129 133 133 133 128 128 128 124 124 124 122 122 122 120 120 120 119 119 119 114 114 114 117 117 117 135 135 135 139 139 139 130 130 130 129 129 129 127 127 127 127 127 127 132 132 132 126 126 126 118 118 118 117 117 117 121 121 121 123 123 123 114 114 114 111 111 111 122 122 122 131 131 131 136 136 136 139 139 139 135 135 135 126 126 126 123 123 123 122 122 122 125 125 125 133 133 133 131 131 131 122 122 122 118 118 118 121 121 121 126 126 126 120 120 120 119 119 119 126 126 126 128 128 128 130 130 130 132 132 132 128 128 128 118 118 118 118 118 118 127 127 127 133 133 133 135 135 135 129 129 129 125 125 125 137 137 137 144 144 144 139 139 139 133 133 133 130 130 130 131 131 131 134 134 134 137 137 137 135 135 135 129 129 129 131 131 131 134 134 134 132 132 132 134 134 134 132 132 132 127 127 127 122 122 122 122 122 122 126 126 126 125 125 125 119 119 119 120 120 120 126 126 126 124 124 124 123 123 123 125 125 125 124 124 124 130 130 130 136 136 136 134 134 134 124 124 124 124 124 124 133 133 133 131 131 131 123 123 123 121 121 121 128 128 128 130 130 130 121 121 121 122 122 122 132 132 132 137 137 137 140 140 140 134 134 134 125 125 125 130 130 130 137 137 137 135 135 135 128 128 128 125 125 125 126 126 126 129 129 129 134 134 134 137 137 137 133 133 133 134 134 134 138 138 138 138 138 138 141 141 141 140 140 140 126 126 126 115 115 115 115 115 115 113 113 113 112 112 112 119 119 119 123 123 123 122 122 122 126 126 126 136 136 136 139 139 139 131 131 131 122 122 122 129 129 129 137 137 137 132 132 132 124 124 124 122 122 122 118 118 118 123 123 123 127 127 127 121 121 121 121 121 121 126 126 126 127 127 127 123 123 123 126 126 126 135 135 135 131 131 131 126 126 126 126 126 126 119 119 119 0 0 0 
0 0 0 121 121 121 114 114 114 110 110 110 117 117 117 128 128 128 136 136 136 138 138 138 133 133 133 125 125 125 118 118 118 116 116 116 116 116 116 123 123 123 137 137 137 142 142 142 130 130 130 122 122 122 126 126 126 128 128 128 127 127 127 125 125 125 124 124 124 123 123 123 122 122 122 125 125 125 127 127 127 124 124 124 120 120 120 119 119 119 122 122 122 131 131 131 137 137 137 133 133 133 126 126 126 115 115 115 119 119 119 135 135 135 141 141 141 137 137 137 125 125 125 116 116 116 115 115 115 118 118 118 128 128 128 129 129 129 121 121 121 131 131 131 142 142 142 136 136 136 128 128 128 124 124 124 121 121 121 118 118 118 116 116 116 123 123 123 132 132 132 131 131 131 131 131 131 129 129 129 124 124 124 123 123 123 119 119 119 119 119 119 133 133 133 137 137 137 126 126 126 125 125 125 126 126 126 126 126 126 132 132 132 124 124 124 111 111 111 112 112 112 119 119 119 125 125 125 122 122 122 118 118 118 118 118 118 123 123 123 132 132 132 138 138 138 135 135 135 121 121 121 118 118 118 128 128 128 136 136 136 138 138 138 129 129 129 126 126 126 129 129 129 130 130 130 133 133 133 124 124 124 119 119 119 128 128 128 130 130 130 126 126 126 131 131 131 133 133 133 125 125 125 124 124 124 130 130 130 132 132 132 133 133 133 127 127 127 127 127 127 136 136 136 137 137 137 137 137 137 136 136 136 126 126 126 121 121 121 124 124 124 128 128 128 123 123 123 118 118 118 127 127 127 134 134 134 131 131 131 130 130 130 129 129 129 123 123 123 121 121 121 127 127 127 134 134 134 138 138 138 131 131 131 122 122 122 122 122 122 125 125 125 127 127 127 127 127 127 129 129 129 134 134 134 138 138 138 136 136 136 129 129 129 128 128 128 127 127 127 120 120 120 117 117 117 123 123 123 129 129 129 130 130 130 121 121 121 122 122 122 132 132 132 132 132 132 129 129 129 129 129 129 132 132 132 135 135 135 133 133 133 121 121 121 116 116 116 125 125 125 132 132 132 131 131 131 132 132 132 132 132 132 129 129 129 132 132 132 136 136 136 134 134 134 135 135 135 131 131 131 121 121 121 119 119 119 122 122 122 118 118 118 120 120 120 127 127 127 122 122 122 115 115 115 119 119 119 124 124 124 129 129 129 128 128 128 118 118 118 120 120 120 134 134 134 137 137 137 128 128 128 122 122 122 121 121 121 121 121 121 120 120 120 118 118 118 125 125 125 136 136 136 138 138 138 131 131 131 127 127 127 129 129 129 124 124 124 120 120 120 127 127 127 125 125 125 0 0 0 
0 0 0 124 124 124 118 118 118 110 110 110 111 111 111 121 121 121 133 133 133 131 131 131 124 124 124 123 123 123 126 126 126 125 125 125 123 123 123 133 133 133 142 142 142 138 138 138 131 131 131 129 129 129 131 131 131 130 130 130 127 127 127 125 125 125 123 123 123 121 121 121 122 122 122 129 129 129 132 132 132 130 130 130 125 125 125 120 120 120 125 125 125 135 135 135 136 136 136 131 131 131 126 126 126 121 121 121 125 125 125 132 132 132 136 136 136 136 136 136 128 128 128 123 123 123 123 123 123 121 121 121 121 121 121 123 123 123 124 124 124 136 136 136 144 144 144 132 132 132 124 124 124 125 125 125 127 127 127 124 124 124 115 115 115 118 118 118 130 130 130 132 132 132 129 129 129 128 128 128 130 130 130 132 132 132 132 132 132 132 132 132 131 131 131 135 135 135 136 136 136 137 137 137 128 128 128 123 123 123 132 132 132 126 126 126 116 116 116 121 121 121 124 124 124 125 125 125 128 128 128 121 121 121 116 116 116 122 122 122 126 126 126 128 128 128 128 128 128 118 118 118 118 118 118 132 132 132 140 140 140 140 140 140 130 130 130 124 124 124 130 130 130 133 133 133 135 135 135 131 131 131 122 122 122 125 125 125 124 124 124 116 116 116 123 123 123 130 130 130 121 121 121 121 121 121 128 128 128 128 128 128 130 130 130 133 133 133 135 135 135 135 135 135 130 130 130 131 131 131 137 137 137 133 133 133 120 120 120 115 115 115 116 116 116 115 115 115 113 113 113 122 122 122 133 133 133 128 128 128 122 122 122 124 124 124 122 122 122 120 120 120 125 125 125 136 136 136 144 144 144 138 138 138 122 122 122 122 122 122 132 132 132 131 131 131 127 127 127 134 134 134 136 136 136 131 131 131 128 128 128 128 128 128 127 127 127 123 123 123 116 116 116 114 114 114 118 118 118 121 121 121 126 126 126 123 123 123 121 121 121 127 127 127 125 125 125 123 123 123 128 128 128 132 132 132 131 131 131 126 126 126 117 117 117 110 110 110 121 121 121 134 134 134 133 133 133 128 128 128 125 125 125 122 122 122 123 123 123 129 129 129 129 129 129 121 121 121 118 118 118 123 123 123 130 130 130 129 129 129 120 120 120 116 116 116 121 121 121 118 118 118 114 114 114 116 116 116 118 118 118 123 123 123 128 128 128 123 123 123 122 122 122 133 133 133 136 136 136 123 123 123 118 118 118 126 126 126 126 126 126 123 123 123 129 129 129 136 136 136 142 142 142 146 146 146 139 139 139 131 131 131 130 130 130 127 127 127 126 126 126 128 128 128 126 126 126 0 0 0 
0 0 0 123 123 123 121 121 121 117 117 117 117 117 117 123 123 123 130 130 130 128 128 128 124 124 124 127 127 127 132 132 132 131 131 131 134 134 134 141 141 141 139 139 139 129 129 129 125 125 125 127 127 127 128 128 128 127 127 127 124 124 124 120 120 120 116 116 116 114 114 114 118 118 118 126 126 126 132 132 132 132 132 132 128 128 128 128 128 128 134 134 134 136 136 136 128 128 128 121 121 121 127 127 127 134 134 134 132 132 132 126 126 126 126 126 126 132 132 132 130 130 130 127 127 127 129 129 129 125 125 125 119 119 119 118 118 118 127 127 127 139 139 139 141 141 141 128 128 128 116 116 116 116 116 116 122 122 122 124 124 124 122 122 122 128 128 128 132 132 132 121 121 121 114 114 114 121 121 121 130 130 130 129 129 129 130 130 130 134 134 134 130 130 130 130 130 130 137 137 137 139 139 139 129 129 129 121 121 121 126 126 126 125 125 125 122 122 122 129 129 129 131 131 131 129 129 129 128 128 128 124 124 124 123 123 123 124 124 124 121 121 121 123 123 123 124 124 124 120 120 120 124 124 124 135 135 135 141 141 141 144 144 144 137 137 137 124 124 124 127 127 127 128 128 128 126 126 126 127 127 127 124 124 124 125 125 125 122 122 122 115 115 115 119 119 119 121 121 121 113 113 113 119 119 119 130 130 130 128 128 128 125 125 125 131 131 131 134 134 134 129 129 129 123 123 123 121 121 121 129 129 129 132 132 132 122 122 122 116 116 116 122 122 122 127 127 127 121 121 121 121 121 121 130 130 130 127 127 127 122 122 122 123 123 123 120 120 120 117 117 117 122 122 122 133 133 133 135 135 135 129 129 129 121 121 121 124 124 124 131 131 131 122 122 122 119 119 119 130 130 130 131 131 131 121 121 121 118 118 118 122 122 122 123 123 123 122 122 122 120 120 120 118 118 118 116 116 116 119 119 119 126 126 126 123 123 123 119 119 119 124 124 124 125 125 125 130 130 130 131 131 131 124 124 124 121 121 121 124 124 124 126 126 126 121 121 121 119 119 119 127 127 127 128 128 128 124 124 124 131 131 131 131 131 131 120 120 120 120 120 120 127 127 127 120 120 120 118 118 118 126 126 126 131 131 131 133 133 133 126 126 126 113 113 113 113 113 113 119 119 119 124 124 124 127 127 127 123 123 123 120 120 120 127 127 127 128 128 128 123 123 123 128 128 128 130 130 130 122 122 122 122 122 122 129 129 129 127 127 127 125 125 125 133 133 133 135 135 135 134 134 134 137 137 137 139 139 139 138 138 138 135 135 135 133 133 133 132 132 132 125 125 125 120 120 120 0 0 0 
0 0 0 116 116 116 118 118 118 118 118 118 123 123 123 130 130 130 130 130 130 127 127 127 128 128 128 130 130 130 128 128 128 124 124 124 132 132 132 139 139 139 134 134 134 127 127 127 122 122 122 123 123 123 125 125 125 124 124 124 124 124 124 119 119 119 115 115 115 114 114 114 116 116 116 123 123 123 127 127 127 125 125 125 126 126 126 132 132 132 133 133 133 131 131 131 125 125 125 121 121 121 130 130 130 136 136 136 136 136 136 133 133 133 128 128 128 129 129 129 129 129 129 130 130 130 133 133 133 130 130 130 123 123 123 122 122 122 125 125 125 133 133 133 133 133 133 120 120 120 108 108 108 112 112 112 120 120 120 124 124 124 129 129 129 140 140 140 140 140 140 122 122 122 111 111 111 119 119 119 132 132 132 129 129 129 123 123 123 126 126 126 123 123 123 119 119 119 124 124 124 128 128 128 125 125 125 122 122 122 123 123 123 124 124 124 122 122 122 122 122 122 130 130 130 133 133 133 129 129 129 133 133 133 140 140 140 135 135 135 126 126 126 121 121 121 120 120 120 127 127 127 137 137 137 138 138 138 136 136 136 142 142 142 141 141 141 132 132 132 130 130 130 127 127 127 120 120 120 117 117 117 119 119 119 127 127 127 128 128 128 124 124 124 124 124 124 123 123 123 119 119 119 124 124 124 131 131 131 129 129 129 123 123 123 123 123 123 127 127 127 125 125 125 122 122 122 121 121 121 121 121 121 124 124 124 123 123 123 123 123 123 133 133 133 141 141 141 134 134 134 127 127 127 129 129 129 129 129 129 129 129 129 125 125 125 118 118 118 117 117 117 123 123 123 125 125 125 122 122 122 120 120 120 126 126 126 131 131 131 128 128 128 118 118 118 117 117 117 124 124 124 124 124 124 117 117 117 116 116 116 120 120 120 123 123 123 122 122 122 122 122 122 125 125 125 128 128 128 129 129 129 132 132 132 126 126 126 121 121 121 125 125 125 131 131 131 139 139 139 132 132 132 118 118 118 122 122 122 130 130 130 131 131 131 129 129 129 125 125 125 122 122 122 119 119 119 121 121 121 130 130 130 131 131 131 124 124 124 124 124 124 132 132 132 128 128 128 122 122 122 121 121 121 122 122 122 130 130 130 129 129 129 118 118 118 116 116 116 126 126 126 132 132 132 134 134 134 129 129 129 123 123 123 128 128 128 129 129 129 119 119 119 121 121 121 127 127 127 125 125 125 128 128 128 131 131 131 123 123 123 118 118 118 126 126 126 131 131 131 128 128 128 129 129 129 135 135 135 136 136 136 134 134 134 137 137 137 134 134 134 126 126 126 127 127 127 0 0 0 
0 0 0 122 122 122 117 117 117 114 114 114 125 125 125 137 137 137 136 136 136 127 127 127 125 125 125 133 133 133 133 133 133 125 125 125 127 127 127 133 133 133 134 134 134 132 132 132 130 130 130 127 127 127 124 124 124 126 126 126 127 127 127 128 128 128 128 128 128 120 120 120 114 114 114 120 120 120 125 125 125 125 125 125 131 131 131 133 133 133 127 127 127 128 128 128 128 128 128 129 129 129 133 133 133 129 129 129 128 128 128 131 131 131 129 129 129 126 126 126 127 127 127 131 131 131 131 131 131 123 123 123 122 122 122 127 127 127 125 125 125 125 125 125 124 124 124 111 111 111 106 106 106 113 113 113 120 120 120 126 126 126 132 132 132 138 138 138 142 142 142 135 135 135 121 121 121 122 122 122 133 133 133 133 133 133 127 127 127 123 123 123 117 117 117 115 115 115 122 122 122 129 129 129 131 131 131 127 127 127 129 129 129 131 131 131 124 124 124 118 118 118 127 127 127 131 131 131 127 127 127 138 138 138 144 144 144 139 139 139 129 129 129 119 119 119 117 117 117 127 127 127 137 137 137 134 134 134 127 127 127 134 134 134 142 142 142 137 137 137 130 130 130 126 126 126 121 121 121 116 116 116 115 115 115 126 126 126 134 134 134 132 132 132 132 132 132 131 131 131 125 125 125 122 122 122 124 124 124 126 126 126 125 125 125 125 125 125 131 131 131 133 133 133 135 135 135 136 136 136 132 132 132 134 134 134 133 133 133 127 127 127 126 126 126 132 132 132 134 134 134 130 130 130 127 127 127 126 126 126 129 129 129 131 131 131 125 125 125 123 123 123 119 119 119 116 116 116 118 118 118 120 120 120 126 126 126 132 132 132 132 132 132 128 128 128 123 123 123 121 121 121 123 123 123 121 121 121 119 119 119 126 126 126 131 131 131 128 128 128 125 125 125 129 129 129 135 135 135 134 134 134 137 137 137 131 131 131 121 121 121 125 125 125 135 135 135 141 141 141 136 136 136 126 126 126 130 130 130 137 137 137 133 133 133 130 130 130 131 131 131 125 125 125 119 119 119 118 118 118 118 118 118 120 120 120 127 127 127 133 133 133 133 133 133 128 128 128 124 124 124 122 122 122 121 121 121 129 129 129 134 134 134 130 130 130 127 127 127 131 131 131 130 130 130 130 130 130 131 131 131 129 129 129 132 132 132 132 132 132 124 124 124 125 125 125 126 126 126 120 120 120 120 120 120 125 125 125 119 119 119 117 117 117 127 127 127 131 131 131 128 128 128 126 126 126 124 124 124 128 128 128 136 136 136 142 142 142 137 137 137 131 131 131 137 137 137 0 0 0 
0 0 0 133 133 133 122 122 122 117 117 117 122 122 122 130 130 130 131 131 131 126 126 126 124 124 124 132 132 132 139 139 139 133 133 133 127 127 127 134 134 134 141 141 141 136 136 136 132 132 132 129 129 129 130 130 130 133 133 133 129 129 129 134 134 134 139 139 139 130 130 130 124 124 124 130 130 130 134 134 134 130 130 130 134 134 134 132 132 132 122 122 122 123 123 123 127 127 127 129 129 129 129 129 129 122 122 122 120 120 120 122 122 122 125 125 125 129 129 129 127 127 127 129 129 129 131 131 131 124 124 124 122 122 122 129 129 129 129 129 129 124 124 124 121 121 121 114 114 114 111 111 111 115 115 115 117 117 117 119 119 119 127 127 127 129 129 129 130 130 130 130 130 130 125 125 125 125 125 125 132 132 132 132 132 132 129 129 129 128 128 128 122 122 122 120 120 120 128 128 128 139 139 139 138 138 138 131 131 131 133 133 133 136 136 136 126 126 126 118 118 118 125 125 125 128 128 128 125 125 125 131 131 131 133 133 133 126 126 126 125 125 125 124 124 124 118 118 118 123 123 123 131 131 131 126 126 126 118 118 118 123 123 123 137 137 137 139 139 139 130 130 130 123 123 123 121 121 121 121 121 121 125 125 125 135 135 135 141 141 141 137 137 137 136 136 136 134 134 134 126 126 126 119 119 119 120 120 120 124 124 124 129 129 129 133 133 133 134 134 134 135 135 135 141 141 141 143 143 143 141 141 141 139 139 139 133 133 133 125 125 125 120 120 120 122 122 122 128 128 128 126 126 126 122 122 122 123 123 123 130 130 130 136 136 136 135 135 135 132 132 132 119 119 119 113 113 113 121 121 121 122 122 122 124 124 124 130 130 130 137 137 137 135 135 135 123 123 123 119 119 119 128 128 128 133 133 133 128 128 128 131 131 131 133 133 133 132 132 132 129 129 129 129 129 129 129 129 129 126 126 126 134 134 134 137 137 137 125 125 125 121 121 121 126 126 126 132 132 132 140 140 140 137 137 137 130 130 130 137 137 137 138 138 138 134 134 134 135 135 135 129 129 129 122 122 122 121 121 121 117 117 117 113 113 113 121 121 121 131 131 131 127 127 127 122 122 122 130 130 130 134 134 134 127 127 127 129 129 129 138 138 138 140 140 140 134 134 134 133 133 133 132 132 132 131 131 131 133 133 133 134 134 134 137 137 137 131 131 131 128 128 128 131 131 131 122 122 122 113 113 113 118 118 118 125 125 125 124 124 124 121 121 121 126 126 126 126 126 126 123 123 123 124 124 124 124 124 124 128 128 128 136 136 136 140 140 140 139 139 139 140 140 140 139 139 139 0 0 0 
0 0 0 135 135 135 129 129 129 131 131 131 127 127 127 119 119 119 119 119 119 121 121 121 119 119 119 125 125 125 136 136 136 135 135 135 129 129 129 134 134 134 140 140 140 135 135 135 128 128 128 125 125 125 130 130 130 131 131 131 125 125 125 130 130 130 139 139 139 137 137 137 135 135 135 137 137 137 135 135 135 128 128 128 127 127 127 124 124 124 117 117 117 123 123 123 125 125 125 119 119 119 118 118 118 117 117 117 119 119 119 125 125 125 129 129 129 129 129 129 127 127 127 127 127 127 131 131 131 130 130 130 127 127 127 132 132 132 134 134 134 128 128 128 127 127 127 126 126 126 122 122 122 121 121 121 121 121 121 119 119 119 124 124 124 129 129 129 125 125 125 124 124 124 127 127 127 129 129 129 133 133 133 129 129 129 125 125 125 128 128 128 125 125 125 124 124 124 134 134 134 141 141 141 135 135 135 129 129 129 133 133 133 133 133 133 123 123 123 117 117 117 124 124 124 127 127 127 123 123 123 124 124 124 124 124 124 123 123 123 126 126 126 127 127 127 121 121 121 128 128 128 137 137 137 129 129 129 119 119 119 121 121 121 131 131 131 134 134 134 127 127 127 122 122 122 125 125 125 133 133 133 138 138 138 138 138 138 138 138 138 138 138 138 138 138 138 135 135 135 128 128 128 120 120 120 117 117 117 123 123 123 128 128 128 129 129 129 127 127 127 128 128 128 134 134 134 136 136 136 135 135 135 130 130 130 124 124 124 129 129 129 130 130 130 127 127 127 128 128 128 122 122 122 120 120 120 127 127 127 133 133 133 132 132 132 127 127 127 128 128 128 122 122 122 119 119 119 125 125 125 127 127 127 130 130 130 135 135 135 138 138 138 135 135 135 124 124 124 121 121 121 132 132 132 138 138 138 135 135 135 132 132 132 128 128 128 124 124 124 122 122 122 125 125 125 122 122 122 119 119 119 127 127 127 137 137 137 134 134 134 124 124 124 118 118 118 121 121 121 133 133 133 132 132 132 126 126 126 133 133 133 137 137 137 137 137 137 137 137 137 126 126 126 117 117 117 117 117 117 116 116 116 114 114 114 122 122 122 128 128 128 119 119 119 115 115 115 128 128 128 136 136 136 128 128 128 125 125 125 133 133 133 134 134 134 130 130 130 128 128 128 127 127 127 127 127 127 131 131 131 138 138 138 139 139 139 129 129 129 124 124 124 126 126 126 119 119 119 116 116 116 125 125 125 133 133 133 133 133 133 127 127 127 124 124 124 123 123 123 120 120 120 128 128 128 133 133 133 128 128 128 127 127 127 129 129 129 134 134 134 143 143 143 138 138 138 0 0 0 
0 0 0 132 132 132 135 135 135 141 141 141 134 134 134 120 120 120 118 118 118 118 118 118 116 116 116 123 123 123 132 132 132 133 133 133 130 130 130 128 128 128 129 129 129 131 131 131 130 130 130 123 123 123 119 119 119 120 120 120 120 120 120 125 125 125 129 129 129 129 129 129 133 133 133 129 129 129 120 120 120 117 117 117 118 118 118 119 119 119 122 122 122 129 129 129 128 128 128 119 119 119 117 117 117 116 116 116 120 120 120 134 134 134 137 137 137 128 128 128 123 123 123 123 123 123 127 127 127 130 130 130 132 132 132 136 136 136 137 137 137 131 131 131 130 130 130 134 134 134 132 132 132 127 127 127 128 128 128 131 131 131 133 133 133 138 138 138 136 136 136 133 133 133 133 133 133 132 132 132 130 130 130 125 125 125 123 123 123 124 124 124 125 125 125 129 129 129 135 135 135 137 137 137 133 133 133 135 135 135 139 139 139 137 137 137 129 129 129 124 124 124 128 128 128 126 126 126 122 122 122 123 123 123 123 123 123 125 125 125 126 126 126 121 121 121 121 121 121 131 131 131 139 139 139 138 138 138 131 131 131 130 130 130 133 133 133 130 130 130 120 120 120 117 117 117 128 128 128 139 139 139 132 132 132 122 122 122 126 126 126 134 134 134 136 136 136 132 132 132 127 127 127 121 121 121 118 118 118 124 124 124 125 125 125 123 123 123 124 124 124 124 124 124 126 126 126 131 131 131 133 133 133 125 125 125 121 121 121 131 131 131 133 133 133 126 126 126 127 127 127 125 125 125 125 125 125 129 129 129 125 125 125 119 119 119 116 116 116 115 115 115 119 119 119 126 126 126 126 126 126 127 127 127 129 129 129 130 130 130 134 134 134 136 136 136 133 133 133 130 130 130 131 131 131 131 131 131 133 133 133 135 135 135 132 132 132 121 121 121 117 117 117 124 124 124 123 123 123 119 119 119 120 120 120 129 129 129 133 133 133 128 128 128 124 124 124 125 125 125 127 127 127 123 123 123 120 120 120 127 127 127 130 130 130 132 132 132 134 134 134 125 125 125 116 116 116 113 113 113 114 114 114 121 121 121 131 131 131 132 132 132 120 120 120 116 116 116 122 122 122 123 123 123 116 116 116 119 119 119 129 129 129 129 129 129 127 127 127 125 125 125 121 121 121 117 117 117 125 125 125 135 135 135 134 134 134 129 129 129 125 125 125 123 123 123 126 126 126 127 127 127 127 127 127 129 129 129 128 128 128 127 127 127 128 128 128 126 126 126 124 124 124 130 130 130 131 131 131 129 129 129 132 132 132 132 132 132 132 132 132 137 137 137 137 137 137 0 0 0 
0 0 0 131 131 131 132 132 132 134 134 134 130 130 130 127 127 127 124 124 124 123 123 123 127 127 127 131 131 131 133 133 133 134 134 134 131 131 131 128 128 128 126 126 126 123 123 123 127 127 127 127 127 127 123 123 123 124 124 124 126 126 126 125 125 125 119 119 119 122 122 122 130 130 130 124 124 124 113 113 113 113 113 113 119 119 119 126 126 126 135 135 135 137 137 137 130 130 130 122 122 122 117 117 117 118 118 118 125 125 125 137 137 137 141 141 141 133 133 133 123 123 123 121 121 121 125 125 125 127 127 127 126 126 126 127 127 127 131 131 131 130 130 130 128 128 128 127 127 127 127 127 127 127 127 127 133 133 133 138 138 138 142 142 142 144 144 144 139 139 139 135 135 135 135 135 135 132 132 132 127 127 127 124 124 124 123 123 123 123 123 123 127 127 127 129 129 129 130 130 130 133 133 133 136 136 136 141 141 141 143 143 143 139 139 139 131 131 131 126 126 126 127 127 127 126 126 126 123 123 123 124 124 124 129 129 129 131 131 131 124 124 124 114 114 114 116 116 116 126 126 126 133 133 133 139 139 139 136 136 136 130 130 130 132 132 132 132 132 132 124 124 124 117 117 117 126 126 126 135 135 135 125 125 125 114 114 114 122 122 122 136 136 136 140 140 140 131 131 131 127 127 127 126 126 126 120 120 120 123 123 123 129 129 129 132 132 132 131 131 131 121 121 121 121 121 121 133 133 133 137 137 137 126 126 126 124 124 124 130 130 130 122 122 122 119 119 119 130 130 130 135 135 135 134 134 134 132 132 132 122 122 122 116 116 116 119 119 119 113 113 113 113 113 113 121 121 121 120 120 120 120 120 120 123 123 123 126 126 126 132 132 132 135 135 135 132 132 132 132 132 132 132 132 132 130 130 130 133 133 133 135 135 135 136 136 136 128 128 128 119 119 119 124 124 124 128 128 128 124 124 124 123 123 123 127 127 127 123 123 123 119 119 119 128 128 128 135 135 135 129 129 129 119 119 119 116 116 116 124 124 124 129 129 129 126 126 126 127 127 127 126 126 126 123 123 123 120 120 120 121 121 121 125 125 125 129 129 129 135 135 135 131 131 131 123 123 123 120 120 120 119 119 119 116 116 116 121 121 121 132 132 132 131 131 131 126 126 126 126 126 126 124 124 124 119 119 119 126 126 126 136 136 136 131 131 131 131 131 131 132 132 132 130 130 130 135 135 135 133 133 133 127 127 127 125 125 125 121 121 121 124 124 124 129 129 129 126 126 126 125 125 125 127 127 127 129 129 129 135 135 135 143 143 143 140 140 140 130 130 130 127 127 127 136 136 136 0 0 0 
0 0 0 137 137 137 131 131 131 125 125 125 124 124 124 128 128 128 125 125 125 123 123 123 129 129 129 133 133 133 135 135 135 135 135 135 136 136 136 135 135 135 126 126 126 118 118 118 122 122 122 128 128 128 131 131 131 135 135 135 132 132 132 122 122 122 120 120 120 126 126 126 126 126 126 120 120 120 116 116 116 118 118 118 125 125 125 133 133 133 141 141 141 139 139 139 128 128 128 118 118 118 114 114 114 122 122 122 135 135 135 139 139 139 138 138 138 133 133 133 127 127 127 123 123 123 122 122 122 121 121 121 116 116 116 114 114 114 121 121 121 126 126 126 123 123 123 117 117 117 119 119 119 125 125 125 132 132 132 139 139 139 143 143 143 143 143 143 136 136 136 132 132 132 130 130 130 126 126 126 131 131 131 132 132 132 126 126 126 125 125 125 123 123 123 126 126 126 128 128 128 131 131 131 134 134 134 135 135 135 137 137 137 130 130 130 119 119 119 118 118 118 121 121 121 123 123 123 120 120 120 118 118 118 130 130 130 135 135 135 125 125 125 115 115 115 118 118 118 129 129 129 133 133 133 134 134 134 133 133 133 127 127 127 124 124 124 129 129 129 130 130 130 129 129 129 130 130 130 133 133 133 131 131 131 122 122 122 124 124 124 136 136 136 138 138 138 131 131 131 129 129 129 126 126 126 120 120 120 121 121 121 132 132 132 141 141 141 133 133 133 118 118 118 121 121 121 136 136 136 137 137 137 126 126 126 127 127 127 132 132 132 124 124 124 126 126 126 136 136 136 139 139 139 142 142 142 141 141 141 133 133 133 129 129 129 128 128 128 118 118 118 113 113 113 117 117 117 113 113 113 110 110 110 118 118 118 124 124 124 127 127 127 131 131 131 131 131 131 131 131 131 129 129 129 128 128 128 136 136 136 135 135 135 131 131 131 131 131 131 126 126 126 127 127 127 130 130 130 126 126 126 125 125 125 124 124 124 118 118 118 119 119 119 129 129 129 133 133 133 126 126 126 117 117 117 117 117 117 127 127 127 130 130 130 123 123 123 121 121 121 128 128 128 129 129 129 123 123 123 125 125 125 125 125 125 124 124 124 137 137 137 137 137 137 123 123 123 124 124 124 132 132 132 131 131 131 127 127 127 132 132 132 134 134 134 128 128 128 128 128 128 130 130 130 126 126 126 128 128 128 132 132 132 129 129 129 131 131 131 135 135 135 140 140 140 139 139 139 129 129 129 125 125 125 127 127 127 128 128 128 131 131 131 128 128 128 124 124 124 124 124 124 127 127 127 126 126 126 129 129 129 137 137 137 132 132 132 121 121 121 122 122 122 133 133 133 0 0 0 
0 0 0 142 142 142 140 140 140 132 132 132 124 124 124 128 128 128 127 127 127 122 122 122 122 122 122 125 125 125 129 129 129 126 126 126 131 131 131 135 135 135 124 124 124 118 118 118 120 120 120 122 122 122 126 126 126 137 137 137 134 134 134 123 123 123 125 125 125 126 126 126 121 121 121 120 120 120 120 120 120 123 123 123 131 131 131 138 138 138 137 137 137 132 132 132 127 127 127 119 119 119 114 114 114 120 120 120 132 132 132 133 133 133 127 127 127 124 124 124 124 124 124 121 121 121 119 119 119 117 117 117 114 114 114 117 117 117 120 120 120 119 119 119 116 116 116 119 119 119 128 128 128 131 131 131 130 130 130 139 139 139 142 142 142 136 136 136 132 132 132 130 130 130 124 124 124 122 122 122 134 134 134 137 137 137 131 131 131 123 123 123 119 119 119 130 130 130 135 135 135 136 136 136 136 136 136 130 130 130 129 129 129 126 126 126 121 121 121 118 118 118 117 117 117 120 120 120 120 120 120 113 113 113 119 119 119 128 128 128 121 121 121 118 118 118 126 126 126 132 132 132 133 133 133 128 128 128 129 129 129 131 131 131 125 125 125 119 119 119 123 123 123 132 132 132 133 133 133 134 134 134 136 136 136 129 129 129 129 129 129 132 132 132 127 127 127 127 127 127 128 128 128 125 125 125 125 125 125 126 126 126 132 132 132 138 138 138 131 131 131 118 118 118 121 121 121 136 136 136 135 135 135 126 126 126 126 126 126 129 129 129 136 136 136 141 141 141 135 135 135 131 131 131 138 138 138 141 141 141 138 138 138 137 137 137 127 127 127 115 115 115 119 119 119 125 125 125 117 117 117 108 108 108 115 115 115 122 122 122 124 124 124 130 130 130 135 135 135 134 134 134 126 126 126 125 125 125 138 138 138 134 134 134 124 124 124 128 128 128 132 132 132 132 132 132 128 128 128 120 120 120 120 120 120 121 121 121 122 122 122 128 128 128 129 129 129 126 126 126 124 124 124 118 118 118 121 121 121 128 128 128 125 125 125 120 120 120 123 123 123 131 131 131 129 129 129 118 118 118 121 121 121 129 129 129 130 130 130 138 138 138 137 137 137 125 125 125 129 129 129 136 136 136 133 133 133 126 126 126 130 130 130 134 134 134 132 132 132 135 135 135 134 134 134 124 124 124 117 117 117 118 118 118 125 125 125 131 131 131 132 132 132 141 141 141 141 141 141 127 127 127 120 120 120 125 125 125 136 136 136 138 138 138 128 128 128 122 122 122 122 122 122 120 120 120 117 117 117 121 121 121 126 126 126 122 122 122 119 119 119 125 125 125 128 128 128 0 0 0 
0 0 0 138 138 138 140 140 140 136 136 136 127 127 127 132 132 132 133 133 133 128 128 128 127 127 127 124 124 124 125 125 125 121 121 121 124 124 124 129 129 129 121 121 121 116 116 116 119 119 119 122 122 122 128 128 128 140 140 140 136 136 136 123 123 123 121 121 121 118 118 118 121 121 121 125 125 125 122 122 122 125 125 125 134 134 134 139 139 139 131 131 131 124 124 124 124 124 124 121 121 121 115 115 115 117 117 117 123 123 123 122 122 122 122 122 122 124 124 124 119 119 119 117 117 117 118 118 118 116 116 116 118 118 118 127 127 127 125 125 125 115 115 115 115 115 115 126 126 126 135 135 135 131 131 131 126 126 126 133 133 133 134 134 134 128 128 128 127 127 127 129 129 129 129 129 129 131 131 131 138 138 138 138 138 138 128 128 128 115 115 115 117 117 117 132 132 132 132 132 132 133 133 133 138 138 138 130 130 130 122 122 122 123 123 123 128 128 128 124 124 124 116 116 116 116 116 116 121 121 121 118 118 118 119 119 119 124 124 124 117 117 117 120 120 120 128 128 128 131 131 131 137 137 137 131 131 131 125 125 125 130 130 130 130 130 130 120 120 120 115 115 115 126 126 126 134 134 134 135 135 135 134 134 134 130 130 130 133 133 133 135 135 135 124 124 124 121 121 121 123 123 123 122 122 122 128 128 128 131 131 131 131 131 131 133 133 133 132 132 132 126 126 126 124 124 124 128 128 128 127 127 127 130 130 130 132 132 132 128 128 128 134 134 134 142 142 142 133 133 133 121 121 121 123 123 123 125 125 125 125 125 125 126 126 126 121 121 121 117 117 117 127 127 127 135 135 135 127 127 127 121 121 121 124 124 124 125 125 125 126 126 126 126 126 126 128 128 128 131 131 131 131 131 131 133 133 133 138 138 138 129 129 129 117 117 117 120 120 120 126 126 126 132 132 132 130 130 130 120 120 120 122 122 122 129 129 129 128 128 128 124 124 124 123 123 123 124 124 124 124 124 124 121 121 121 130 130 130 132 132 132 119 119 119 119 119 119 129 129 129 131 131 131 124 124 124 118 118 118 125 125 125 138 138 138 141 141 141 138 138 138 132 132 132 127 127 127 129 129 129 132 132 132 129 129 129 128 128 128 128 128 128 124 124 124 125 125 125 134 134 134 136 136 136 127 127 127 118 118 118 118 118 118 133 133 133 140 140 140 134 134 134 133 133 133 135 135 135 127 127 127 116 116 116 120 120 120 135 135 135 134 134 134 120 120 120 116 116 116 122 122 122 119 119 119 117 117 117 125 125 125 126 126 126 121 121 121 121 121 121 121 121 121 122 122 122 0 0 0 
0 0 0 130 130 130 127 127 127 130 130 130 126 126 126 126 126 126 127 127 127 128 128 128 133 133 133 129 129 129 123 123 123 122 122 122 124 124 124 124 124 124 118 118 118 117 117 117 124 124 124 133 133 133 139 139 139 144 144 144 138 138 138 123 123 123 118 118 118 120 120 120 124 124 124 125 125 125 123 123 123 123 123 123 127 127 127 129 129 129 123 123 123 121 121 121 125 125 125 124 124 124 122 122 122 125 125 125 127 127 127 122 122 122 127 127 127 133 133 133 125 125 125 116 116 116 117 117 117 122 122 122 128 128 128 131 131 131 127 127 127 122 122 122 122 122 122 128 128 128 128 128 128 122 122 122 120 120 120 123 123 123 123 123 123 122 122 122 124 124 124 134 134 134 140 140 140 136 136 136 133 133 133 133 133 133 127 127 127 120 120 120 122 122 122 130 130 130 126 126 126 122 122 122 129 129 129 130 130 130 125 125 125 122 122 122 122 122 122 122 122 122 122 122 122 120 120 120 122 122 122 126 126 126 126 126 126 122 122 122 116 116 116 123 123 123 132 132 132 135 135 135 142 142 142 135 135 135 123 123 123 120 120 120 127 127 127 128 128 128 118 118 118 122 122 122 134 134 134 134 134 134 131 131 131 126 126 126 130 130 130 138 138 138 129 129 129 122 122 122 118 118 118 116 116 116 125 125 125 132 132 132 130 130 130 131 131 131 133 133 133 130 130 130 126 126 126 121 121 121 118 118 118 126 126 126 135 135 135 130 130 130 127 127 127 135 135 135 131 131 131 119 119 119 117 117 117 116 116 116 114 114 114 116 116 116 122 122 122 128 128 128 135 135 135 137 137 137 131 131 131 131 131 131 133 133 133 130 130 130 126 126 126 120 120 120 122 122 122 126 126 126 129 129 129 133 133 133 135 135 135 127 127 127 117 117 117 115 115 115 121 121 121 131 131 131 133 133 133 129 129 129 133 133 133 137 137 137 125 125 125 114 114 114 119 119 119 127 127 127 127 127 127 124 124 124 131 131 131 129 129 129 118 118 118 124 124 124 137 137 137 130 130 130 121 121 121 124 124 124 132 132 132 142 142 142 143 143 143 135 135 135 127 127 127 127 127 127 130 130 130 131 131 131 132 132 132 129 129 129 123 123 123 117 117 117 120 120 120 133 133 133 135 135 135 131 131 131 129 129 129 126 126 126 134 134 134 139 139 139 134 134 134 126 126 126 122 122 122 120 120 120 114 114 114 117 117 117 126 126 126 120 120 120 112 112 112 116 116 116 129 129 129 130 130 130 120 120 120 123 123 123 126 126 126 123 123 123 123 123 123 122 122 122 124 124 124 0 0 0 
0 0 0 119 119 119 122 122 122 125 125 125 122 122 122 115 115 115 114 114 114 120 120 120 130 130 130 133 133 133 126 126 126 122 122 122 124 124 124 124 124 124 123 123 123 123 123 123 126 126 126 129 129 129 132 132 132 138 138 138 138 138 138 127 127 127 125 125 125 130 130 130 127 127 127 121 121 121 120 120 120 119 119 119 120 120 120 120 120 120 117 117 117 118 118 118 125 125 125 127 127 127 132 132 132 139 139 139 139 139 139 131 131 131 129 129 129 134 134 134 129 129 129 116 116 116 118 118 118 131 131 131 133 133 133 130 130 130 131 131 131 132 132 132 132 132 132 136 136 136 136 136 136 128 128 128 124 124 124 127 127 127 128 128 128 125 125 125 126 126 126 136 136 136 136 136 136 124 124 124 118 118 118 122 122 122 126 126 126 127 127 127 127 127 127 128 128 128 125 125 125 116 116 116 119 119 119 130 130 130 130 130 130 125 125 125 119 119 119 121 121 121 129 129 129 129 129 129 124 124 124 122 122 122 123 123 123 123 123 123 120 120 120 125 125 125 131 131 131 133 133 133 133 133 133 128 128 128 122 122 122 116 116 116 118 118 118 128 128 128 124 124 124 121 121 121 127 127 127 130 130 130 132 132 132 131 131 131 135 135 135 141 141 141 140 140 140 136 136 136 126 126 126 116 116 116 126 126 126 137 137 137 133 133 133 132 132 132 132 132 132 131 131 131 131 131 131 124 124 124 119 119 119 123 123 123 129 129 129 127 127 127 125 125 125 127 127 127 128 128 128 128 128 128 127 127 127 123 123 123 118 118 118 120 120 120 125 125 125 126 126 126 131 131 131 138 138 138 139 139 139 136 136 136 134 134 134 132 132 132 126 126 126 121 121 121 128 128 128 128 128 128 119 119 119 124 124 124 134 134 134 132 132 132 124 124 124 118 118 118 122 122 122 131 131 131 130 130 130 128 128 128 135 135 135 132 132 132 120 120 120 120 120 120 130 130 130 136 136 136 135 135 135 128 128 128 122 122 122 118 118 118 120 120 120 134 134 134 144 144 144 135 135 135 124 124 124 124 124 124 128 128 128 134 134 134 138 138 138 134 134 134 132 132 132 134 134 134 131 131 131 128 128 128 129 129 129 124 124 124 123 123 123 123 123 123 125 125 125 134 134 134 132 132 132 129 129 129 132 132 132 126 126 126 126 126 126 130 130 130 131 131 131 127 127 127 117 117 117 115 115 115 119 119 119 121 121 121 122 122 122 117 117 117 114 114 114 120 120 120 131 131 131 132 132 132 120 120 120 114 114 114 120 120 120 125 125 125 129 129 129 132 132 132 129 129 129 0 0 0 
0 0 0 118 118 118 128 128 128 128 128 128 125 125 125 118 118 118 114 114 114 122 122 122 133 133 133 136 136 136 133 133 133 130 130 130 129 129 129 126 126 126 122 122 122 121 121 121 121 121 121 121 121 121 122 122 122 127 127 127 129 129 129 122 122 122 125 125 125 133 133 133 125 125 125 115 115 115 116 116 116 123 123 123 126 126 126 122 122 122 120 120 120 119 119 119 117 117 117 121 121 121 130 130 130 142 142 142 143 143 143 137 137 137 133 133 133 130 130 130 123 123 123 116 116 116 122 122 122 133 133 133 131 131 131 129 129 129 135 135 135 137 137 137 135 135 135 138 138 138 141 141 141 133 133 133 130 130 130 135 135 135 136 136 136 131 131 131 131 131 131 133 133 133 124 124 124 112 112 112 113 113 113 121 121 121 122 122 122 122 122 122 123 123 123 123 123 123 122 122 122 116 116 116 122 122 122 133 133 133 127 127 127 118 118 118 114 114 114 119 119 119 129 129 129 130 130 130 121 121 121 114 114 114 117 117 117 125 125 125 129 129 129 128 128 128 124 124 124 121 121 121 122 122 122 121 121 121 121 121 121 118 118 118 116 116 116 122 122 122 122 122 122 117 117 117 121 121 121 129 129 129 136 136 136 136 136 136 136 136 136 139 139 139 141 141 141 143 143 143 134 134 134 123 123 123 130 130 130 140 140 140 137 137 137 131 131 131 132 132 132 139 139 139 141 141 141 138 138 138 134 134 134 133 133 133 132 132 132 127 127 127 126 126 126 126 126 126 129 129 129 132 132 132 132 132 132 134 134 134 131 131 131 128 128 128 121 121 121 117 117 117 126 126 126 137 137 137 142 142 142 140 140 140 134 134 134 134 134 134 129 129 129 122 122 122 126 126 126 125 125 125 116 116 116 121 121 121 133 133 133 129 129 129 122 122 122 125 125 125 128 128 128 128 128 128 123 123 123 122 122 122 125 125 125 122 122 122 121 121 121 131 131 131 138 138 138 138 138 138 138 138 138 131 131 131 120 120 120 117 117 117 126 126 126 139 139 139 147 147 147 141 141 141 129 129 129 124 124 124 121 121 121 124 124 124 135 135 135 140 140 140 138 138 138 135 135 135 130 130 130 125 125 125 123 123 123 121 121 121 127 127 127 129 129 129 127 127 127 134 134 134 135 135 135 133 133 133 134 134 134 130 130 130 129 129 129 129 129 129 130 130 130 129 129 129 123 123 123 124 124 124 131 131 131 132 132 132 131 131 131 128 128 128 121 121 121 115 115 115 118 118 118 124 124 124 120 120 120 118 118 118 124 124 124 127 127 127 131 131 131 135 135 135 133 133 133 0 0 0 
0 0 0 122 122 122 130 130 130 126 126 126 126 126 126 127 127 127 124 124 124 128 128 128 137 137 137 137 137 137 134 134 134 133 133 133 129 129 129 122 122 122 115 115 115 114 114 114 124 124 124 135 135 135 134 134 134 130 130 130 127 127 127 121 121 121 123 123 123 128 128 128 121 121 121 113 113 113 118 118 118 125 125 125 129 129 129 124 124 124 122 122 122 124 124 124 119 119 119 116 116 116 123 123 123 133 133 133 139 139 139 139 139 139 138 138 138 130 130 130 119 119 119 119 119 119 129 129 129 137 137 137 134 134 134 129 129 129 132 132 132 140 140 140 141 141 141 135 135 135 131 131 131 130 130 130 133 133 133 134 134 134 127 127 127 127 127 127 132 132 132 129 129 129 121 121 121 119 119 119 122 122 122 127 127 127 128 128 128 126 126 126 124 124 124 125 125 125 128 128 128 125 125 125 126 126 126 133 133 133 125 125 125 115 115 115 113 113 113 116 116 116 125 125 125 128 128 128 118 118 118 114 114 114 117 117 117 121 121 121 130 130 130 133 133 133 120 120 120 114 114 114 121 121 121 124 124 124 124 124 124 127 127 127 127 127 127 127 127 127 123 123 123 118 118 118 119 119 119 128 128 128 136 136 136 136 136 136 130 130 130 127 127 127 130 130 130 137 137 137 136 136 136 132 132 132 133 133 133 134 134 134 133 133 133 130 130 130 135 135 135 144 144 144 145 145 145 141 141 141 139 139 139 137 137 137 132 132 132 128 128 128 131 131 131 135 135 135 133 133 133 125 125 125 127 127 127 140 140 140 144 144 144 135 135 135 120 120 120 117 117 117 129 129 129 134 134 134 134 134 134 135 135 135 134 134 134 133 133 133 130 130 130 124 124 124 124 124 124 124 124 124 120 120 120 119 119 119 124 124 124 120 120 120 121 121 121 134 134 134 137 137 137 129 129 129 125 125 125 128 128 128 126 126 126 125 125 125 124 124 124 125 125 125 127 127 127 128 128 128 131 131 131 129 129 129 125 125 125 125 125 125 132 132 132 138 138 138 139 139 139 134 134 134 127 127 127 127 127 127 126 126 126 124 124 124 133 133 133 139 139 139 133 133 133 133 133 133 135 135 135 126 126 126 119 119 119 121 121 121 130 130 130 129 129 129 127 127 127 132 132 132 135 135 135 134 134 134 134 134 134 135 135 135 132 132 132 122 122 122 121 121 121 128 128 128 133 133 133 135 135 135 137 137 137 137 137 137 134 134 134 135 135 135 130 130 130 117 117 117 113 113 113 118 118 118 121 121 121 130 130 130 137 137 137 134 134 134 136 136 136 137 137 137 134 134 134 0 0 0 
0 0 0 122 122 122 123 123 123 121 121 121 123 123 123 131 131 131 136 136 136 133 133 133 132 132 132 130 130 130 129 129 129 131 131 131 127 127 127 123 123 123 120 120 120 123 123 123 137 137 137 147 147 147 142 142 142 137 137 137 137 137 137 136 136 136 131 131 131 128 128 128 124 124 124 123 123 123 124 124 124 122 122 122 122 122 122 120 120 120 116 116 116 123 123 123 125 125 125 119 119 119 121 121 121 129 129 129 135 135 135 134 134 134 132 132 132 125 125 125 118 118 118 123 123 123 133 133 133 138 138 138 135 135 135 127 127 127 123 123 123 135 135 135 147 147 147 141 141 141 132 132 132 133 133 133 139 139 139 132 132 132 118 118 118 117 117 117 124 124 124 127 127 127 123 123 123 126 126 126 131 131 131 131 131 131 134 134 134 134 134 134 131 131 131 132 132 132 134 134 134 129 129 129 124 124 124 127 127 127 131 131 131 130 130 130 127 127 127 122 122 122 122 122 122 124 124 124 121 121 121 121 121 121 119 119 119 117 117 117 124 124 124 128 128 128 121 121 121 117 117 117 125 125 125 127 127 127 126 126 126 134 134 134 139 139 139 134 134 134 130 130 130 129 129 129 123 123 123 122 122 122 129 129 129 135 135 135 130 130 130 121 121 121 126 126 126 135 135 135 136 136 136 137 137 137 131 131 131 122 122 122 121 121 121 126 126 126 134 134 134 139 139 139 136 136 136 130 130 130 130 130 130 130 130 130 124 124 124 128 128 128 135 135 135 135 135 135 132 132 132 126 126 126 127 127 127 137 137 137 141 141 141 137 137 137 128 128 128 123 123 123 129 129 129 130 130 130 131 131 131 132 132 132 131 131 131 134 134 134 134 134 134 134 134 134 134 134 134 130 130 130 125 125 125 121 121 121 122 122 122 124 124 124 129 129 129 135 135 135 135 135 135 132 132 132 134 134 134 136 136 136 133 133 133 130 130 130 125 125 125 119 119 119 122 122 122 125 125 125 121 121 121 118 118 118 121 121 121 127 127 127 129 129 129 130 130 130 126 126 126 118 118 118 117 117 117 127 127 127 137 137 137 136 136 136 134 134 134 132 132 132 128 128 128 132 132 132 134 134 134 123 123 123 118 118 118 124 124 124 131 131 131 133 133 133 134 134 134 130 130 130 131 131 131 136 136 136 137 137 137 136 136 136 128 128 128 121 121 121 123 123 123 130 130 130 139 139 139 139 139 139 138 138 138 133 133 133 127 127 127 133 133 133 136 136 136 126 126 126 123 123 123 127 127 127 130 130 130 137 137 137 139 139 139 139 139 139 142 142 142 139 139 139 132 132 132 0 0 0 
0 0 0 121 121 121 120 120 120 120 120 120 121 121 121 129 129 129 136 136 136 135 135 135 127 127 127 119 119 119 122 122 122 131 131 131 134 134 134 130 130 130 129 129 129 137 137 137 144 144 144 141 141 141 136 136 136 134 134 134 136 136 136 139 139 139 137 137 137 136 136 136 134 134 134 131 131 131 133 133 133 126 126 126 120 120 120 123 123 123 117 117 117 122 122 122 131 131 131 126 126 126 127 127 127 137 137 137 136 136 136 130 130 130 130 130 130 125 125 125 117 117 117 121 121 121 126 126 126 129 129 129 132 132 132 128 128 128 120 120 120 127 127 127 142 142 142 144 144 144 134 134 134 128 128 128 129 129 129 125 125 125 121 121 121 121 121 121 122 122 122 127 127 127 124 124 124 123 123 123 131 131 131 134 134 134 133 133 133 132 132 132 133 133 133 137 137 137 135 135 135 128 128 128 124 124 124 126 126 126 134 134 134 138 138 138 132 132 132 125 125 125 121 121 121 119 119 119 126 126 126 133 133 133 126 126 126 122 122 122 124 124 124 122 122 122 123 123 123 125 125 125 128 128 128 125 125 125 123 123 123 134 134 134 142 142 142 136 136 136 134 134 134 138 138 138 131 131 131 121 121 121 124 124 124 134 134 134 135 135 135 128 128 128 131 131 131 133 133 133 132 132 132 138 138 138 133 133 133 118 118 118 114 114 114 120 120 120 129 129 129 133 133 133 126 126 126 125 125 125 128 128 128 123 123 123 120 120 120 128 128 128 128 128 128 125 125 125 130 130 130 133 133 133 129 129 129 126 126 126 126 126 126 132 132 132 134 134 134 131 131 131 131 131 131 127 127 127 130 130 130 132 132 132 128 128 128 134 134 134 138 138 138 137 137 137 134 134 134 129 129 129 128 128 128 133 133 133 138 138 138 138 138 138 135 135 135 129 129 129 125 125 125 125 125 125 129 129 129 133 133 133 129 129 129 122 122 122 120 120 120 122 122 122 128 128 128 130 130 130 124 124 124 120 120 120 121 121 121 124 124 124 124 124 124 124 124 124 124 124 124 116 116 116 111 111 111 122 122 122 139 139 139 142 142 142 132 132 132 123 123 123 122 122 122 122 122 122 118 118 118 113 113 113 117 117 117 130 130 130 134 134 134 134 134 134 135 135 135 128 128 128 125 125 125 134 134 134 139 139 139 133 133 133 125 125 125 126 126 126 129 129 129 130 130 130 134 134 134 138 138 138 138 138 138 132 132 132 124 124 124 127 127 127 132 132 132 131 131 131 131 131 131 132 132 132 138 138 138 138 138 138 132 132 132 128 128 128 133 133 133 135 135 135 130 130 130 0 0 0 
0 0 0 119 119 119 123 123 123 123 123 123 116 116 116 118 118 118 126 126 126 132 132 132 129 129 129 124 124 124 128 128 128 131 131 131 131 131 131 127 127 127 131 131 131 143 143 143 144 144 144 135 135 135 132 132 132 130 130 130 128 128 128 131 131 131 135 135 135 135 135 135 132 132 132 129 129 129 133 133 133 131 131 131 125 125 125 129 129 129 128 128 128 128 128 128 136 136 136 136 136 136 135 135 135 141 141 141 139 139 139 135 135 135 135 135 135 129 129 129 120 120 120 121 121 121 122 122 122 125 125 125 133 133 133 130 130 130 122 122 122 128 128 128 135 135 135 135 135 135 127 127 127 117 117 117 117 117 117 119 119 119 125 125 125 129 129 129 129 129 129 131 131 131 129 129 129 124 124 124 126 126 126 134 134 134 132 132 132 127 127 127 132 132 132 138 138 138 134 134 134 125 125 125 123 123 123 124 124 124 124 124 124 124 124 124 121 121 121 123 123 123 127 127 127 124 124 124 127 127 127 133 133 133 132 132 132 127 127 127 122 122 122 121 121 121 125 125 125 127 127 127 125 125 125 120 120 120 121 121 121 131 131 131 132 132 132 128 128 128 129 129 129 136 136 136 135 135 135 126 126 126 124 124 124 128 128 128 133 133 133 135 135 135 134 134 134 129 129 129 129 129 129 136 136 136 135 135 135 123 123 123 117 117 117 119 119 119 128 128 128 132 132 132 126 126 126 126 126 126 128 128 128 125 125 125 124 124 124 127 127 127 124 124 124 126 126 126 131 131 131 127 127 127 123 123 123 121 121 121 120 120 120 128 128 128 133 133 133 132 132 132 128 128 128 120 120 120 122 122 122 126 126 126 124 124 124 129 129 129 133 133 133 130 130 130 127 127 127 122 122 122 126 126 126 139 139 139 145 145 145 143 143 143 137 137 137 129 129 129 123 123 123 119 119 119 119 119 119 124 124 124 122 122 122 116 116 116 116 116 116 119 119 119 124 124 124 127 127 127 133 133 133 136 136 136 133 133 133 128 128 128 126 126 126 126 126 126 129 129 129 126 126 126 119 119 119 123 123 123 132 132 132 133 133 133 127 127 127 121 121 121 117 117 117 115 115 115 114 114 114 112 112 112 119 119 119 135 135 135 137 137 137 131 131 131 127 127 127 121 121 121 121 121 121 127 127 127 130 130 130 129 129 129 126 126 126 123 123 123 122 122 122 121 121 121 121 121 121 128 128 128 133 133 133 132 132 132 127 127 127 127 127 127 134 134 134 138 138 138 131 131 131 128 128 128 136 136 136 134 134 134 121 121 121 114 114 114 121 121 121 130 130 130 130 130 130 0 0 0 
0 0 0 117 117 117 125 125 125 127 127 127 115 115 115 111 111 111 122 122 122 133 133 133 133 133 133 133 133 133 137 137 137 132 132 132 120 120 120 120 120 120 133 133 133 142 142 142 140 140 140 133 133 133 131 131 131 129 129 129 125 125 125 127 127 127 126 126 126 122 122 122 122 122 122 120 120 120 122 122 122 129 129 129 131 131 131 133 133 133 135 135 135 131 131 131 130 130 130 133 133 133 134 134 134 137 137 137 137 137 137 135 135 135 128 128 128 124 124 124 126 126 126 126 126 126 126 126 126 127 127 127 131 131 131 129 129 129 122 122 122 125 125 125 128 128 128 126 126 126 124 124 124 119 119 119 119 119 119 122 122 122 126 126 126 131 131 131 135 135 135 136 136 136 133 133 133 124 124 124 119 119 119 125 125 125 128 128 128 127 127 127 129 129 129 133 133 133 133 133 133 128 128 128 122 122 122 115 115 115 114 114 114 117 117 117 119 119 119 124 124 124 132 132 132 131 131 131 122 122 122 120 120 120 126 126 126 127 127 127 123 123 123 126 126 126 127 127 127 124 124 124 126 126 126 122 122 122 124 124 124 126 126 126 117 117 117 114 114 114 119 119 119 125 125 125 128 128 128 124 124 124 121 121 121 122 122 122 126 126 126 131 131 131 130 130 130 129 129 129 128 128 128 129 129 129 130 130 130 124 124 124 123 123 123 124 124 124 124 124 124 129 129 129 132 132 132 130 130 130 130 130 130 132 132 132 130 130 130 126 126 126 129 129 129 132 132 132 130 130 130 122 122 122 124 124 124 127 127 127 124 124 124 127 127 127 130 130 130 126 126 126 122 122 122 117 117 117 122 122 122 128 128 128 125 125 125 121 121 121 122 122 122 126 126 126 123 123 123 118 118 118 127 127 127 138 138 138 141 141 141 139 139 139 129 129 129 124 124 124 127 127 127 128 128 128 122 122 122 118 118 118 120 120 120 120 120 120 124 124 124 122 122 122 115 115 115 121 121 121 135 135 135 140 140 140 136 136 136 130 130 130 124 124 124 123 123 123 128 128 128 127 127 127 125 125 125 129 129 129 128 128 128 124 124 124 129 129 129 129 129 129 119 119 119 117 117 117 124 124 124 126 126 126 126 126 126 130 130 130 131 131 131 129 129 129 124 124 124 121 121 121 129 129 129 129 129 129 127 127 127 130 130 130 132 132 132 127 127 127 120 120 120 116 116 116 116 116 116 121 121 121 127 127 127 128 128 128 124 124 124 127 127 127 135 135 135 137 137 137 129 129 129 125 125 125 130 130 130 123 123 123 111 111 111 114 114 114 125 125 125 132 132 132 132 132 132 0 0 0 
0 0 0 120 120 120 122 122 122 124 124 124 115 115 115 112 112 112 122 122 122 130 130 130 134 134 134 134 134 134 134 134 134 131 131 131 119 119 119 119 119 119 129 129 129 131 131 131 129 129 129 124 124 124 124 124 124 126 126 126 122 122 122 122 122 122 120 120 120 121 121 121 126 126 126 120 120 120 116 116 116 124 124 124 129 129 129 133 133 133 140 140 140 134 134 134 123 123 123 123 123 123 131 131 131 134 134 134 132 132 132 130 130 130 126 126 126 128 128 128 133 133 133 129 129 129 121 121 121 118 118 118 121 121 121 124 124 124 123 123 123 123 123 123 124 124 124 123 123 123 126 126 126 126 126 126 122 122 122 123 123 123 129 129 129 130 130 130 132 132 132 137 137 137 131 131 131 120 120 120 117 117 117 120 120 120 123 123 123 120 120 120 117 117 117 124 124 124 136 136 136 137 137 137 131 131 131 119 119 119 115 115 115 122 122 122 125 125 125 129 129 129 133 133 133 131 131 131 125 125 125 121 121 121 124 124 124 126 126 126 129 129 129 133 133 133 129 129 129 124 124 124 126 126 126 127 127 127 131 131 131 124 124 124 111 111 111 112 112 112 117 117 117 120 120 120 121 121 121 121 121 121 125 125 125 126 126 126 126 126 126 127 127 127 122 122 122 122 122 122 127 127 127 129 129 129 128 128 128 121 121 121 124 124 124 126 126 126 121 121 121 126 126 126 135 135 135 137 137 137 132 132 132 129 129 129 125 125 125 124 124 124 131 131 131 132 132 132 128 128 128 127 127 127 129 129 129 131 131 131 127 127 127 123 123 123 125 125 125 125 125 125 125 125 125 127 127 127 132 132 132 135 135 135 126 126 126 114 114 114 115 115 115 126 126 126 128 128 128 124 124 124 128 128 128 132 132 132 138 138 138 134 134 134 120 120 120 120 120 120 130 130 130 138 138 138 134 134 134 123 123 123 123 123 123 126 126 126 132 132 132 132 132 132 119 119 119 119 119 119 129 129 129 131 131 131 127 127 127 119 119 119 113 113 113 117 117 117 127 127 127 125 125 125 125 125 125 134 134 134 128 128 128 121 121 121 133 133 133 137 137 137 125 125 125 122 122 122 131 131 131 137 137 137 130 130 130 121 121 121 122 122 122 128 128 128 124 124 124 122 122 122 129 129 129 132 132 132 134 134 134 131 131 131 129 129 129 130 130 130 123 123 123 120 120 120 122 122 122 123 123 123 127 127 127 131 131 131 124 124 124 122 122 122 129 129 129 130 130 130 125 125 125 119 119 119 121 121 121 120 120 120 113 113 113 122 122 122 134 134 134 133 133 133 129 129 129 0 0 0 
0 0 0 128 128 128 128 128 128 128 128 128 124 124 124 119 119 119 118 118 118 123 123 123 130 130 130 131 131 131 130 130 130 131 131 131 132 132 132 128 128 128 123 123 123 120 120 120 121 121 121 121 121 121 124 124 124 127 127 127 124 124 124 126 126 126 130 130 130 133 133 133 138 138 138 132 132 132 121 121 121 122 122 122 127 127 127 135 135 135 144 144 144 139 139 139 124 124 124 122 122 122 133 133 133 136 136 136 133 133 133 135 135 135 136 136 136 133 133 133 133 133 133 132 132 132 125 125 125 122 122 122 121 121 121 121 121 121 123 123 123 123 123 123 118 118 118 116 116 116 126 126 126 134 134 134 126 126 126 122 122 122 125 125 125 126 126 126 130 130 130 138 138 138 137 137 137 127 127 127 123 123 123 127 127 127 124 124 124 113 113 113 107 107 107 115 115 115 131 131 131 136 136 136 134 134 134 133 133 133 126 126 126 125 125 125 130 130 130 132 132 132 131 131 131 132 132 132 130 130 130 128 128 128 128 128 128 126 126 126 128 128 128 134 134 134 133 133 133 128 128 128 121 121 121 123 123 123 134 134 134 129 129 129 120 120 120 121 121 121 121 121 121 124 124 124 121 121 121 122 122 122 132 132 132 131 131 131 129 129 129 128 128 128 117 117 117 117 117 117 131 131 131 136 136 136 130 130 130 122 122 122 123 123 123 127 127 127 127 127 127 126 126 126 132 132 132 135 135 135 129 129 129 122 122 122 116 116 116 120 120 120 134 134 134 134 134 134 128 128 128 129 129 129 128 128 128 128 128 128 124 124 124 119 119 119 124 124 124 125 125 125 125 125 125 130 130 130 134 134 134 135 135 135 123 123 123 109 109 109 110 110 110 126 126 126 137 137 137 132 132 132 125 125 125 125 125 125 133 133 133 130 130 130 121 121 121 123 123 123 127 127 127 134 134 134 136 136 136 131 131 131 130 130 130 128 128 128 131 131 131 139 139 139 135 135 135 129 129 129 124 124 124 120 120 120 117 117 117 110 110 110 107 107 107 115 115 115 124 124 124 125 125 125 131 131 131 132 132 132 122 122 122 121 121 121 132 132 132 136 136 136 130 130 130 130 130 130 138 138 138 144 144 144 136 136 136 120 120 120 116 116 116 121 121 121 119 119 119 118 118 118 122 122 122 131 131 131 138 138 138 134 134 134 127 127 127 127 127 127 125 125 125 125 125 125 131 131 131 134 134 134 135 135 135 138 138 138 133 133 133 128 128 128 129 129 129 126 126 126 118 118 118 113 113 113 120 120 120 126 126 126 122 122 122 128 128 128 137 137 137 134 134 134 125 125 125 0 0 0 
0 0 0 130 130 130 134 134 134 136 136 136 133 133 133 129 129 129 124 124 124 125 125 125 128 128 128 128 128 128 129 129 129 130 130 130 134 134 134 133 133 133 125 125 125 123 123 123 125 125 125 128 128 128 132 132 132 131 131 131 126 126 126 130 130 130 136 136 136 136 136 136 138 138 138 136 136 136 125 125 125 121 121 121 127 127 127 135 135 135 141 141 141 139 139 139 127 127 127 125 125 125 137 137 137 141 141 141 138 138 138 138 138 138 132 132 132 121 121 121 124 124 124 138 138 138 139 139 139 135 135 135 133 133 133 126 126 126 120 120 120 116 116 116 112 112 112 114 114 114 125 125 125 135 135 135 132 132 132 123 123 123 121 121 121 124 124 124 128 128 128 134 134 134 137 137 137 129 129 129 122 122 122 128 128 128 126 126 126 115 115 115 107 107 107 109 109 109 121 121 121 130 130 130 132 132 132 134 134 134 128 128 128 121 121 121 130 130 130 133 133 133 129 129 129 132 132 132 128 128 128 123 123 123 122 122 122 121 121 121 124 124 124 135 135 135 136 136 136 126 126 126 119 119 119 121 121 121 131 131 131 133 133 133 133 133 133 133 133 133 127 127 127 124 124 124 124 124 124 126 126 126 135 135 135 134 134 134 131 131 131 130 130 130 123 123 123 124 124 124 134 134 134 136 136 136 134 134 134 133 133 133 131 131 131 129 129 129 130 130 130 128 128 128 125 125 125 125 125 125 126 126 126 127 127 127 122 122 122 124 124 124 139 139 139 134 134 134 123 123 123 127 127 127 131 131 131 132 132 132 126 126 126 120 120 120 121 121 121 122 122 122 122 122 122 122 122 122 122 122 122 123 123 123 114 114 114 103 103 103 110 110 110 128 128 128 139 139 139 135 135 135 126 126 126 120 120 120 123 123 123 125 125 125 126 126 126 125 125 125 123 123 123 125 125 125 126 126 126 130 130 130 133 133 133 125 125 125 125 125 125 137 137 137 145 145 145 142 142 142 127 127 127 117 117 117 116 116 116 110 110 110 109 109 109 115 115 115 117 117 117 120 120 120 127 127 127 123 123 123 119 119 119 125 125 125 128 128 128 127 127 127 126 126 126 131 131 131 140 140 140 141 141 141 133 133 133 119 119 119 113 113 113 115 115 115 117 117 117 119 119 119 122 122 122 128 128 128 133 133 133 135 135 135 131 131 131 125 125 125 127 127 127 131 131 131 134 134 134 135 135 135 133 133 133 135 135 135 135 135 135 131 131 131 124 124 124 116 116 116 113 113 113 116 116 116 125 125 125 130 130 130 128 128 128 132 132 132 137 137 137 133 133 133 127 127 127 0 0 0 
0 0 0 132 132 132 133 133 133 135 135 135 132 132 132 131 131 131 132 132 132 131 131 131 128 128 128 128 128 128 129 129 129 125 125 125 124 124 124 128 128 128 128 128 128 130 130 130 132 132 132 132 132 132 135 135 135 133 133 133 125 125 125 124 124 124 130 130 130 127 127 127 127 127 127 132 132 132 128 128 128 122 122 122 126 126 126 131 131 131 132 132 132 133 133 133 126 126 126 122 122 122 130 130 130 135 135 135 138 138 138 131 131 131 115 115 115 108 108 108 116 116 116 133 133 133 137 137 137 133 133 133 134 134 134 131 131 131 121 121 121 113 113 113 114 114 114 122 122 122 124 124 124 128 128 128 135 135 135 131 131 131 124 124 124 120 120 120 118 118 118 121 121 121 126 126 126 121 121 121 122 122 122 131 131 131 131 131 131 125 125 125 115 115 115 115 115 115 125 125 125 130 130 130 127 127 127 122 122 122 116 116 116 112 112 112 124 124 124 133 133 133 133 133 133 135 135 135 130 130 130 120 120 120 113 113 113 113 113 113 118 118 118 130 130 130 132 132 132 122 122 122 119 119 119 125 125 125 130 130 130 133 133 133 140 140 140 141 141 141 131 131 131 124 124 124 127 127 127 132 132 132 137 137 137 138 138 138 131 131 131 127 127 127 130 130 130 131 131 131 130 130 130 130 130 130 136 136 136 142 142 142 137 137 137 127 127 127 126 126 126 128 128 128 123 123 123 121 121 121 130 130 130 139 139 139 136 136 136 136 136 136 138 138 138 128 128 128 120 120 120 123 123 123 130 130 130 133 133 133 126 126 126 123 123 123 122 122 122 122 122 122 128 128 128 124 124 124 115 115 115 114 114 114 113 113 113 111 111 111 118 118 118 131 131 131 138 138 138 138 138 138 130 130 130 118 118 118 116 116 116 122 122 122 127 127 127 128 128 128 124 124 124 122 122 122 125 125 125 129 129 129 132 132 132 125 125 125 119 119 119 126 126 126 140 140 140 142 142 142 128 128 128 124 124 124 127 127 127 119 119 119 116 116 116 121 121 121 121 121 121 120 120 120 120 120 120 119 119 119 120 120 120 124 124 124 127 127 127 123 123 123 119 119 119 126 126 126 129 129 129 124 124 124 118 118 118 115 115 115 118 118 118 123 123 123 125 125 125 123 123 123 118 118 118 120 120 120 125 125 125 129 129 129 127 127 127 119 119 119 121 121 121 128 128 128 127 127 127 122 122 122 120 120 120 128 128 128 131 131 131 125 125 125 117 117 117 113 113 113 117 117 117 122 122 122 124 124 124 129 129 129 130 130 130 132 132 132 135 135 135 132 132 132 125 125 125 0 0 0 
0 0 0 135 135 135 135 135 135 138 138 138 134 134 134 130 130 130 127 127 127 125 125 125 125 125 125 126 126 126 124 124 124 124 124 124 124 124 124 125 125 125 129 129 129 132 132 132 133 133 133 133 133 133 135 135 135 135 135 135 127 127 127 122 122 122 127 127 127 124 124 124 124 124 124 134 134 134 137 137 137 132 132 132 131 131 131 130 130 130 129 129 129 128 128 128 124 124 124 119 119 119 117 117 117 120 120 120 129 129 129 124 124 124 110 110 110 108 108 108 113 113 113 123 123 123 131 131 131 129 129 129 129 129 129 134 134 134 135 135 135 128 128 128 125 125 125 128 128 128 125 125 125 125 125 125 130 130 130 132 132 132 126 126 126 117 117 117 113 113 113 117 117 117 122 122 122 121 121 121 125 125 125 132 132 132 135 135 135 134 134 134 128 128 128 132 132 132 138 138 138 130 130 130 118 118 118 111 111 111 108 108 108 108 108 108 119 119 119 131 131 131 133 133 133 132 132 132 130 130 130 121 121 121 110 110 110 106 106 106 112 112 112 120 120 120 123 123 123 123 123 123 126 126 126 134 134 134 136 136 136 131 131 131 133 133 133 135 135 135 133 133 133 127 127 127 126 126 126 126 126 126 126 126 126 130 130 130 127 127 127 122 122 122 126 126 126 127 127 127 126 126 126 130 130 130 134 134 134 140 140 140 134 134 134 121 121 121 122 122 122 127 127 127 128 128 128 127 127 127 132 132 132 140 140 140 140 140 140 137 137 137 133 133 133 127 127 127 126 126 126 127 127 127 128 128 128 127 127 127 123 123 123 123 123 123 124 124 124 127 127 127 130 130 130 124 124 124 115 115 115 116 116 116 123 123 123 130 130 130 134 134 134 137 137 137 137 137 137 138 138 138 135 135 135 125 125 125 121 121 121 123 123 123 122 122 122 122 122 122 124 124 124 128 128 128 131 131 131 129 129 129 126 126 126 122 122 122 115 115 115 118 118 118 133 133 133 139 139 139 133 133 133 134 134 134 136 136 136 127 127 127 123 123 123 127 127 127 128 128 128 127 127 127 124 124 124 121 121 121 119 119 119 117 117 117 121 121 121 122 122 122 120 120 120 121 121 121 117 117 117 114 114 114 117 117 117 119 119 119 125 125 125 133 133 133 135 135 135 126 126 126 120 120 120 123 123 123 125 125 125 126 126 126 121 121 121 113 113 113 113 113 113 121 121 121 129 129 129 125 125 125 125 125 125 131 131 131 133 133 133 126 126 126 117 117 117 115 115 115 124 124 124 127 127 127 127 127 127 133 133 133 130 130 130 128 128 128 134 134 134 135 135 135 127 127 127 0 0 0 
0 0 0 129 129 129 130 130 130 139 139 139 139 139 139 135 135 135 128 128 128 123 123 123 123 123 123 122 122 122 116 116 116 120 120 120 127 127 127 129 129 129 130 130 130 129 129 129 130 130 130 133 133 133 136 136 136 135 135 135 129 129 129 126 126 126 129 129 129 126 126 126 125 125 125 136 136 136 142 142 142 135 135 135 128 128 128 130 130 130 137 137 137 137 137 137 133 133 133 129 129 129 123 123 123 119 119 119 125 125 125 127 127 127 118 118 118 117 117 117 122 122 122 126 126 126 130 130 130 127 127 127 124 124 124 130 130 130 137 137 137 135 135 135 128 128 128 128 128 128 132 132 132 133 133 133 126 126 126 122 122 122 121 121 121 117 117 117 120 120 120 125 125 125 125 125 125 125 125 125 121 121 121 121 121 121 128 128 128 135 135 135 138 138 138 143 143 143 146 146 146 136 136 136 119 119 119 114 114 114 115 115 115 115 115 115 121 121 121 126 126 126 123 123 123 122 122 122 129 129 129 125 125 125 111 111 111 107 107 107 115 115 115 117 117 117 115 115 115 123 123 123 132 132 132 136 136 136 132 132 132 121 121 121 119 119 119 127 127 127 135 135 135 133 133 133 125 125 125 117 117 117 114 114 114 125 125 125 128 128 128 118 118 118 115 115 115 117 117 117 121 121 121 126 126 126 129 129 129 134 134 134 133 133 133 124 124 124 126 126 126 128 128 128 131 131 131 137 137 137 134 134 134 135 135 135 138 138 138 134 134 134 127 127 127 124 124 124 123 123 123 130 130 130 130 130 130 127 127 127 126 126 126 119 119 119 115 115 115 121 121 121 125 125 125 118 118 118 115 115 115 119 119 119 126 126 126 134 134 134 139 139 139 138 138 138 133 133 133 133 133 133 138 138 138 135 135 135 127 127 127 122 122 122 117 117 117 121 121 121 128 128 128 132 132 132 136 136 136 132 132 132 127 127 127 125 125 125 118 118 118 121 121 121 131 131 131 136 136 136 136 136 136 135 135 135 132 132 132 128 128 128 125 125 125 126 126 126 127 127 127 128 128 128 129 129 129 126 126 126 120 120 120 119 119 119 118 118 118 118 118 118 121 121 121 118 118 118 115 115 115 121 121 121 128 128 128 127 127 127 126 126 126 132 132 132 136 136 136 127 127 127 130 130 130 136 136 136 133 133 133 132 132 132 126 126 126 119 119 119 115 115 115 117 117 117 127 127 127 132 132 132 137 137 137 139 139 139 133 133 133 129 129 129 122 122 122 116 116 116 120 120 120 123 123 123 126 126 126 134 134 134 129 129 129 124 124 124 129 129 129 133 133 133 134 134 134 0 0 0 
0 0 0 118 118 118 120 120 120 135 135 135 137 137 137 138 138 138 141 141 141 136 136 136 128 128 128 121 121 121 116 116 116 120 120 120 129 129 129 139 139 139 136 136 136 128 128 128 133 133 133 139 139 139 138 138 138 132 132 132 129 129 129 131 131 131 132 132 132 125 125 125 119 119 119 127 127 127 134 134 134 125 125 125 118 118 118 130 130 130 142 142 142 144 144 144 140 140 140 136 136 136 129 129 129 124 124 124 128 128 128 132 132 132 125 125 125 125 125 125 133 133 133 134 134 134 129 129 129 124 124 124 123 123 123 123 123 123 122 122 122 121 121 121 120 120 120 125 125 125 137 137 137 140 140 140 129 129 129 119 119 119 116 116 116 118 118 118 132 132 132 138 138 138 130 130 130 126 126 126 122 122 122 119 119 119 124 124 124 132 132 132 140 140 140 142 142 142 140 140 140 132 132 132 120 120 120 120 120 120 123 123 123 123 123 123 127 127 127 126 126 126 120 120 120 122 122 122 134 134 134 134 134 134 120 120 120 115 115 115 121 121 121 116 116 116 110 110 110 119 119 119 124 124 124 126 126 126 125 125 125 113 113 113 114 114 114 128 128 128 135 135 135 136 136 136 133 133 133 125 125 125 121 121 121 130 130 130 133 133 133 120 120 120 112 112 112 114 114 114 116 116 116 116 116 116 117 117 117 123 123 123 131 131 131 134 134 134 135 135 135 134 134 134 133 133 133 135 135 135 130 130 130 127 127 127 136 136 136 136 136 136 130 130 130 125 125 125 120 120 120 125 125 125 130 130 130 130 130 130 127 127 127 115 115 115 110 110 110 115 115 115 118 118 118 116 116 116 113 113 113 116 116 116 124 124 124 130 130 130 130 130 130 132 132 132 135 135 135 136 136 136 136 136 136 131 131 131 124 124 124 117 117 117 115 115 115 126 126 126 134 134 134 130 130 130 133 133 133 139 139 139 139 139 139 133 133 133 125 125 125 125 125 125 124 124 124 124 124 124 125 125 125 125 125 125 129 129 129 130 130 130 127 127 127 124 124 124 127 127 127 132 132 132 136 136 136 135 135 135 128 128 128 124 124 124 122 122 122 121 121 121 125 125 125 128 128 128 129 129 129 129 129 129 129 129 129 128 128 128 124 124 124 128 128 128 130 130 130 122 122 122 128 128 128 139 139 139 140 140 140 141 141 141 137 137 137 126 126 126 116 116 116 112 112 112 116 116 116 123 123 123 131 131 131 135 135 135 126 126 126 123 123 123 125 125 125 120 120 120 116 116 116 118 118 118 124 124 124 130 130 130 127 127 127 122 122 122 119 119 119 122 122 122 133 133 133 0 0 0 
0 0 0 118 118 118 126 126 126 139 139 139 137 137 137 136 136 136 144 144 144 143 143 143 132 132 132 127 127 127 130 130 130 133 133 133 135 135 135 139 139 139 136 136 136 131 131 131 139 139 139 143 143 143 135 135 135 129 129 129 128 128 128 132 132 132 132 132 132 122 122 122 116 116 116 121 121 121 126 126 126 120 120 120 116 116 116 127 127 127 137 137 137 135 135 135 130 130 130 126 126 126 121 121 121 118 118 118 124 124 124 129 129 129 126 126 126 124 124 124 129 129 129 130 130 130 130 130 130 130 130 130 126 126 126 123 123 123 119 119 119 119 119 119 124 124 124 131 131 131 137 137 137 133 133 133 124 124 124 119 119 119 117 117 117 125 125 125 141 141 141 143 143 143 133 133 133 130 130 130 132 132 132 132 132 132 127 127 127 124 124 124 135 135 135 139 139 139 130 130 130 123 123 123 118 118 118 118 118 118 121 121 121 125 125 125 129 129 129 128 128 128 128 128 128 129 129 129 133 133 133 136 136 136 129 129 129 123 123 123 121 121 121 117 117 117 117 117 117 122 122 122 117 117 117 119 119 119 123 123 123 115 115 115 119 119 119 129 129 129 130 130 130 132 132 132 134 134 134 137 137 137 136 136 136 134 134 134 130 130 130 121 121 121 119 119 119 122 122 122 120 120 120 118 118 118 116 116 116 115 115 115 123 123 123 137 137 137 141 141 141 136 136 136 129 129 129 127 127 127 124 124 124 123 123 123 132 132 132 133 133 133 130 130 130 130 130 130 130 130 130 130 130 130 134 134 134 142 142 142 146 146 146 140 140 140 134 134 134 131 131 131 132 132 132 136 136 136 138 138 138 139 139 139 146 146 146 150 150 150 145 145 145 147 147 147 152 152 152 154 154 154 151 151 151 145 145 145 145 145 145 142 142 142 136 136 136 140 140 140 147 147 147 145 145 145 145 145 145 153 153 153 159 159 159 152 152 152 145 145 145 143 143 143 136 136 136 137 137 137 138 138 138 138 138 138 147 147 147 153 153 153 151 151 151 145 145 145 145 145 145 152 152 152 158 158 158 157 157 157 149 149 149 144 144 144 141 141 141 142 142 142 150 150 150 155 155 155 153 153 153 146 146 146 141 141 141 144 144 144 145 145 145 147 147 147 147 147 147 137 137 137 140 140 140 153 153 153 159 159 159 163 163 163 159 159 159 143 143 143 128 128 128 115 115 115 114 114 114 121 121 121 124 124 124 128 128 128 125 125 125 120 120 120 124 124 124 124 124 124 121 121 121 128 128 128 134 134 134 132 132 132 129 129 129 124 124 124 116 116 116 114 114 114 125 125 125 0 0 0 
0 0 0 128 128 128 138 138 138 145 145 145 140 140 140 134 134 134 139 139 139 140 140 140 129 129 129 130 130 130 138 138 138 140 140 140 137 137 137 129 129 129 126 126 126 130 130 130 139 139 139 141 141 141 131 131 131 128 128 128 130 130 130 133 133 133 132 132 132 122 122 122 120 120 120 127 127 127 127 127 127 120 120 120 114 114 114 121 121 121 130 130 130 124 124 124 119 119 119 118 118 118 116 116 116 118 118 118 125 125 125 131 131 131 130 130 130 128 128 128 123 123 123 118 118 118 125 125 125 133 133 133 133 133 133 133 133 133 133 133 133 133 133 133 135 135 135 137 137 137 134 134 134 122 122 122 115 115 115 120 120 120 125 125 125 131 131 131 139 139 139 137 137 137 133 133 133 138 138 138 142 142 142 139 139 139 127 127 127 119 119 119 130 130 130 135 135 135 125 125 125 124 124 124 128 128 128 125 125 125 121 121 121 125 125 125 128 128 128 131 131 131 136 136 136 131 131 131 126 126 126 130 130 130 133 133 133 130 130 130 125 125 125 125 125 125 133 133 133 133 133 133 122 122 122 119 119 119 118 118 118 116 116 116 126 126 126 132 132 132 128 128 128 126 126 126 129 129 129 136 136 136 137 137 137 132 132 132 125 125 125 120 120 120 126 126 126 130 130 130 126 126 126 124 124 124 124 124 124 120 120 120 121 121 121 133 133 133 139 139 139 132 132 132 124 124 124 126 126 126 127 127 127 126 126 126 128 128 128 129 129 129 128 128 128 128 128 128 131 131 131 131 131 131 132 132 132 150 150 150 177 177 177 183 183 183 175 175 175 169 169 169 170 170 170 175 175 175 182 182 182 183 183 183 180 180 180 181 181 181 186 186 186 187 187 187 179 179 179 180 180 180 184 184 184 181 181 181 186 186 186 189 189 189 178 178 178 173 173 173 178 178 178 179 179 179 180 180 180 187 187 187 189 189 189 181 181 181 180 180 180 181 181 181 175 175 175 175 175 175 177 177 177 177 177 177 185 185 185 194 194 194 192 192 192 185 185 185 180 180 180 182 182 182 187 187 187 183 183 183 179 179 179 181 181 181 178 178 178 177 177 177 184 184 184 189 189 189 188 188 188 181 181 181 179 179 179 186 186 186 189 189 189 187 187 187 183 183 183 173 173 173 174 174 174 188 188 188 192 192 192 193 193 193 188 188 188 179 179 179 162 162 162 132 132 132 121 121 121 125 125 125 124 124 124 129 129 129 130 130 130 123 123 123 127 127 127 127 127 127 121 121 121 129 129 129 138 138 138 138 138 138 133 133 133 123 123 123 116 116 116 118 118 118 123 123 123 0 0 0 
0 0 0 127 127 127 132 132 132 137 137 137 134 134 134 137 137 137 141 141 141 135 135 135 126 126 126 125 125 125 129 129 129 136 136 136 140 140 140 135 135 135 126 126 126 122 122 122 130 130 130 137 137 137 130 130 130 126 126 126 129 129 129 136 136 136 136 136 136 126 126 126 127 127 127 135 135 135 130 130 130 120 120 120 114 114 114 123 123 123 130 130 130 123 123 123 120 120 120 120 120 120 122 122 122 131 131 131 137 137 137 139 139 139 139 139 139 136 136 136 127 127 127 119 119 119 126 126 126 132 132 132 136 136 136 141 141 141 139 139 139 135 135 135 135 135 135 135 135 135 131 131 131 122 122 122 120 120 120 132 132 132 136 136 136 132 132 132 132 132 132 132 132 132 134 134 134 139 139 139 143 143 143 140 140 140 130 130 130 124 124 124 130 130 130 129 129 129 121 121 121 124 124 124 134 134 134 134 134 134 127 127 127 123 123 123 127 127 127 138 138 138 140 140 140 132 132 132 129 129 129 129 129 129 128 128 128 129 129 129 129 129 129 132 132 132 140 140 140 135 135 135 126 126 126 127 127 127 121 121 121 116 116 116 125 125 125 135 135 135 132 132 132 121 121 121 122 122 122 128 128 128 130 130 130 128 128 128 123 123 123 121 121 121 122 122 122 123 123 123 124 124 124 126 126 126 126 126 126 127 127 127 129 129 129 132 132 132 136 136 136 131 131 131 126 126 126 129 129 129 125 125 125 118 118 118 115 115 115 123 123 123 129 129 129 123 123 123 116 116 116 120 120 120 127 127 127 150 150 150 189 189 189 204 204 204 199 199 199 198 198 198 199 199 199 198 198 198 200 200 200 196 196 196 193 193 193 196 196 196 203 203 203 208 208 208 198 198 198 196 196 196 201 201 201 197 197 197 197 197 197 205 205 205 205 205 205 197 197 197 197 197 197 196 196 196 200 200 200 209 209 209 207 207 207 202 202 202 204 204 204 208 208 208 202 202 202 194 194 194 191 191 191 195 195 195 204 204 204 210 210 210 206 206 206 201 201 201 198 198 198 195 195 195 197 197 197 199 199 199 199 199 199 198 198 198 197 197 197 199 199 199 198 198 198 202 202 202 208 208 208 204 204 204 202 202 202 211 211 211 210 210 210 200 200 200 197 197 197 192 192 192 195 195 195 206 206 206 206 206 206 205 205 205 200 200 200 194 194 194 182 182 182 149 149 149 126 126 126 122 122 122 123 123 123 130 130 130 127 127 127 122 122 122 129 129 129 129 129 129 118 118 118 122 122 122 132 132 132 136 136 136 134 134 134 124 124 124 121 121 121 125 125 125 126 126 126 0 0 0 
0 0 0 125 125 125 125 125 125 124 124 124 122 122 122 133 133 133 136 136 136 126 126 126 124 124 124 121 121 121 117 117 117 125 125 125 137 137 137 140 140 140 131 131 131 122 122 122 124 124 124 128 128 128 125 125 125 123 123 123 123 123 123 128 128 128 129 129 129 127 127 127 137 137 137 141 141 141 133 133 133 122 122 122 120 120 120 132 132 132 139 139 139 131 131 131 127 127 127 125 125 125 128 128 128 137 137 137 140 140 140 141 141 141 140 140 140 133 133 133 128 128 128 128 128 128 132 132 132 130 130 130 129 129 129 137 137 137 136 136 136 130 130 130 130 130 130 131 131 131 126 126 126 122 122 122 124 124 124 136 136 136 138 138 138 127 127 127 124 124 124 130 130 130 130 130 130 128 128 128 134 134 134 138 138 138 136 136 136 134 134 134 129 129 129 122 122 122 121 121 121 127 127 127 129 129 129 128 128 128 126 126 126 122 122 122 125 125 125 135 135 135 137 137 137 131 131 131 129 129 129 127 127 127 119 119 119 121 121 121 131 131 131 133 133 133 132 132 132 125 125 125 124 124 124 128 128 128 128 128 128 128 128 128 128 128 128 131 131 131 129 129 129 119 119 119 123 123 123 130 130 130 130 130 130 130 130 130 126 126 126 121 121 121 118 118 118 116 116 116 122 122 122 129 129 129 122 122 122 120 120 120 125 125 125 129 129 129 132 132 132 127 127 127 125 125 125 127 127 127 121 121 121 114 114 114 114 114 114 122 122 122 127 127 127 123 123 123 116 116 116 121 121 121 132 132 132 150 150 150 186 186 186 205 205 205 200 200 200 201 201 201 206 206 206 207 207 207 204 204 204 193 193 193 190 190 190 196 196 196 198 198 198 203 203 203 209 209 209 205 205 205 201 201 201 196 196 196 196 196 196 206 206 206 207 207 207 198 198 198 194 194 194 198 198 198 204 204 204 209 209 209 208 208 208 208 208 208 210 210 210 210 210 210 206 206 206 199 199 199 195 195 195 200 200 200 206 206 206 204 204 204 199 199 199 198 198 198 197 197 197 193 193 193 196 196 196 203 203 203 205 205 205 203 203 203 204 204 204 208 208 208 198 198 198 191 191 191 197 197 197 202 202 202 205 205 205 210 210 210 209 209 209 201 201 201 197 197 197 199 199 199 203 203 203 203 203 203 197 197 197 199 199 199 199 199 199 193 193 193 182 182 182 153 153 153 126 126 126 120 120 120 125 125 125 126 126 126 123 123 123 127 127 127 135 135 135 131 131 131 123 123 123 127 127 127 128 128 128 129 129 129 132 132 132 127 127 127 125 125 125 131 131 131 131 131 131 0 0 0 
0 0 0 130 130 130 126 126 126 122 122 122 119 119 119 127 127 127 130 130 130 124 124 124 123 123 123 118 118 118 114 114 114 117 117 117 123 123 123 129 129 129 129 129 129 129 129 129 128 128 128 125 125 125 122 122 122 119 119 119 114 114 114 115 115 115 118 118 118 126 126 126 136 136 136 135 135 135 131 131 131 123 123 123 121 121 121 135 135 135 143 143 143 136 136 136 130 130 130 130 130 130 135 135 135 137 137 137 138 138 138 142 142 142 135 135 135 120 120 120 119 119 119 126 126 126 130 130 130 127 127 127 125 125 125 125 125 125 126 126 126 127 127 127 126 126 126 129 129 129 126 126 126 122 122 122 121 121 121 125 125 125 125 125 125 116 116 116 115 115 115 126 126 126 127 127 127 120 120 120 122 122 122 128 128 128 134 134 134 138 138 138 129 129 129 119 119 119 125 125 125 133 133 133 127 127 127 118 118 118 119 119 119 120 120 120 118 118 118 123 123 123 128 128 128 127 127 127 124 124 124 124 124 124 119 119 119 123 123 123 133 133 133 130 130 130 122 122 122 120 120 120 125 125 125 124 124 124 128 128 128 140 140 140 139 139 139 129 129 129 122 122 122 123 123 123 130 130 130 132 132 132 130 130 130 129 129 129 128 128 128 127 127 127 123 123 123 117 117 117 119 119 119 127 127 127 121 121 121 110 110 110 112 112 112 119 119 119 122 122 122 119 119 119 119 119 119 118 118 118 116 116 116 118 118 118 125 125 125 129 129 129 131 131 131 131 131 131 127 127 127 127 127 127 136 136 136 153 153 153 183 183 183 198 198 198 195 195 195 196 196 196 200 200 200 201 201 201 206 206 206 202 202 202 191 191 191 191 191 191 192 192 192 198 198 198 210 210 210 206 206 206 197 197 197 199 199 199 207 207 207 208 208 208 200 200 200 191 191 191 192 192 192 200 200 200 206 206 206 202 202 202 199 199 199 202 202 202 199 199 199 196 196 196 199 199 199 204 204 204 207 207 207 208 208 208 208 208 208 204 204 204 202 202 202 197 197 197 194 194 194 197 197 197 197 197 197 195 195 195 197 197 197 206 206 206 214 214 214 216 216 216 201 201 201 185 185 185 190 190 190 201 201 201 206 206 206 205 205 205 208 208 208 207 207 207 203 203 203 207 207 207 206 206 206 196 196 196 191 191 191 196 196 196 197 197 197 195 195 195 180 180 180 145 145 145 120 120 120 123 123 123 131 131 131 127 127 127 122 122 122 131 131 131 140 140 140 135 135 135 131 131 131 135 135 135 131 131 131 130 130 130 133 133 133 125 125 125 128 128 128 139 139 139 135 135 135 0 0 0 
0 0 0 126 126 126 124 124 124 123 123 123 127 127 127 132 132 132 132 132 132 127 127 127 121 121 121 118 118 118 123 123 123 123 123 123 123 123 123 125 125 125 124 124 124 131 131 131 136 136 136 131 131 131 128 128 128 124 124 124 117 117 117 117 117 117 123 123 123 132 132 132 133 133 133 126 126 126 127 127 127 126 126 126 123 123 123 132 132 132 139 139 139 135 135 135 131 131 131 135 135 135 143 143 143 142 142 142 140 140 140 137 137 137 124 124 124 112 112 112 115 115 115 125 125 125 132 132 132 133 133 133 130 130 130 122 122 122 120 120 120 125 125 125 130 130 130 135 135 135 133 133 133 127 127 127 126 126 126 119 119 119 114 114 114 117 117 117 122 122 122 130 130 130 132 132 132 123 123 123 119 119 119 124 124 124 127 127 127 131 131 131 126 126 126 117 117 117 121 121 121 128 128 128 127 127 127 118 118 118 118 118 118 119 119 119 116 116 116 123 123 123 134 134 134 135 135 135 129 129 129 125 125 125 125 125 125 128 128 128 126 126 126 120 120 120 118 118 118 118 118 118 123 123 123 128 128 128 131 131 131 138 138 138 139 139 139 129 129 129 122 122 122 124 124 124 126 126 126 130 130 130 133 133 133 129 129 129 128 128 128 130 130 130 126 126 126 121 121 121 122 122 122 129 129 129 128 128 128 119 119 119 114 114 114 116 116 116 119 119 119 119 119 119 118 118 118 113 113 113 110 110 110 114 114 114 126 126 126 131 131 131 133 133 133 134 134 134 124 124 124 121 121 121 133 133 133 155 155 155 181 181 181 193 193 193 194 194 194 194 194 194 192 192 192 192 192 192 199 199 199 204 204 204 196 196 196 192 192 192 195 195 195 198 198 198 201 201 201 196 196 196 198 198 198 207 207 207 209 209 209 201 201 201 192 192 192 192 192 192 200 200 200 202 202 202 199 199 199 194 194 194 194 194 194 197 197 197 194 194 194 192 192 192 200 200 200 208 208 208 206 206 206 199 199 199 202 202 202 205 205 205 201 201 201 191 191 191 187 187 187 194 194 194 197 197 197 191 191 191 191 191 191 200 200 200 209 209 209 215 215 215 209 209 209 197 197 197 197 197 197 200 200 200 199 199 199 201 201 201 205 205 205 204 204 204 208 208 208 213 213 213 204 204 204 192 192 192 192 192 192 195 195 195 193 193 193 196 196 196 182 182 182 139 139 139 113 113 113 119 119 119 130 130 130 131 131 131 123 123 123 122 122 122 130 130 130 132 132 132 134 134 134 138 138 138 134 134 134 133 133 133 132 132 132 124 124 124 131 131 131 142 142 142 137 137 137 0 0 0 
0 0 0 124 124 124 129 129 129 131 131 131 138 138 138 138 138 138 128 128 128 121 121 121 115 115 115 118 118 118 129 129 129 131 131 131 131 131 131 131 131 131 124 124 124 127 127 127 136 136 136 135 135 135 134 134 134 132 132 132 129 129 129 129 129 129 132 132 132 136 136 136 136 136 136 130 130 130 130 130 130 132 132 132 126 126 126 122 122 122 126 126 126 133 133 133 134 134 134 136 136 136 140 140 140 142 142 142 139 139 139 130 130 130 117 117 117 109 109 109 115 115 115 127 127 127 136 136 136 138 138 138 136 136 136 129 129 129 123 123 123 126 126 126 134 134 134 137 137 137 130 130 130 128 128 128 128 128 128 117 117 117 114 114 114 129 129 129 139 139 139 137 137 137 131 131 131 124 124 124 124 124 124 130 130 130 129 129 129 128 128 128 120 120 120 113 113 113 113 113 113 114 114 114 120 120 120 122 122 122 118 118 118 119 119 119 123 123 123 131 131 131 138 138 138 135 135 135 130 130 130 125 125 125 126 126 126 125 125 125 116 116 116 115 115 115 119 119 119 118 118 118 124 124 124 137 137 137 139 139 139 137 137 137 136 136 136 129 129 129 122 122 122 121 121 121 128 128 128 140 140 140 142 142 142 129 129 129 118 118 118 120 120 120 124 124 124 123 123 123 127 127 127 131 131 131 131 131 131 130 130 130 124 124 124 123 123 123 127 127 127 123 123 123 117 117 117 115 115 115 114 114 114 119 119 119 130 130 130 137 137 137 137 137 137 135 135 135 128 128 128 126 126 126 133 133 133 151 151 151 178 178 178 192 192 192 195 195 195 194 194 194 194 194 194 198 198 198 200 200 200 200 200 200 199 199 199 197 197 197 200 200 200 203 203 203 197 197 197 193 193 193 198 198 198 202 202 202 196 196 196 190 190 190 191 191 191 198 198 198 202 202 202 197 197 197 194 194 194 193 193 193 195 195 195 196 196 196 198 198 198 200 200 200 203 203 203 205 205 205 195 195 195 189 189 189 198 198 198 206 206 206 202 202 202 193 193 193 187 187 187 192 192 192 202 202 202 202 202 202 198 198 198 196 196 196 197 197 197 207 207 207 212 212 212 209 209 209 203 203 203 198 198 198 196 196 196 199 199 199 198 198 198 196 196 196 205 205 205 208 208 208 203 203 203 198 198 198 195 195 195 194 194 194 195 195 195 202 202 202 189 189 189 145 145 145 117 117 117 116 116 116 123 123 123 129 129 129 121 121 121 114 114 114 117 117 117 124 124 124 132 132 132 136 136 136 132 132 132 131 131 131 133 133 133 130 130 130 130 130 130 138 138 138 137 137 137 0 0 0 
0 0 0 128 128 128 136 136 136 139 139 139 145 145 145 143 143 143 127 127 127 115 115 115 112 112 112 116 116 116 126 126 126 127 127 127 131 131 131 135 135 135 128 128 128 123 123 123 126 126 126 129 129 129 133 133 133 135 135 135 134 134 134 127 127 127 122 122 122 124 124 124 132 132 132 132 132 132 128 128 128 131 131 131 127 127 127 118 118 118 120 120 120 126 126 126 131 131 131 132 132 132 135 135 135 138 138 138 138 138 138 136 136 136 130 130 130 118 118 118 117 117 117 125 125 125 126 126 126 125 125 125 129 129 129 131 131 131 125 125 125 124 124 124 130 130 130 131 131 131 129 129 129 129 129 129 124 124 124 116 116 116 118 118 118 133 133 133 141 141 141 131 131 131 122 122 122 122 122 122 126 126 126 129 129 129 132 132 132 131 131 131 120 120 120 114 114 114 116 116 116 116 116 116 123 123 123 130 130 130 122 122 122 116 116 116 125 125 125 133 133 133 130 130 130 124 124 124 126 126 126 128 128 128 126 126 126 121 121 121 121 121 121 124 124 124 119 119 119 118 118 118 129 129 129 138 138 138 139 139 139 138 138 138 138 138 138 130 130 130 122 122 122 125 125 125 136 136 136 142 142 142 141 141 141 129 129 129 114 114 114 115 115 115 122 122 122 118 118 118 119 119 119 125 125 125 126 126 126 128 128 128 128 128 128 130 130 130 129 129 129 123 123 123 120 120 120 120 120 120 124 124 124 130 130 130 137 137 137 143 143 143 144 144 144 139 139 139 131 131 131 134 134 134 139 139 139 152 152 152 179 179 179 194 194 194 197 197 197 199 199 199 202 202 202 203 203 203 197 197 197 193 193 193 195 195 195 193 193 193 196 196 196 206 206 206 206 206 206 199 199 199 196 196 196 196 196 196 191 191 191 187 187 187 191 191 191 199 199 199 200 200 200 196 196 196 198 198 198 197 197 197 193 193 193 192 192 192 198 198 198 202 202 202 203 203 203 203 203 203 194 194 194 193 193 193 206 206 206 215 215 215 211 211 211 201 201 201 193 193 193 195 195 195 204 204 204 205 205 205 200 200 200 193 193 193 192 192 192 203 203 203 208 208 208 209 209 209 208 208 208 204 204 204 200 200 200 197 197 197 193 193 193 194 194 194 202 202 202 203 203 203 201 201 201 201 201 201 197 197 197 192 192 192 192 192 192 200 200 200 189 189 189 153 153 153 130 130 130 124 124 124 124 124 124 128 128 128 123 123 123 118 118 118 120 120 120 124 124 124 128 128 128 129 129 129 130 130 130 133 133 133 138 138 138 135 135 135 131 131 131 136 136 136 133 133 133 0 0 0 
0 0 0 130 130 130 135 135 135 140 140 140 146 146 146 144 144 144 128 128 128 114 114 114 112 112 112 114 114 114 123 123 123 128 128 128 129 129 129 130 130 130 125 125 125 119 119 119 120 120 120 124 124 124 129 129 129 132 132 132 128 128 128 122 122 122 119 119 119 120 120 120 128 128 128 134 134 134 128 128 128 129 129 129 130 130 130 130 130 130 127 127 127 118 118 118 118 118 118 127 127 127 135 135 135 134 134 134 130 130 130 136 136 136 140 140 140 133 133 133 127 127 127 122 122 122 116 116 116 114 114 114 120 120 120 129 129 129 129 129 129 128 128 128 130 130 130 132 132 132 134 134 134 132 132 132 127 127 127 125 125 125 125 125 125 129 129 129 132 132 132 127 127 127 123 123 123 129 129 129 130 130 130 127 127 127 135 135 135 141 141 141 132 132 132 124 124 124 125 125 125 127 127 127 134 134 134 138 138 138 130 130 130 122 122 122 129 129 129 134 134 134 128 128 128 127 127 127 132 132 132 134 134 134 125 125 125 121 121 121 132 132 132 131 131 131 118 118 118 117 117 117 122 122 122 124 124 124 126 126 126 131 131 131 135 135 135 130 130 130 125 125 125 130 130 130 133 133 133 129 129 129 132 132 132 134 134 134 122 122 122 119 119 119 124 124 124 118 118 118 115 115 115 122 122 122 128 128 128 129 129 129 130 130 130 134 134 134 129 129 129 124 124 124 126 126 126 126 126 126 129 129 129 130 130 130 134 134 134 139 139 139 139 139 139 137 137 137 128 128 128 127 127 127 137 137 137 158 158 158 188 188 188 200 200 200 196 196 196 198 198 198 198 198 198 194 194 194 190 190 190 190 190 190 194 194 194 190 190 190 193 193 193 206 206 206 209 209 209 205 205 205 203 203 203 205 205 205 201 201 201 193 193 193 194 194 194 199 199 199 200 200 200 199 199 199 202 202 202 204 204 204 200 200 200 195 195 195 199 199 199 205 205 205 208 208 208 206 206 206 199 199 199 195 195 195 203 203 203 215 215 215 212 212 212 198 198 198 191 191 191 193 193 193 198 198 198 202 202 202 203 203 203 198 198 198 196 196 196 201 201 201 201 201 201 201 201 201 203 203 203 203 203 203 199 199 199 195 195 195 196 196 196 201 201 201 207 207 207 203 203 203 195 195 195 197 197 197 197 197 197 188 188 188 184 184 184 193 193 193 184 184 184 150 150 150 133 133 133 131 131 131 129 129 129 127 127 127 123 123 123 121 121 121 125 125 125 125 125 125 124 124 124 129 129 129 129 129 129 130 130 130 132 132 132 128 128 128 128 128 128 132 132 132 131 131 131 0 0 0 
0 0 0 136 136 136 135 135 135 136 136 136 144 144 144 142 142 142 127 127 127 119 119 119 117 117 117 116 116 116 128 128 128 135 135 135 129 129 129 123 123 123 120 120 120 120 120 120 124 124 124 128 128 128 126 126 126 122 122 122 122 122 122 128 128 128 132 132 132 132 132 132 134 134 134 140 140 140 140 140 140 135 135 135 134 134 134 137 137 137 133 133 133 120 120 120 115 115 115 126 126 126 133 133 133 125 125 125 123 123 123 133 133 133 136 136 136 135 135 135 135 135 135 123 123 123 114 114 114 114 114 114 119 119 119 126 126 126 129 129 129 135 135 135 134 134 134 129 129 129 130 130 130 130 130 130 130 130 130 135 135 135 134 134 134 129 129 129 129 129 129 132 132 132 134 134 134 137 137 137 134 134 134 129 129 129 134 134 134 142 142 142 143 143 143 136 136 136 124 124 124 124 124 124 135 135 135 142 142 142 137 137 137 132 132 132 134 134 134 131 131 131 126 126 126 129 129 129 133 133 133 132 132 132 122 122 122 122 122 122 135 135 135 130 130 130 120 120 120 122 122 122 119 119 119 116 116 116 121 121 121 128 128 128 133 133 133 128 128 128 122 122 122 124 124 124 126 126 126 121 121 121 127 127 127 134 134 134 126 126 126 121 121 121 125 125 125 127 127 127 124 124 124 122 122 122 128 128 128 131 131 131 130 130 130 134 134 134 134 134 134 129 129 129 132 132 132 133 133 133 132 132 132 132 132 132 136 136 136 136 136 136 134 134 134 139 139 139 134 134 134 124 124 124 128 128 128 150 150 150 187 187 187 203 203 203 194 194 194 189 189 189 190 190 190 194 194 194 196 196 196 197 197 197 200 200 200 194 194 194 194 194 194 201 201 201 202 202 202 206 206 206 213 213 213 209 209 209 202 202 202 201 201 201 200 200 200 200 200 200 196 196 196 189 189 189 193 193 193 204 204 204 207 207 207 197 197 197 197 197 197 207 207 207 206 206 206 202 202 202 200 200 200 193 193 193 192 192 192 202 202 202 206 206 206 198 198 198 194 194 194 193 193 193 197 197 197 206 206 206 211 211 211 207 207 207 201 201 201 198 198 198 196 196 196 193 193 193 193 193 193 199 199 199 199 199 199 191 191 191 192 192 192 199 199 199 201 201 201 194 194 194 189 189 189 198 198 198 200 200 200 192 192 192 190 190 190 196 196 196 177 177 177 137 137 137 126 126 126 132 132 132 130 130 130 125 125 125 120 120 120 121 121 121 126 126 126 126 126 126 125 125 125 131 131 131 130 130 130 127 127 127 123 123 123 119 119 119 124 124 124 128 128 128 130 130 130 0 0 0 
0 0 0 135 135 135 132 132 132 131 131 131 142 142 142 142 142 142 129 129 129 127 127 127 128 128 128 125 125 125 131 131 131 136 136 136 129 129 129 123 123 123 123 123 123 125 125 125 129 129 129 131 131 131 127 127 127 121 121 121 122 122 122 128 128 128 132 132 132 133 133 133 132 132 132 136 136 136 140 140 140 141 141 141 138 138 138 133 133 133 131 131 131 128 128 128 125 125 125 132 132 132 135 135 135 125 125 125 121 121 121 127 127 127 129 129 129 134 134 134 137 137 137 127 127 127 118 118 118 116 116 116 123 123 123 128 128 128 129 129 129 136 136 136 136 136 136 129 129 129 130 130 130 132 132 132 130 130 130 136 136 136 137 137 137 132 132 132 129 129 129 132 132 132 135 135 135 137 137 137 134 134 134 127 127 127 123 123 123 126 126 126 136 136 136 135 135 135 119 119 119 119 119 119 131 131 131 137 137 137 134 134 134 129 129 129 126 126 126 121 121 121 121 121 121 125 125 125 126 126 126 124 124 124 120 120 120 124 124 124 130 130 130 123 123 123 124 124 124 133 133 133 133 133 133 131 131 131 130 130 130 131 131 131 133 133 133 127 127 127 118 118 118 117 117 117 124 124 124 126 126 126 128 128 128 129 129 129 126 126 126 125 125 125 125 125 125 130 130 130 131 131 131 125 125 125 124 124 124 130 130 130 130 130 130 131 131 131 129 129 129 124 124 124 135 135 135 140 140 140 137 137 137 138 138 138 141 141 141 141 141 141 140 140 140 143 143 143 139 139 139 129 129 129 128 128 128 144 144 144 180 180 180 203 203 203 200 200 200 194 194 194 198 198 198 208 208 208 211 211 211 209 209 209 206 206 206 199 199 199 197 197 197 199 199 199 197 197 197 202 202 202 210 210 210 204 204 204 198 198 198 203 203 203 202 202 202 196 196 196 190 190 190 184 184 184 191 191 191 204 204 204 203 203 203 193 193 193 197 197 197 203 203 203 196 196 196 194 194 194 198 198 198 191 191 191 187 187 187 195 195 195 202 202 202 198 198 198 193 193 193 196 196 196 200 200 200 204 204 204 207 207 207 206 206 206 204 204 204 205 205 205 198 198 198 188 188 188 191 191 191 202 202 202 204 204 204 193 193 193 187 187 187 188 188 188 187 187 187 187 187 187 194 194 194 203 203 203 205 205 205 199 199 199 196 196 196 194 194 194 172 172 172 133 133 133 119 119 119 126 126 126 131 131 131 129 129 129 124 124 124 128 128 128 134 134 134 125 125 125 118 118 118 123 123 123 129 129 129 131 131 131 129 129 129 128 128 128 131 131 131 129 129 129 123 123 123 0 0 0 
0 0 0 122 122 122 123 123 123 123 123 123 133 133 133 133 133 133 123 123 123 124 124 124 129 129 129 128 128 128 128 128 128 132 132 132 132 132 132 127 127 127 123 123 123 124 124 124 129 129 129 128 128 128 126 126 126 124 124 124 123 123 123 125 125 125 128 128 128 128 128 128 125 125 125 127 127 127 129 129 129 134 134 134 137 137 137 129 129 129 125 125 125 130 130 130 136 136 136 139 139 139 138 138 138 128 128 128 119 119 119 120 120 120 126 126 126 133 133 133 133 133 133 127 127 127 123 123 123 119 119 119 123 123 123 131 131 131 131 131 131 133 133 133 137 137 137 138 138 138 138 138 138 136 136 136 133 133 133 132 132 132 134 134 134 131 131 131 129 129 129 133 133 133 138 138 138 139 139 139 132 132 132 125 125 125 119 119 119 115 115 115 122 122 122 127 127 127 120 120 120 122 122 122 127 127 127 127 127 127 124 124 124 122 122 122 119 119 119 117 117 117 121 121 121 123 123 123 122 122 122 123 123 123 121 121 121 124 124 124 123 123 123 117 117 117 125 125 125 136 136 136 138 138 138 140 140 140 136 136 136 129 129 129 128 128 128 125 125 125 118 118 118 117 117 117 127 127 127 134 134 134 129 129 129 123 123 123 123 123 123 126 126 126 129 129 129 130 130 130 133 133 133 134 134 134 133 133 133 136 136 136 136 136 136 128 128 128 120 120 120 118 118 118 130 130 130 141 141 141 139 139 139 138 138 138 144 144 144 145 145 145 139 139 139 136 136 136 133 133 133 131 131 131 135 135 135 152 152 152 183 183 183 202 202 202 208 208 208 209 209 209 205 205 205 206 206 206 208 208 208 209 209 209 205 205 205 200 200 200 201 201 201 204 204 204 200 200 200 196 196 196 198 198 198 201 201 201 204 204 204 207 207 207 201 201 201 196 196 196 194 194 194 194 194 194 203 203 203 204 204 204 193 193 193 190 190 190 194 194 194 198 198 198 189 189 189 187 187 187 194 194 194 188 188 188 187 187 187 200 200 200 206 206 206 197 197 197 192 192 192 197 197 197 195 195 195 191 191 191 194 194 194 202 202 202 207 207 207 210 210 210 202 202 202 191 191 191 194 194 194 200 200 200 203 203 203 199 199 199 193 193 193 191 191 191 186 186 186 190 190 190 200 200 200 204 204 204 204 204 204 199 199 199 196 196 196 194 194 194 176 176 176 141 141 141 116 116 116 118 118 118 132 132 132 134 134 134 132 132 132 136 136 136 132 132 132 117 117 117 113 113 113 119 119 119 128 128 128 137 137 137 143 143 143 142 142 142 140 140 140 129 129 129 120 120 120 0 0 0 
0 0 0 119 119 119 121 121 121 122 122 122 122 122 122 118 118 118 119 119 119 123 123 123 125 125 125 128 128 128 127 127 127 128 128 128 135 135 135 134 134 134 127 127 127 129 129 129 134 134 134 128 128 128 123 123 123 124 124 124 122 122 122 124 124 124 132 132 132 130 130 130 126 126 126 128 128 128 123 123 123 124 124 124 135 135 135 132 132 132 122 122 122 123 123 123 135 135 135 142 142 142 137 137 137 127 127 127 123 123 123 126 126 126 127 127 127 128 128 128 130 130 130 131 131 131 130 130 130 124 124 124 124 124 124 130 130 130 130 130 130 127 127 127 132 132 132 138 138 138 140 140 140 134 134 134 128 128 128 126 126 126 127 127 127 128 128 128 128 128 128 131 131 131 137 137 137 139 139 139 132 132 132 124 124 124 120 120 120 118 118 118 125 125 125 130 130 130 129 129 129 131 131 131 133 133 133 130 130 130 125 125 125 125 125 125 126 126 126 121 121 121 119 119 119 123 123 123 128 128 128 131 131 131 127 127 127 126 126 126 123 123 123 121 121 121 126 126 126 128 128 128 128 128 128 129 129 129 129 129 129 124 124 124 122 122 122 124 124 124 125 125 125 124 124 124 124 124 124 130 130 130 126 126 126 119 119 119 114 114 114 117 117 117 126 126 126 127 127 127 127 127 127 136 136 136 141 141 141 141 141 141 138 138 138 125 125 125 122 122 122 124 124 124 125 125 125 134 134 134 134 134 134 129 129 129 136 136 136 137 137 137 127 127 127 125 125 125 125 125 125 125 125 125 134 134 134 153 153 153 184 184 184 201 201 201 209 209 209 212 212 212 205 205 205 200 200 200 199 199 199 200 200 200 198 198 198 192 192 192 197 197 197 209 209 209 209 209 209 199 199 199 197 197 197 200 200 200 205 205 205 208 208 208 201 201 201 200 200 200 199 199 199 201 201 201 210 210 210 201 201 201 184 184 184 184 184 184 192 192 192 197 197 197 190 190 190 188 188 188 195 195 195 194 194 194 195 195 195 200 200 200 206 206 206 204 204 204 194 194 194 192 192 192 193 193 193 189 189 189 189 189 189 199 199 199 207 207 207 211 211 211 207 207 207 198 198 198 197 197 197 194 194 194 192 192 192 196 196 196 199 199 199 200 200 200 194 194 194 191 191 191 194 194 194 198 198 198 202 202 202 202 202 202 204 204 204 204 204 204 185 185 185 146 146 146 116 116 116 115 115 115 126 126 126 127 127 127 128 128 128 129 129 129 120 120 120 110 110 110 116 116 116 126 126 126 130 130 130 136 136 136 141 141 141 137 137 137 135 135 135 131 131 131 125 125 125 0 0 0 
0 0 0 129 129 129 134 134 134 128 128 128 118 118 118 118 118 118 127 127 127 132 132 132 133 133 133 133 133 133 127 127 127 125 125 125 138 138 138 138 138 138 128 128 128 133 133 133 142 142 142 137 137 137 124 124 124 124 124 124 127 127 127 128 128 128 134 134 134 130 130 130 125 125 125 130 130 130 122 122 122 119 119 119 131 131 131 132 132 132 121 121 121 117 117 117 126 126 126 135 135 135 133 133 133 129 129 129 130 130 130 130 130 130 123 123 123 124 124 124 135 135 135 137 137 137 134 134 134 131 131 131 130 130 130 136 136 136 133 133 133 126 126 126 127 127 127 127 127 127 131 131 131 131 131 131 124 124 124 120 120 120 120 120 120 127 127 127 131 131 131 127 127 127 126 126 126 134 134 134 134 134 134 128 128 128 125 125 125 127 127 127 132 132 132 134 134 134 136 136 136 139 139 139 141 141 141 140 140 140 133 133 133 130 130 130 128 128 128 117 117 117 115 115 115 123 123 123 130 130 130 133 133 133 135 135 135 130 130 130 126 126 126 128 128 128 128 128 128 123 123 123 122 122 122 120 120 120 118 118 118 121 121 121 124 124 124 126 126 126 132 132 132 132 132 132 126 126 126 126 126 126 124 124 124 120 120 120 115 115 115 114 114 114 121 121 121 121 121 121 119 119 119 126 126 126 135 135 135 139 139 139 132 132 132 119 119 119 120 120 120 124 124 124 121 121 121 124 124 124 123 123 123 120 120 120 125 125 125 128 128 128 123 123 123 127 127 127 129 129 129 127 127 127 133 133 133 151 151 151 180 180 180 196 196 196 200 200 200 202 202 202 203 203 203 204 204 204 199 199 199 195 195 195 196 196 196 189 189 189 193 193 193 210 210 210 215 215 215 209 209 209 203 203 203 198 198 198 202 202 202 208 208 208 202 202 202 200 200 200 201 201 201 207 207 207 212 212 212 199 199 199 185 185 185 186 186 186 197 197 197 199 199 199 194 194 194 199 199 199 205 205 205 204 204 204 200 200 200 195 195 195 199 199 199 204 204 204 196 196 196 192 192 192 197 197 197 196 196 196 190 190 190 191 191 191 200 200 200 211 211 211 213 213 213 204 204 204 198 198 198 193 193 193 191 191 191 194 194 194 198 198 198 197 197 197 191 191 191 189 189 189 190 190 190 196 196 196 206 206 206 210 210 210 207 207 207 201 201 201 182 182 182 149 149 149 124 124 124 118 118 118 123 123 123 124 124 124 124 124 124 124 124 124 121 121 121 118 118 118 122 122 122 124 124 124 122 122 122 127 127 127 128 128 128 121 121 121 125 125 125 131 131 131 127 127 127 0 0 0 
0 0 0 134 134 134 142 142 142 135 135 135 124 124 124 129 129 129 135 135 135 135 135 135 138 138 138 137 137 137 127 127 127 124 124 124 132 132 132 135 135 135 130 130 130 132 132 132 139 139 139 138 138 138 125 125 125 122 122 122 129 129 129 131 131 131 131 131 131 124 124 124 119 119 119 122 122 122 120 120 120 118 118 118 126 126 126 131 131 131 123 123 123 119 119 119 119 119 119 119 119 119 122 122 122 127 127 127 130 130 130 128 128 128 121 121 121 122 122 122 133 133 133 136 136 136 134 134 134 131 131 131 128 128 128 137 137 137 136 136 136 125 125 125 122 122 122 119 119 119 125 125 125 132 132 132 127 127 127 118 118 118 118 118 118 127 127 127 132 132 132 131 131 131 130 130 130 135 135 135 138 138 138 135 135 135 128 128 128 127 127 127 131 131 131 131 131 131 131 131 131 133 133 133 135 135 135 137 137 137 133 133 133 126 126 126 123 123 123 117 117 117 118 118 118 125 125 125 123 123 123 128 128 128 135 135 135 129 129 129 123 123 123 129 129 129 131 131 131 124 124 124 121 121 121 119 119 119 116 116 116 122 122 122 126 126 126 128 128 128 130 130 130 130 130 130 131 131 131 132 132 132 126 126 126 124 124 124 125 125 125 127 127 127 131 131 131 129 129 129 122 122 122 117 117 117 121 121 121 130 130 130 130 130 130 120 120 120 116 116 116 115 115 115 117 117 117 124 124 124 121 121 121 121 121 121 130 130 130 134 134 134 133 133 133 135 135 135 133 133 133 131 131 131 134 134 134 151 151 151 178 178 178 192 192 192 193 193 193 194 194 194 196 196 196 200 200 200 194 194 194 194 194 194 200 200 200 198 198 198 200 200 200 210 210 210 212 212 212 206 206 206 198 198 198 192 192 192 199 199 199 207 207 207 203 203 203 201 201 201 204 204 204 210 210 210 207 207 207 195 195 195 190 190 190 191 191 191 192 192 192 188 188 188 191 191 191 203 203 203 209 209 209 208 208 208 200 200 200 196 196 196 202 202 202 205 205 205 204 204 204 202 202 202 197 197 197 198 198 198 197 197 197 194 194 194 198 198 198 207 207 207 209 209 209 205 205 205 204 204 204 201 201 201 198 198 198 194 194 194 193 193 193 191 191 191 185 185 185 189 189 189 199 199 199 203 203 203 208 208 208 211 211 211 204 204 204 193 193 193 176 176 176 150 150 150 130 130 130 123 123 123 129 129 129 134 134 134 129 129 129 131 131 131 133 133 133 131 131 131 130 130 130 124 124 124 118 118 118 122 122 122 121 121 121 117 117 117 124 124 124 130 130 130 127 127 127 0 0 0 
0 0 0 132 132 132 142 142 142 142 142 142 133 133 133 134 134 134 136 136 136 135 135 135 136 136 136 131 131 131 126 126 126 127 127 127 128 128 128 133 133 133 138 138 138 135 135 135 129 129 129 126 126 126 120 120 120 116 116 116 121 121 121 130 130 130 129 129 129 121 121 121 118 118 118 115 115 115 119 119 119 127 127 127 134 134 134 138 138 138 131 131 131 120 120 120 116 116 116 115 115 115 117 117 117 123 123 123 126 126 126 126 126 126 124 124 124 124 124 124 130 130 130 131 131 131 131 131 131 131 131 131 126 126 126 128 128 128 127 127 127 120 120 120 115 115 115 117 117 117 124 124 124 133 133 133 132 132 132 122 122 122 123 123 123 126 126 126 130 130 130 138 138 138 138 138 138 137 137 137 141 141 141 137 137 137 123 123 123 120 120 120 129 129 129 132 132 132 127 127 127 125 125 125 128 128 128 132 132 132 130 130 130 123 123 123 124 124 124 126 126 126 131 131 131 135 135 135 127 127 127 124 124 124 128 128 128 126 126 126 121 121 121 125 125 125 132 132 132 131 131 131 125 125 125 117 117 117 114 114 114 120 120 120 125 125 125 129 129 129 126 126 126 120 120 120 128 128 128 134 134 134 125 125 125 119 119 119 128 128 128 137 137 137 136 136 136 133 133 133 127 127 127 120 120 120 117 117 117 124 124 124 135 135 135 132 132 132 121 121 121 112 112 112 119 119 119 129 129 129 127 127 127 128 128 128 135 135 135 136 136 136 136 136 136 133 133 133 131 131 131 131 131 131 134 134 134 151 151 151 180 180 180 190 190 190 190 190 190 192 192 192 190 190 190 192 192 192 192 192 192 195 195 195 202 202 202 205 205 205 208 208 208 209 209 209 202 202 202 194 194 194 187 187 187 183 183 183 193 193 193 200 200 200 199 199 199 199 199 199 203 203 203 204 204 204 193 193 193 188 188 188 194 194 194 194 194 194 190 190 190 186 186 186 187 187 187 194 194 194 203 203 203 209 209 209 205 205 205 202 202 202 206 206 206 203 203 203 203 203 203 203 203 203 196 196 196 198 198 198 202 202 202 201 201 201 205 205 205 202 202 202 193 193 193 194 194 194 202 202 202 202 202 202 196 196 196 192 192 192 196 196 196 200 200 200 193 193 193 189 189 189 200 200 200 207 207 207 204 204 204 203 203 203 202 202 202 196 196 196 181 181 181 149 149 149 124 124 124 118 118 118 127 127 127 134 134 134 130 130 130 131 131 131 132 132 132 128 128 128 131 131 131 131 131 131 126 126 126 126 126 126 123 123 123 120 120 120 125 125 125 127 127 127 128 128 128 0 0 0 
0 0 0 135 135 135 142 142 142 144 144 144 141 141 141 135 135 135 133 133 133 139 139 139 137 137 137 126 126 126 122 122 122 126 126 126 129 129 129 133 133 133 136 136 136 130 130 130 118 118 118 114 114 114 115 115 115 115 115 115 118 118 118 127 127 127 128 128 128 121 121 121 119 119 119 116 116 116 123 123 123 132 132 132 136 136 136 139 139 139 135 135 135 124 124 124 120 120 120 123 123 123 122 122 122 120 120 120 121 121 121 122 122 122 121 121 121 127 127 127 135 135 135 130 130 130 126 126 126 131 131 131 130 130 130 124 124 124 122 122 122 121 121 121 118 118 118 118 118 118 121 121 121 129 129 129 134 134 134 129 129 129 126 126 126 126 126 126 131 131 131 138 138 138 131 131 131 128 128 128 138 138 138 139 139 139 125 125 125 120 120 120 131 131 131 136 136 136 129 129 129 121 121 121 124 124 124 130 130 130 129 129 129 125 125 125 126 126 126 128 128 128 133 133 133 140 140 140 137 137 137 129 129 129 127 127 127 124 124 124 120 120 120 126 126 126 134 134 134 139 139 139 136 136 136 122 122 122 115 115 115 117 117 117 122 122 122 130 130 130 130 130 130 121 121 121 127 127 127 133 133 133 123 123 123 120 120 120 131 131 131 136 136 136 130 130 130 124 124 124 128 128 128 132 132 132 130 130 130 131 131 131 138 138 138 140 140 140 129 129 129 117 117 117 123 123 123 130 130 130 127 127 127 128 128 128 132 132 132 134 134 134 129 129 129 127 127 127 134 134 134 137 137 137 137 137 137 150 150 150 179 179 179 193 193 193 192 192 192 190 190 190 188 188 188 188 188 188 191 191 191 195 195 195 201 201 201 210 210 210 211 211 211 205 205 205 199 199 199 195 195 195 190 190 190 183 183 183 189 189 189 200 200 200 200 200 200 201 201 201 199 199 199 192 192 192 186 186 186 193 193 193 207 207 207 208 208 208 205 205 205 202 202 202 195 195 195 196 196 196 208 208 208 212 212 212 206 206 206 201 201 201 200 200 200 194 194 194 193 193 193 200 200 200 198 198 198 199 199 199 199 199 199 199 199 199 205 205 205 200 200 200 191 191 191 192 192 192 196 196 196 194 194 194 190 190 190 194 194 194 203 203 203 210 210 210 203 203 203 191 191 191 193 193 193 204 204 204 203 203 203 200 200 200 200 200 200 199 199 199 183 183 183 143 143 143 118 118 118 118 118 118 123 123 123 130 130 130 128 128 128 125 125 125 124 124 124 120 120 120 125 125 125 132 132 132 129 129 129 129 129 129 133 133 133 132 132 132 129 129 129 125 125 125 127 127 127 0 0 0 
0 0 0 135 135 135 140 140 140 140 140 140 142 142 142 134 134 134 126 126 126 132 132 132 135 135 135 131 131 131 122 122 122 116 116 116 122 122 122 132 132 132 133 133 133 126 126 126 117 117 117 112 112 112 117 117 117 121 121 121 120 120 120 123 123 123 126 126 126 125 125 125 125 125 125 124 124 124 127 127 127 127 127 127 127 127 127 132 132 132 134 134 134 129 129 129 122 122 122 124 124 124 130 130 130 126 126 126 120 120 120 118 118 118 116 116 116 124 124 124 137 137 137 134 134 134 124 124 124 124 124 124 128 128 128 127 127 127 123 123 123 126 126 126 127 127 127 121 121 121 117 117 117 121 121 121 130 130 130 131 131 131 130 130 130 134 134 134 136 136 136 127 127 127 116 116 116 117 117 117 129 129 129 138 138 138 133 133 133 127 127 127 135 135 135 137 137 137 130 130 130 124 124 124 120 120 120 123 123 123 125 125 125 127 127 127 126 126 126 123 123 123 125 125 125 135 135 135 138 138 138 133 133 133 130 130 130 123 123 123 119 119 119 127 127 127 131 131 131 133 133 133 135 135 135 131 131 131 125 125 125 121 121 121 120 120 120 126 126 126 134 134 134 134 134 134 130 130 130 126 126 126 123 123 123 130 130 130 136 136 136 134 134 134 131 131 131 130 130 130 133 133 133 136 136 136 135 135 135 134 134 134 137 137 137 140 140 140 133 133 133 124 124 124 126 126 126 125 125 125 121 121 121 123 123 123 129 129 129 132 132 132 125 125 125 126 126 126 137 137 137 139 139 139 136 136 136 145 145 145 178 178 178 204 204 204 202 202 202 191 191 191 188 188 188 191 191 191 194 194 194 198 198 198 202 202 202 210 210 210 209 209 209 200 200 200 200 200 200 201 201 201 199 199 199 194 194 194 195 195 195 198 198 198 200 200 200 202 202 202 193 193 193 186 186 186 194 194 194 206 206 206 214 214 214 211 211 211 210 210 210 209 209 209 205 205 205 207 207 207 209 209 209 205 205 205 202 202 202 198 198 198 198 198 198 194 194 194 194 194 194 201 201 201 201 201 201 200 200 200 200 200 200 199 199 199 202 202 202 201 201 201 201 201 201 203 203 203 201 201 201 194 194 194 192 192 192 194 194 194 196 196 196 204 204 204 204 204 204 192 192 192 190 190 190 197 197 197 196 196 196 193 193 193 196 196 196 198 198 198 176 176 176 134 134 134 118 118 118 125 125 125 126 126 126 128 128 128 127 127 127 129 129 129 131 131 131 126 126 126 126 126 126 132 132 132 131 131 131 131 131 131 138 138 138 141 141 141 138 138 138 132 132 132 124 124 124 0 0 0 
0 0 0 130 130 130 137 137 137 137 137 137 138 138 138 132 132 132 123 123 123 124 124 124 131 131 131 136 136 136 129 129 129 115 115 115 121 121 121 139 139 139 143 143 143 136 136 136 125 125 125 117 117 117 118 118 118 124 124 124 127 127 127 129 129 129 132 132 132 130 130 130 129 129 129 132 132 132 129 129 129 122 122 122 126 126 126 134 134 134 134 134 134 130 130 130 121 121 121 122 122 122 133 133 133 133 133 133 128 128 128 122 122 122 116 116 116 120 120 120 131 131 131 136 136 136 131 131 131 125 125 125 129 129 129 128 128 128 118 118 118 118 118 118 125 125 125 125 125 125 119 119 119 118 118 118 125 125 125 129 129 129 132 132 132 138 138 138 137 137 137 126 126 126 117 117 117 121 121 121 125 125 125 132 132 132 136 136 136 132 132 132 136 136 136 135 135 135 131 131 131 129 129 129 121 121 121 119 119 119 123 123 123 126 126 126 124 124 124 122 122 122 124 124 124 130 130 130 131 131 131 127 127 127 130 130 130 126 126 126 118 118 118 122 122 122 127 127 127 122 122 122 119 119 119 128 128 128 133 133 133 126 126 126 120 120 120 120 120 120 131 131 131 142 142 142 134 134 134 122 122 122 120 120 120 127 127 127 133 133 133 131 131 131 129 129 129 135 135 135 139 139 139 132 132 132 122 122 122 122 122 122 132 132 132 138 138 138 135 135 135 135 135 135 134 134 134 123 123 123 119 119 119 124 124 124 128 128 128 130 130 130 127 127 127 133 133 133 139 139 139 134 134 134 128 128 128 143 143 143 181 181 181 205 205 205 200 200 200 190 190 190 192 192 192 201 201 201 206 206 206 206 206 206 202 202 202 201 201 201 199 199 199 196 196 196 195 195 195 194 194 194 197 197 197 204 204 204 206 206 206 199 199 199 198 198 198 201 201 201 191 191 191 189 189 189 203 203 203 208 208 208 208 208 208 203 203 203 203 203 203 209 209 209 210 210 210 204 204 204 196 196 196 195 195 195 200 200 200 198 198 198 199 199 199 204 204 204 204 204 204 203 203 203 200 200 200 196 196 196 197 197 197 199 199 199 200 200 200 201 201 201 202 202 202 203 203 203 203 203 203 199 199 199 196 196 196 194 194 194 189 189 189 195 195 195 200 200 200 190 190 190 186 186 186 190 190 190 190 190 190 191 191 191 192 192 192 194 194 194 170 170 170 131 131 131 122 122 122 128 128 128 123 123 123 121 121 121 125 125 125 132 132 132 134 134 134 127 127 127 129 129 129 135 135 135 135 135 135 135 135 135 135 135 135 131 131 131 132 132 132 131 131 131 127 127 127 0 0 0 
0 0 0 129 129 129 137 137 137 135 135 135 135 135 135 132 132 132 126 126 126 123 123 123 123 123 123 130 130 130 129 129 129 123 123 123 131 131 131 139 139 139 140 140 140 136 136 136 126 126 126 124 124 124 125 125 125 128 128 128 134 134 134 138 138 138 136 136 136 127 127 127 124 124 124 129 129 129 127 127 127 121 121 121 125 125 125 135 135 135 135 135 135 128 128 128 122 122 122 126 126 126 132 132 132 126 126 126 123 123 123 119 119 119 114 114 114 119 119 119 126 126 126 135 135 135 135 135 135 128 128 128 132 132 132 133 133 133 120 120 120 116 116 116 122 122 122 126 126 126 121 121 121 118 118 118 127 127 127 131 131 131 125 125 125 124 124 124 133 133 133 137 137 137 134 134 134 136 136 136 130 130 130 127 127 127 133 133 133 133 133 133 133 133 133 135 135 135 136 136 136 137 137 137 132 132 132 127 127 127 126 126 126 128 128 128 128 128 128 127 127 127 128 128 128 129 129 129 126 126 126 122 122 122 130 130 130 128 128 128 114 114 114 117 117 117 130 130 130 130 130 130 121 121 121 124 124 124 131 131 131 128 128 128 123 123 123 123 123 123 130 130 130 138 138 138 134 134 134 125 125 125 121 121 121 118 118 118 122 122 122 126 126 126 121 121 121 123 123 123 131 131 131 128 128 128 116 116 116 113 113 113 124 124 124 133 133 133 134 134 134 137 137 137 135 135 135 126 126 126 127 127 127 134 134 134 135 135 135 133 133 133 133 133 133 137 137 137 139 139 139 129 129 129 120 120 120 138 138 138 179 179 179 195 195 195 188 188 188 190 190 190 197 197 197 201 201 201 204 204 204 204 204 204 202 202 202 199 199 199 192 192 192 190 190 190 188 188 188 185 185 185 195 195 195 207 207 207 210 210 210 206 206 206 207 207 207 208 208 208 197 197 197 195 195 195 200 200 200 198 198 198 202 202 202 206 206 206 209 209 209 214 214 214 213 213 213 202 202 202 196 196 196 201 201 201 198 198 198 189 189 189 192 192 192 204 204 204 207 207 207 205 205 205 202 202 202 195 195 195 193 193 193 194 194 194 197 197 197 201 201 201 200 200 200 198 198 198 199 199 199 201 201 201 198 198 198 191 191 191 187 187 187 188 188 188 195 195 195 192 192 192 187 187 187 190 190 190 196 196 196 201 201 201 197 197 197 194 194 194 174 174 174 140 140 140 132 132 132 131 131 131 120 120 120 117 117 117 125 125 125 132 132 132 131 131 131 124 124 124 128 128 128 136 136 136 135 135 135 131 131 131 127 127 127 125 125 125 123 123 123 123 123 123 131 131 131 0 0 0 
0 0 0 131 131 131 137 137 137 138 138 138 135 135 135 126 126 126 122 122 122 121 121 121 117 117 117 121 121 121 123 123 123 125 125 125 131 131 131 128 128 128 126 126 126 128 128 128 126 126 126 127 127 127 133 133 133 136 136 136 139 139 139 137 137 137 130 130 130 120 120 120 115 115 115 119 119 119 126 126 126 126 126 126 126 126 126 133 133 133 131 131 131 122 122 122 118 118 118 123 123 123 126 126 126 118 118 118 119 119 119 117 117 117 112 112 112 116 116 116 122 122 122 131 131 131 134 134 134 126 126 126 128 128 128 133 133 133 127 127 127 123 123 123 122 122 122 118 118 118 114 114 114 119 119 119 132 132 132 136 136 136 127 127 127 125 125 125 135 135 135 141 141 141 139 139 139 139 139 139 129 129 129 126 126 126 134 134 134 132 132 132 129 129 129 134 134 134 135 135 135 136 136 136 136 136 136 132 132 132 126 126 126 127 127 127 129 129 129 126 126 126 130 130 130 134 134 134 128 128 128 123 123 123 127 127 127 123 123 123 114 114 114 118 118 118 130 130 130 138 138 138 138 138 138 131 131 131 125 125 125 128 128 128 130 130 130 130 130 130 129 129 129 129 129 129 129 129 129 129 129 129 130 130 130 124 124 124 121 121 121 124 124 124 122 122 122 118 118 118 118 118 118 122 122 122 118 118 118 116 116 116 121 121 121 122 122 122 123 123 123 125 125 125 126 126 126 128 128 128 133 133 133 136 136 136 134 134 134 133 133 133 129 129 129 127 127 127 129 129 129 127 127 127 121 121 121 139 139 139 179 179 179 195 195 195 191 191 191 199 199 199 205 205 205 199 199 199 196 196 196 199 199 199 204 204 204 203 203 203 198 198 198 195 195 195 186 186 186 186 186 186 200 200 200 207 207 207 204 204 204 204 204 204 209 209 209 211 211 211 205 205 205 200 200 200 197 197 197 194 194 194 199 199 199 211 211 211 217 217 217 217 217 217 214 214 214 210 210 210 211 211 211 209 209 209 195 195 195 185 185 185 191 191 191 201 201 201 204 204 204 204 204 204 206 206 206 206 206 206 200 200 200 198 198 198 202 202 202 204 204 204 197 197 197 191 191 191 192 192 192 196 196 196 193 193 193 188 188 188 185 185 185 188 188 188 197 197 197 199 199 199 194 194 194 194 194 194 199 199 199 204 204 204 200 200 200 199 199 199 179 179 179 140 140 140 127 127 127 125 125 125 120 120 120 119 119 119 124 124 124 133 133 133 136 136 136 132 132 132 132 132 132 134 134 134 131 131 131 124 124 124 123 123 123 133 133 133 132 132 132 125 125 125 126 126 126 0 0 0 
0 0 0 128 128 128 131 131 131 136 136 136 136 136 136 130 130 130 127 127 127 125 125 125 121 121 121 121 121 121 125 125 125 126 126 126 127 127 127 129 129 129 132 132 132 136 136 136 132 132 132 129 129 129 130 130 130 133 133 133 138 138 138 135 135 135 124 124 124 115 115 115 113 113 113 117 117 117 126 126 126 133 133 133 134 134 134 136 136 136 135 135 135 128 128 128 122 122 122 116 116 116 114 114 114 115 115 115 124 124 124 126 126 126 117 117 117 114 114 114 116 116 116 123 123 123 128 128 128 128 128 128 129 129 129 130 130 130 129 129 129 131 131 131 129 129 129 120 120 120 118 118 118 125 125 125 132 132 132 135 135 135 136 136 136 137 137 137 136 136 136 135 135 135 135 135 135 135 135 135 129 129 129 129 129 129 133 133 133 128 128 128 126 126 126 128 128 128 128 128 128 127 127 127 127 127 127 131 131 131 126 126 126 120 120 120 119 119 119 123 123 123 136 136 136 140 140 140 130 130 130 123 123 123 121 121 121 117 117 117 117 117 117 123 123 123 130 130 130 133 133 133 139 139 139 136 136 136 125 125 125 126 126 126 129 129 129 129 129 129 131 131 131 128 128 128 124 124 124 130 130 130 137 137 137 131 131 131 123 123 123 124 124 124 127 127 127 124 124 124 116 116 116 118 118 118 121 121 121 124 124 124 127 127 127 119 119 119 114 114 114 114 114 114 119 119 119 128 128 128 131 131 131 128 128 128 124 124 124 123 123 123 116 116 116 114 114 114 121 121 121 125 125 125 128 128 128 149 149 149 186 186 186 200 200 200 200 200 200 208 208 208 210 210 210 204 204 204 201 201 201 203 203 203 205 205 205 202 202 202 200 200 200 201 201 201 196 196 196 198 198 198 206 206 206 207 207 207 204 204 204 205 205 205 206 206 206 208 208 208 210 210 210 211 211 211 209 209 209 204 204 204 200 200 200 206 206 206 218 218 218 221 221 221 216 216 216 211 211 211 210 210 210 205 205 205 196 196 196 196 196 196 204 204 204 208 208 208 204 204 204 198 198 198 201 201 201 207 207 207 205 205 205 202 202 202 201 201 201 198 198 198 193 193 193 193 193 193 196 196 196 191 191 191 192 192 192 196 196 196 193 193 193 195 195 195 204 204 204 207 207 207 201 201 201 194 194 194 199 199 199 200 200 200 193 193 193 193 193 193 172 172 172 131 131 131 116 116 116 116 116 116 118 118 118 125 125 125 125 125 125 128 128 128 136 136 136 138 138 138 136 136 136 130 130 130 127 127 127 124 124 124 126 126 126 136 136 136 137 137 137 131 131 131 125 125 125 0 0 0 
0 0 0 123 123 123 120 120 120 122 122 122 131 131 131 133 133 133 125 125 125 120 120 120 120 120 120 123 123 123 129 129 129 129 129 129 129 129 129 134 134 134 141 141 141 139 139 139 131 131 131 127 127 127 121 121 121 122 122 122 132 132 132 133 133 133 125 125 125 115 115 115 114 114 114 117 117 117 122 122 122 133 133 133 136 136 136 135 135 135 136 136 136 133 133 133 127 127 127 118 118 118 113 113 113 116 116 116 121 121 121 122 122 122 121 121 121 117 117 117 115 115 115 115 115 115 119 119 119 128 128 128 133 133 133 133 133 133 132 132 132 135 135 135 134 134 134 129 129 129 129 129 129 131 131 131 132 132 132 131 131 131 131 131 131 131 131 131 129 129 129 129 129 129 133 133 133 133 133 133 130 130 130 127 127 127 128 128 128 126 126 126 126 126 126 130 130 130 131 131 131 128 128 128 125 125 125 129 129 129 126 126 126 117 117 117 117 117 117 130 130 130 140 140 140 135 135 135 129 129 129 130 130 130 124 124 124 113 113 113 117 117 117 129 129 129 132 132 132 126 126 126 130 130 130 136 136 136 126 126 126 120 120 120 124 124 124 129 129 129 134 134 134 131 131 131 121 121 121 125 125 125 130 130 130 125 125 125 119 119 119 120 120 120 122 122 122 121 121 121 118 118 118 121 121 121 123 123 123 124 124 124 128 128 128 121 121 121 110 110 110 107 107 107 116 116 116 126 126 126 124 124 124 121 121 121 121 121 121 118 118 118 113 113 113 113 113 113 120 120 120 127 127 127 128 128 128 146 146 146 183 183 183 201 201 201 204 204 204 207 207 207 206 206 206 204 204 204 204 204 204 202 202 202 196 196 196 196 196 196 196 196 196 203 203 203 209 209 209 208 208 208 208 208 208 206 206 206 204 204 204 209 209 209 209 209 209 205 205 205 204 204 204 207 207 207 207 207 207 202 202 202 194 194 194 197 197 197 211 211 211 214 214 214 205 205 205 197 197 197 195 195 195 199 199 199 203 203 203 208 208 208 211 211 211 206 206 206 201 201 201 198 198 198 198 198 198 199 199 199 195 195 195 191 191 191 187 187 187 185 185 185 192 192 192 204 204 204 204 204 204 194 194 194 196 196 196 204 204 204 205 205 205 201 201 201 204 204 204 213 213 213 209 209 209 196 196 196 200 200 200 201 201 201 192 192 192 190 190 190 171 171 171 135 135 135 123 123 123 118 118 118 119 119 119 131 131 131 132 132 132 129 129 129 131 131 131 131 131 131 129 129 129 127 127 127 123 123 123 126 126 126 134 134 134 136 136 136 135 135 135 135 135 135 131 131 131 0 0 0 
0 0 0 126 126 126 115 115 115 112 112 112 121 121 121 121 121 121 117 117 117 117 117 117 116 116 116 118 118 118 124 124 124 126 126 126 123 123 123 128 128 128 135 135 135 130 130 130 121 121 121 117 117 117 117 117 117 121 121 121 125 125 125 127 127 127 125 125 125 121 121 121 117 117 117 113 113 113 116 116 116 126 126 126 130 130 130 128 128 128 127 127 127 128 128 128 131 131 131 127 127 127 125 125 125 124 124 124 118 118 118 115 115 115 119 119 119 123 123 123 125 125 125 124 124 124 122 122 122 121 121 121 125 125 125 130 130 130 128 128 128 127 127 127 128 128 128 126 126 126 126 126 126 129 129 129 134 134 134 129 129 129 120 120 120 121 121 121 123 123 123 124 124 124 127 127 127 125 125 125 121 121 121 120 120 120 127 127 127 132 132 132 129 129 129 129 129 129 134 134 134 136 136 136 132 132 132 130 130 130 128 128 128 123 123 123 127 127 127 139 139 139 136 136 136 125 125 125 127 127 127 134 134 134 129 129 129 116 116 116 118 118 118 132 132 132 130 130 130 121 121 121 126 126 126 130 130 130 122 122 122 118 118 118 124 124 124 131 131 131 132 132 132 126 126 126 117 117 117 117 117 117 120 120 120 119 119 119 123 123 123 124 124 124 121 121 121 121 121 121 122 122 122 126 126 126 121 121 121 116 116 116 123 123 123 123 123 123 115 115 115 111 111 111 116 116 116 121 121 121 120 120 120 122 122 122 127 127 127 119 119 119 113 113 113 115 115 115 120 120 120 128 128 128 128 128 128 139 139 139 175 175 175 203 203 203 208 208 208 203 203 203 196 196 196 197 197 197 203 203 203 200 200 200 194 194 194 197 197 197 199 199 199 202 202 202 208 208 208 205 205 205 198 198 198 196 196 196 200 200 200 208 208 208 211 211 211 208 208 208 203 203 203 197 197 197 194 194 194 192 192 192 189 189 189 195 195 195 202 202 202 197 197 197 193 193 193 193 193 193 191 191 191 195 195 195 200 200 200 204 204 204 207 207 207 202 202 202 199 199 199 200 200 200 200 200 200 198 198 198 191 191 191 184 184 184 181 181 181 185 185 185 197 197 197 207 207 207 202 202 202 192 192 192 190 190 190 195 195 195 202 202 202 202 202 202 205 205 205 216 216 216 214 214 214 199 199 199 197 197 197 203 203 203 198 198 198 195 195 195 178 178 178 143 143 143 126 126 126 119 119 119 120 120 120 131 131 131 134 134 134 134 134 134 133 133 133 123 123 123 121 121 121 129 129 129 128 128 128 130 130 130 142 142 142 142 142 142 135 135 135 133 133 133 131 131 131 0 0 0 
0 0 0 130 130 130 118 118 118 113 113 113 117 117 117 118 118 118 124 124 124 130 130 130 121 121 121 115 115 115 122 122 122 126 126 126 125 125 125 126 126 126 126 126 126 122 122 122 115 115 115 110 110 110 114 114 114 121 121 121 118 118 118 120 120 120 126 126 126 126 126 126 128 128 128 126 126 126 122 122 122 120 120 120 117 117 117 115 115 115 120 120 120 132 132 132 134 134 134 130 130 130 133 133 133 128 128 128 121 121 121 123 123 123 128 128 128 135 135 135 138 138 138 139 139 139 135 135 135 122 122 122 115 115 115 123 123 123 128 128 128 126 126 126 129 129 129 132 132 132 128 128 128 128 128 128 129 129 129 128 128 128 124 124 124 123 123 123 124 124 124 123 123 123 123 123 123 121 121 121 118 118 118 121 121 121 127 127 127 134 134 134 132 132 132 125 125 125 128 128 128 134 134 134 133 133 133 129 129 129 131 131 131 132 132 132 134 134 134 135 135 135 131 131 131 122 122 122 120 120 120 125 125 125 125 125 125 118 118 118 121 121 121 133 133 133 130 130 130 124 124 124 126 126 126 127 127 127 123 123 123 123 123 123 130 130 130 131 131 131 122 122 122 118 118 118 118 118 118 119 119 119 118 118 118 115 115 115 125 125 125 131 131 131 123 123 123 120 120 120 126 126 126 131 131 131 122 122 122 114 114 114 124 124 124 129 129 129 124 124 124 121 121 121 120 120 120 118 118 118 116 116 116 123 123 123 128 128 128 120 120 120 112 112 112 117 117 117 124 124 124 128 128 128 128 128 128 142 142 142 179 179 179 208 208 208 211 211 211 200 200 200 192 192 192 198 198 198 204 204 204 203 203 203 202 202 202 204 204 204 200 200 200 198 198 198 200 200 200 199 199 199 192 192 192 189 189 189 197 197 197 203 203 203 206 206 206 210 210 210 210 210 210 204 204 204 198 198 198 200 200 200 201 201 201 202 202 202 201 201 201 194 194 194 196 196 196 199 199 199 191 191 191 187 187 187 189 189 189 192 192 192 199 199 199 206 206 206 206 206 206 204 204 204 201 201 201 201 201 201 201 201 201 195 195 195 188 188 188 191 191 191 198 198 198 200 200 200 198 198 198 193 193 193 186 186 186 186 186 186 196 196 196 205 205 205 210 210 210 215 215 215 213 213 213 201 201 201 196 196 196 204 204 204 201 201 201 193 193 193 182 182 182 150 150 150 124 124 124 118 118 118 121 121 121 125 125 125 129 129 129 136 136 136 134 134 134 124 124 124 123 123 123 132 132 132 135 135 135 136 136 136 140 140 140 138 138 138 133 133 133 131 131 131 129 129 129 0 0 0 
0 0 0 130 130 130 122 122 122 115 115 115 116 116 116 121 121 121 132 132 132 135 135 135 126 126 126 122 122 122 130 130 130 135 135 135 135 135 135 131 131 131 122 122 122 118 118 118 117 117 117 113 113 113 112 112 112 117 117 117 118 118 118 124 124 124 130 130 130 130 130 130 137 137 137 140 140 140 130 130 130 120 120 120 117 117 117 121 121 121 129 129 129 139 139 139 135 135 135 127 127 127 134 134 134 131 131 131 126 126 126 132 132 132 136 136 136 137 137 137 135 135 135 136 136 136 138 138 138 132 132 132 124 124 124 125 125 125 131 131 131 130 130 130 131 131 131 136 136 136 136 136 136 129 129 129 126 126 126 131 131 131 133 133 133 129 129 129 130 130 130 129 129 129 125 125 125 123 123 123 122 122 122 127 127 127 128 128 128 127 127 127 132 132 132 127 127 127 120 120 120 119 119 119 120 120 120 121 121 121 125 125 125 136 136 136 138 138 138 128 128 128 126 126 126 123 123 123 118 118 118 119 119 119 115 115 115 111 111 111 120 120 120 135 135 135 137 137 137 131 131 131 128 128 128 127 127 127 129 129 129 131 131 131 132 132 132 127 127 127 115 115 115 117 117 117 124 124 124 124 124 124 121 121 121 117 117 117 125 125 125 134 134 134 125 125 125 115 115 115 121 121 121 131 131 131 125 125 125 116 116 116 125 125 125 127 127 127 120 120 120 120 120 120 123 123 123 120 120 120 116 116 116 121 121 121 124 124 124 118 118 118 113 113 113 118 118 118 126 126 126 127 127 127 126 126 126 147 147 147 185 185 185 206 206 206 206 206 206 200 200 200 196 196 196 200 200 200 202 202 202 201 201 201 207 207 207 208 208 208 201 201 201 197 197 197 197 197 197 199 199 199 197 197 197 194 194 194 195 195 195 199 199 199 204 204 204 207 207 207 211 211 211 208 208 208 205 205 205 212 212 212 214 214 214 206 206 206 195 195 195 192 192 192 195 195 195 198 198 198 193 193 193 183 183 183 183 183 183 189 189 189 196 196 196 203 203 203 209 209 209 210 210 210 205 205 205 206 206 206 208 208 208 201 201 201 192 192 192 191 191 191 189 189 189 191 191 191 199 199 199 201 201 201 195 195 195 191 191 191 201 201 201 214 214 214 216 216 216 211 211 211 212 212 212 205 205 205 196 196 196 201 201 201 202 202 202 196 196 196 183 183 183 153 153 153 132 132 132 128 128 128 125 125 125 121 121 121 128 128 128 132 132 132 126 126 126 124 124 124 128 128 128 131 131 131 129 129 129 129 129 129 127 127 127 127 127 127 137 137 137 142 142 142 137 137 137 0 0 0 
0 0 0 124 124 124 121 121 121 113 113 113 114 114 114 123 123 123 135 135 135 138 138 138 132 132 132 130 130 130 131 131 131 130 130 130 130 130 130 129 129 129 124 124 124 126 126 126 127 127 127 121 121 121 119 119 119 126 126 126 130 130 130 131 131 131 133 133 133 136 136 136 142 142 142 141 141 141 132 132 132 128 128 128 133 133 133 138 138 138 138 138 138 136 136 136 132 132 132 125 125 125 130 130 130 134 134 134 132 132 132 135 135 135 130 130 130 122 122 122 122 122 122 127 127 127 133 133 133 137 137 137 136 136 136 134 134 134 132 132 132 128 128 128 125 125 125 125 125 125 127 127 127 128 128 128 130 130 130 134 134 134 133 133 133 134 134 134 133 133 133 127 127 127 124 124 124 124 124 124 127 127 127 135 135 135 134 134 134 125 125 125 130 130 130 130 130 130 117 117 117 115 115 115 122 122 122 120 120 120 119 119 119 129 129 129 132 132 132 122 122 122 121 121 121 121 121 121 120 120 120 126 126 126 124 124 124 115 115 115 117 117 117 127 127 127 135 135 135 135 135 135 130 130 130 126 126 126 130 130 130 133 133 133 126 126 126 119 119 119 119 119 119 127 127 127 128 128 128 122 122 122 125 125 125 127 127 127 129 129 129 135 135 135 131 131 131 121 121 121 121 121 121 127 127 127 119 119 119 114 114 114 121 121 121 121 121 121 117 117 117 118 118 118 120 120 120 120 120 120 122 122 122 126 126 126 129 129 129 122 122 122 115 115 115 117 117 117 125 125 125 129 129 129 131 131 131 150 150 150 184 184 184 199 199 199 200 200 200 202 202 202 198 198 198 195 195 195 198 198 198 200 200 200 203 203 203 206 206 206 201 201 201 193 193 193 194 194 194 201 201 201 203 203 203 204 204 204 203 203 203 205 205 205 211 211 211 212 212 212 206 206 206 199 199 199 199 199 199 208 208 208 209 209 209 202 202 202 195 195 195 192 192 192 197 197 197 203 203 203 202 202 202 192 192 192 187 187 187 191 191 191 196 196 196 198 198 198 204 204 204 211 211 211 209 209 209 208 208 208 204 204 204 193 193 193 191 191 191 192 192 192 188 188 188 189 189 189 194 194 194 200 200 200 202 202 202 198 198 198 202 202 202 213 213 213 217 217 217 214 214 214 212 212 212 201 201 201 191 191 191 196 196 196 203 203 203 201 201 201 182 182 182 148 148 148 135 135 135 136 136 136 126 126 126 120 120 120 126 126 126 127 127 127 121 121 121 122 122 122 124 124 124 122 122 122 116 116 116 117 117 117 119 119 119 125 125 125 137 137 137 140 140 140 138 138 138 0 0 0 
0 0 0 126 126 126 128 128 128 123 123 123 126 126 126 133 133 133 137 137 137 137 137 137 134 134 134 129 129 129 124 124 124 124 124 124 128 128 128 125 125 125 121 121 121 128 128 128 130 130 130 124 124 124 123 123 123 131 131 131 135 135 135 132 132 132 133 133 133 139 139 139 145 145 145 145 145 145 138 138 138 135 135 135 139 139 139 137 137 137 133 133 133 132 132 132 132 132 132 126 126 126 125 125 125 132 132 132 136 136 136 135 135 135 127 127 127 121 121 121 123 123 123 129 129 129 137 137 137 139 139 139 138 138 138 143 143 143 140 140 140 129 129 129 121 121 121 117 117 117 122 122 122 129 129 129 134 134 134 133 133 133 127 127 127 129 129 129 132 132 132 126 126 126 122 122 122 128 128 128 136 136 136 136 136 136 134 134 134 131 131 131 132 132 132 132 132 132 124 124 124 130 130 130 136 136 136 129 129 129 123 123 123 124 124 124 123 123 123 118 118 118 118 118 118 118 118 118 122 122 122 134 134 134 140 140 140 132 132 132 121 121 121 120 120 120 127 127 127 132 132 132 133 133 133 130 130 130 130 130 130 130 130 130 122 122 122 118 118 118 128 128 128 136 136 136 128 128 128 123 123 123 129 129 129 126 126 126 125 125 125 130 130 130 133 133 133 130 130 130 128 128 128 125 125 125 117 117 117 117 117 117 125 125 125 123 123 123 119 119 119 120 120 120 119 119 119 121 121 121 126 126 126 128 128 128 133 133 133 133 133 133 125 125 125 124 124 124 129 129 129 133 133 133 135 135 135 154 154 154 186 186 186 197 197 197 194 194 194 194 194 194 194 194 194 196 196 196 197 197 197 192 192 192 192 192 192 198 198 198 195 195 195 190 190 190 197 197 197 204 204 204 206 206 206 209 209 209 212 212 212 214 214 214 218 218 218 215 215 215 200 200 200 190 190 190 193 193 193 195 195 195 192 192 192 195 195 195 200 200 200 202 202 202 205 205 205 205 205 205 204 204 204 203 203 203 196 196 196 192 192 192 194 194 194 196 196 196 198 198 198 204 204 204 208 208 208 206 206 206 196 196 196 190 190 190 193 193 193 194 194 194 195 195 195 192 192 192 190 190 190 197 197 197 203 203 203 202 202 202 197 197 197 205 205 205 216 216 216 219 219 219 213 213 213 198 198 198 192 192 192 203 203 203 206 206 206 199 199 199 180 180 180 145 145 145 131 131 131 132 132 132 124 124 124 123 123 123 129 129 129 130 130 130 124 124 124 119 119 119 118 118 118 117 117 117 113 113 113 112 112 112 121 121 121 129 129 129 128 128 128 127 127 127 131 131 131 0 0 0 
0 0 0 134 134 134 139 139 139 135 135 135 138 138 138 142 142 142 135 135 135 132 132 132 134 134 134 130 130 130 121 121 121 122 122 122 130 130 130 125 125 125 120 120 120 124 124 124 126 126 126 121 121 121 120 120 120 127 127 127 132 132 132 129 129 129 129 129 129 134 134 134 138 138 138 138 138 138 136 136 136 135 135 135 135 135 135 129 129 129 130 130 130 138 138 138 140 140 140 130 130 130 124 124 124 128 128 128 130 130 130 129 129 129 130 130 130 129 129 129 128 128 128 132 132 132 140 140 140 143 143 143 142 142 142 145 145 145 141 141 141 129 129 129 124 124 124 125 125 125 133 133 133 136 136 136 136 136 136 132 132 132 122 122 122 121 121 121 128 128 128 127 127 127 122 122 122 129 129 129 137 137 137 128 128 128 125 125 125 134 134 134 139 139 139 137 137 137 136 136 136 138 138 138 135 135 135 132 132 132 132 132 132 128 128 128 125 125 125 123 123 123 118 118 118 121 121 121 129 129 129 135 135 135 142 142 142 141 141 141 130 130 130 126 126 126 124 124 124 121 121 121 127 127 127 134 134 134 130 130 130 128 128 128 127 127 127 125 125 125 134 134 134 138 138 138 130 130 130 132 132 132 133 133 133 126 126 126 127 127 127 132 132 132 133 133 133 135 135 135 136 136 136 131 131 131 122 122 122 123 123 123 127 127 127 125 125 125 125 125 125 126 126 126 126 126 126 129 129 129 129 129 129 130 130 130 136 136 136 138 138 138 135 135 135 132 132 132 130 130 130 131 131 131 129 129 129 149 149 149 187 187 187 197 197 197 190 190 190 189 189 189 195 195 195 201 201 201 192 192 192 184 184 184 187 187 187 190 190 190 188 188 188 189 189 189 199 199 199 202 202 202 200 200 200 202 202 202 208 208 208 213 213 213 213 213 213 207 207 207 196 196 196 188 188 188 191 191 191 189 189 189 184 184 184 188 188 188 198 198 198 203 203 203 200 200 200 196 196 196 199 199 199 207 207 207 203 203 203 194 194 194 196 196 196 199 199 199 197 197 197 197 197 197 203 203 203 204 204 204 197 197 197 196 196 196 197 197 197 193 193 193 196 196 196 199 199 199 197 197 197 202 202 202 209 209 209 207 207 207 199 199 199 202 202 202 212 212 212 214 214 214 211 211 211 200 200 200 196 196 196 206 206 206 205 205 205 194 194 194 178 178 178 147 147 147 130 130 130 128 128 128 125 125 125 128 128 128 132 132 132 130 130 130 122 122 122 117 117 117 123 123 123 131 131 131 126 126 126 119 119 119 122 122 122 124 124 124 122 122 122 127 127 127 131 131 131 0 0 0 
0 0 0 127 127 127 135 135 135 137 137 137 139 139 139 132 132 132 124 124 124 129 129 129 136 136 136 134 134 134 121 121 121 115 115 115 121 121 121 124 124 124 128 128 128 130 130 130 125 125 125 122 122 122 122 122 122 124 124 124 132 132 132 130 130 130 121 121 121 124 124 124 126 126 126 124 124 124 132 132 132 140 140 140 136 136 136 129 129 129 134 134 134 145 145 145 140 140 140 128 128 128 125 125 125 126 126 126 122 122 122 126 126 126 136 136 136 135 135 135 130 130 130 134 134 134 142 142 142 142 142 142 138 138 138 136 136 136 130 130 130 125 125 125 128 128 128 133 133 133 137 137 137 136 136 136 132 132 132 128 128 128 119 119 119 121 121 121 129 129 129 124 124 124 119 119 119 127 127 127 134 134 134 126 126 126 122 122 122 131 131 131 138 138 138 135 135 135 135 135 135 130 130 130 120 120 120 121 121 121 127 127 127 126 126 126 124 124 124 120 120 120 115 115 115 120 120 120 129 129 129 135 135 135 137 137 137 138 138 138 133 133 133 129 129 129 125 125 125 116 116 116 123 123 123 136 136 136 129 129 129 125 125 125 129 129 129 129 129 129 133 133 133 132 132 132 124 124 124 127 127 127 132 132 132 128 128 128 133 133 133 137 137 137 131 131 131 133 133 133 138 138 138 131 131 131 122 122 122 124 124 124 124 124 124 122 122 122 129 129 129 134 134 134 133 133 133 136 136 136 134 134 134 133 133 133 139 139 139 136 136 136 129 129 129 127 127 127 126 126 126 128 128 128 125 125 125 143 143 143 184 184 184 199 199 199 198 198 198 199 199 199 200 200 200 201 201 201 193 193 193 191 191 191 195 195 195 193 193 193 186 186 186 184 184 184 190 190 190 192 192 192 189 189 189 191 191 191 202 202 202 211 211 211 207 207 207 201 201 201 197 197 197 191 191 191 191 191 191 193 193 193 189 189 189 187 187 187 193 193 193 200 200 200 195 195 195 191 191 191 202 202 202 210 210 210 203 203 203 197 197 197 199 199 199 201 201 201 199 199 199 196 196 196 200 200 200 202 202 202 202 202 202 206 206 206 203 203 203 194 194 194 195 195 195 200 200 200 201 201 201 207 207 207 212 212 212 209 209 209 202 202 202 199 199 199 201 201 201 205 205 205 208 208 208 202 202 202 197 197 197 199 199 199 196 196 196 190 190 190 173 173 173 142 142 142 129 129 129 132 132 132 126 126 126 124 124 124 126 126 126 122 122 122 118 118 118 124 124 124 137 137 137 144 144 144 138 138 138 126 126 126 117 117 117 117 117 117 124 124 124 131 131 131 128 128 128 0 0 0 
0 0 0 119 119 119 126 126 126 133 133 133 130 130 130 116 116 116 114 114 114 125 125 125 132 132 132 135 135 135 127 127 127 113 113 113 113 113 113 126 126 126 133 133 133 127 127 127 119 119 119 125 125 125 130 130 130 133 133 133 152 152 152 159 159 159 148 148 148 149 149 149 146 146 146 129 129 129 131 131 131 139 139 139 134 134 134 128 128 128 135 135 135 141 141 141 132 132 132 122 122 122 124 124 124 125 125 125 123 123 123 131 131 131 138 138 138 136 136 136 128 128 128 131 131 131 141 141 141 136 136 136 129 129 129 128 128 128 121 121 121 118 118 118 122 122 122 124 124 124 128 128 128 129 129 129 125 125 125 126 126 126 124 124 124 130 130 130 133 133 133 125 125 125 124 124 124 132 132 132 138 138 138 132 132 132 123 123 123 127 127 127 135 135 135 129 129 129 121 121 121 116 116 116 110 110 110 113 113 113 121 121 121 126 126 126 124 124 124 120 120 120 120 120 120 123 123 123 125 125 125 130 130 130 134 134 134 133 133 133 127 127 127 123 123 123 123 123 123 118 118 118 126 126 126 140 140 140 133 133 133 125 125 125 127 127 127 131 131 131 130 130 130 122 122 122 116 116 116 122 122 122 126 126 126 120 120 120 128 128 128 137 137 137 129 129 129 130 130 130 134 134 134 123 123 123 114 114 114 121 121 121 128 128 128 127 127 127 129 129 129 134 134 134 133 133 133 136 136 136 133 133 133 127 127 127 137 137 137 137 137 137 126 126 126 129 129 129 131 131 131 129 129 129 131 131 131 149 149 149 186 186 186 205 205 205 206 206 206 209 209 209 208 208 208 202 202 202 199 199 199 202 202 202 204 204 204 201 201 201 190 190 190 185 185 185 190 190 190 192 192 192 190 190 190 191 191 191 200 200 200 204 204 204 203 203 203 203 203 203 202 202 202 197 197 197 191 191 191 193 193 193 196 196 196 195 195 195 195 195 195 197 197 197 193 193 193 191 191 191 201 201 201 207 207 207 201 201 201 197 197 197 194 194 194 192 192 192 189 189 189 190 190 190 198 198 198 201 201 201 200 200 200 205 205 205 207 207 207 203 203 203 202 202 202 202 202 202 203 203 203 207 207 207 207 207 207 203 203 203 200 200 200 195 195 195 194 194 194 199 199 199 204 204 204 202 202 202 195 195 195 189 189 189 189 189 189 190 190 190 171 171 171 137 137 137 130 130 130 134 134 134 125 125 125 121 121 121 123 123 123 122 122 122 124 124 124 131 131 131 136 136 136 136 136 136 132 132 132 125 125 125 118 118 118 121 121 121 132 132 132 134 134 134 126 126 126 0 0 0 
0 0 0 123 123 123 121 121 121 121 121 121 116 116 116 112 112 112 117 117 117 125 125 125 128 128 128 134 134 134 131 131 131 118 118 118 119 119 119 130 130 130 130 130 130 120 120 120 119 119 119 129 129 129 135 135 135 147 147 147 175 175 175 188 188 188 183 183 183 182 182 182 179 179 179 167 167 167 160 160 160 160 160 160 157 157 157 156 156 156 160 160 160 161 161 161 144 144 144 122 122 122 116 116 116 119 119 119 126 126 126 129 129 129 128 128 128 127 127 127 121 121 121 125 125 125 134 134 134 129 129 129 124 124 124 125 125 125 119 119 119 114 114 114 116 116 116 119 119 119 127 127 127 131 131 131 129 129 129 131 131 131 132 132 132 134 134 134 130 130 130 128 128 128 132 132 132 136 136 136 138 138 138 132 132 132 122 122 122 124 124 124 134 134 134 131 131 131 120 120 120 113 113 113 114 114 114 125 125 125 132 132 132 131 131 131 131 131 131 131 131 131 133 133 133 132 132 132 126 126 126 125 125 125 131 131 131 127 127 127 118 118 118 116 116 116 119 119 119 120 120 120 124 124 124 132 132 132 131 131 131 128 128 128 129 129 129 129 129 129 122 122 122 116 116 116 121 121 121 129 129 129 125 125 125 121 121 121 133 133 133 142 142 142 134 134 134 132 132 132 133 133 133 125 125 125 117 117 117 122 122 122 134 134 134 135 135 135 131 131 131 133 133 133 130 130 130 129 129 129 126 126 126 122 122 122 129 129 129 130 130 130 127 127 127 135 135 135 136 136 136 131 131 131 132 132 132 152 152 152 190 190 190 207 207 207 204 204 204 211 211 211 217 217 217 207 207 207 197 197 197 204 204 204 206 206 206 201 201 201 197 197 197 197 197 197 203 203 203 203 203 203 197 197 197 195 195 195 197 197 197 194 194 194 194 194 194 201 201 201 204 204 204 201 201 201 195 195 195 191 191 191 197 197 197 206 206 206 203 203 203 194 194 194 191 191 191 189 189 189 190 190 190 193 193 193 193 193 193 191 191 191 190 190 190 188 188 188 188 188 188 192 192 192 200 200 200 207 207 207 202 202 202 199 199 199 206 206 206 210 210 210 211 211 211 207 207 207 202 202 202 202 202 202 199 199 199 197 197 197 200 200 200 197 197 197 196 196 196 196 196 196 193 193 193 194 194 194 192 192 192 186 186 186 189 189 189 200 200 200 181 181 181 142 142 142 130 130 130 132 132 132 128 128 128 128 128 128 133 133 133 132 132 132 129 129 129 127 127 127 124 124 124 124 124 124 123 123 123 123 123 123 128 128 128 132 132 132 136 136 136 135 135 135 132 132 132 0 0 0 
0 0 0 129 129 129 119 119 119 112 112 112 111 111 111 118 118 118 126 126 126 131 131 131 135 135 135 135 135 135 128 128 128 123 123 123 128 128 128 131 131 131 126 126 126 122 122 122 124 124 124 131 131 131 138 138 138 146 146 146 153 153 153 159 159 159 163 163 163 162 162 162 169 169 169 188 188 188 193 193 193 185 185 185 182 182 182 184 184 184 187 187 187 186 186 186 170 170 170 149 149 149 143 143 143 150 150 150 159 159 159 160 160 160 156 156 156 153 153 153 142 142 142 130 130 130 126 126 126 124 124 124 122 122 122 125 125 125 122 122 122 113 113 113 114 114 114 126 126 126 136 136 136 137 137 137 135 135 135 133 133 133 130 130 130 129 129 129 128 128 128 128 128 128 132 132 132 135 135 135 131 131 131 126 126 126 121 121 121 121 121 121 129 129 129 132 132 132 130 130 130 126 126 126 126 126 126 135 135 135 140 140 140 136 136 136 133 133 133 135 135 135 137 137 137 133 133 133 126 126 126 124 124 124 126 126 126 117 117 117 109 109 109 113 113 113 120 120 120 125 125 125 124 124 124 123 123 123 126 126 126 133 133 133 136 136 136 128 128 128 118 118 118 120 120 120 131 131 131 131 131 131 126 126 126 129 129 129 140 140 140 144 144 144 136 136 136 132 132 132 137 137 137 138 138 138 130 130 130 125 125 125 127 127 127 128 128 128 126 126 126 126 126 126 122 122 122 123 123 123 124 124 124 123 123 123 128 128 128 124 124 124 125 125 125 133 133 133 128 128 128 124 124 124 127 127 127 151 151 151 190 190 190 202 202 202 199 199 199 210 210 210 219 219 219 209 209 209 196 196 196 202 202 202 204 204 204 198 198 198 203 203 203 210 210 210 212 212 212 205 205 205 196 196 196 197 197 197 198 198 198 196 196 196 192 192 192 195 195 195 200 200 200 201 201 201 202 202 202 201 201 201 202 202 202 212 212 212 211 211 211 199 199 199 190 190 190 188 188 188 190 190 190 189 189 189 188 188 188 185 185 185 188 188 188 196 196 196 204 204 204 205 205 205 203 203 203 205 205 205 204 204 204 199 199 199 201 201 201 209 209 209 213 213 213 206 206 206 197 197 197 195 195 195 196 196 196 197 197 197 201 201 201 200 200 200 199 199 199 197 197 197 191 191 191 191 191 191 195 195 195 192 192 192 191 191 191 206 206 206 194 194 194 154 154 154 135 135 135 132 132 132 135 135 135 139 139 139 141 141 141 136 136 136 126 126 126 122 122 122 123 123 123 123 123 123 122 122 122 125 125 125 133 133 133 140 140 140 140 140 140 135 135 135 133 133 133 0 0 0 
0 0 0 127 127 127 116 116 116 111 111 111 114 114 114 123 123 123 133 133 133 136 136 136 139 139 139 137 137 137 128 128 128 125 125 125 131 131 131 132 132 132 123 123 123 121 121 121 121 121 121 122 122 122 130 130 130 132 132 132 128 128 128 133 133 133 143 143 143 143 143 143 147 147 147 164 164 164 168 168 168 157 157 157 155 155 155 158 158 158 158 158 158 154 154 154 158 158 158 176 176 176 188 188 188 189 189 189 192 192 192 195 195 195 195 195 195 191 191 191 175 175 175 156 156 156 151 151 151 155 155 155 154 154 154 156 156 156 157 157 157 148 148 148 139 139 139 137 137 137 138 138 138 134 134 134 131 131 131 131 131 131 128 128 128 129 129 129 131 131 131 126 126 126 123 123 123 131 131 131 131 131 131 122 122 122 117 117 117 116 116 116 117 117 117 124 124 124 134 134 134 140 140 140 136 136 136 131 131 131 133 133 133 137 137 137 133 133 133 131 131 131 134 134 134 133 133 133 130 130 130 129 129 129 123 123 123 112 112 112 112 112 112 120 120 120 125 125 125 128 128 128 128 128 128 124 124 124 130 130 130 136 136 136 136 136 136 134 134 134 128 128 128 128 128 128 133 133 133 127 127 127 125 125 125 131 131 131 132 132 132 129 129 129 129 129 129 134 134 134 141 141 141 143 143 143 132 132 132 121 121 121 117 117 117 116 116 116 119 119 119 120 120 120 119 119 119 120 120 120 117 117 117 119 119 119 127 127 127 125 125 125 124 124 124 129 129 129 124 124 124 120 120 120 126 126 126 154 154 154 193 193 193 200 200 200 195 195 195 206 206 206 216 216 216 209 209 209 195 195 195 194 194 194 199 199 199 197 197 197 197 197 197 206 206 206 209 209 209 202 202 202 199 199 199 205 205 205 207 207 207 203 203 203 199 199 199 192 192 192 196 196 196 205 205 205 207 207 207 208 208 208 207 207 207 209 209 209 210 210 210 204 204 204 191 191 191 190 190 190 198 198 198 195 195 195 187 187 187 183 183 183 186 186 186 197 197 197 208 208 208 209 209 209 200 200 200 194 194 194 196 196 196 198 198 198 200 200 200 209 209 209 209 209 209 202 202 202 198 198 198 199 199 199 202 202 202 198 198 198 195 195 195 198 198 198 200 200 200 200 200 200 196 196 196 194 194 194 195 195 195 192 192 192 191 191 191 202 202 202 192 192 192 156 156 156 133 133 133 131 131 131 138 138 138 144 144 144 140 140 140 132 132 132 127 127 127 130 130 130 131 131 131 123 123 123 121 121 121 125 125 125 129 129 129 139 139 139 143 143 143 137 137 137 128 128 128 0 0 0 
0 0 0 124 124 124 122 122 122 121 121 121 121 121 121 130 130 130 138 138 138 132 132 132 127 127 127 127 127 127 120 120 120 120 120 120 130 130 130 131 131 131 121 121 121 119 119 119 121 121 121 119 119 119 116 116 116 117 117 117 126 126 126 131 131 131 137 137 137 143 143 143 141 141 141 140 140 140 137 137 137 127 127 127 127 127 127 133 133 133 130 130 130 119 119 119 126 126 126 152 152 152 162 162 162 158 158 158 160 160 160 168 168 168 174 174 174 170 170 170 169 169 169 177 177 177 182 182 182 182 182 182 180 180 180 181 181 181 187 187 187 188 188 188 180 180 180 167 167 167 163 163 163 161 161 161 162 162 162 160 160 160 155 155 155 159 159 159 157 157 157 140 140 140 126 126 126 129 129 129 129 129 129 117 117 117 113 113 113 112 112 112 112 112 112 119 119 119 133 133 133 141 141 141 137 137 137 129 129 129 130 130 130 136 136 136 134 134 134 129 129 129 134 134 134 140 140 140 139 139 139 136 136 136 127 127 127 121 121 121 128 128 128 130 130 130 126 126 126 128 128 128 127 127 127 123 123 123 127 127 127 129 129 129 126 126 126 130 130 130 130 130 130 128 128 128 128 128 128 124 124 124 129 129 129 132 132 132 121 121 121 116 116 116 127 127 127 138 138 138 142 142 142 138 138 138 128 128 128 123 123 123 121 121 121 120 120 120 123 123 123 126 126 126 123 123 123 117 117 117 112 112 112 116 116 116 120 120 120 119 119 119 121 121 121 127 127 127 130 130 130 125 125 125 126 126 126 155 155 155 193 193 193 201 201 201 192 192 192 197 197 197 210 210 210 205 205 205 191 191 191 188 188 188 198 198 198 199 199 199 193 193 193 198 198 198 206 206 206 205 205 205 205 205 205 211 211 211 210 210 210 202 202 202 199 199 199 195 195 195 196 196 196 204 204 204 206 206 206 204 204 204 200 200 200 197 197 197 202 202 202 207 207 207 198 198 198 196 196 196 206 206 206 203 203 203 190 190 190 187 187 187 193 193 193 198 198 198 205 205 205 208 208 208 203 203 203 197 197 197 193 193 193 196 196 196 203 203 203 208 208 208 206 206 206 202 202 202 202 202 202 207 207 207 205 205 205 195 195 195 191 191 191 194 194 194 196 196 196 199 199 199 199 199 199 198 198 198 193 193 193 191 191 191 195 195 195 200 200 200 185 185 185 143 143 143 121 121 121 127 127 127 137 137 137 142 142 142 137 137 137 131 131 131 132 132 132 136 136 136 136 136 136 127 127 127 123 123 123 122 122 122 121 121 121 130 130 130 136 136 136 132 132 132 127 127 127 0 0 0 
0 0 0 131 131 131 133 133 133 129 129 129 126 126 126 134 134 134 139 139 139 132 132 132 122 122 122 116 116 116 115 115 115 123 123 123 130 130 130 124 124 124 115 115 115 113 113 113 120 120 120 125 125 125 118 118 118 114 114 114 120 120 120 120 120 120 122 122 122 131 131 131 134 134 134 131 131 131 127 127 127 121 121 121 121 121 121 127 127 127 128 128 128 122 122 122 120 120 120 124 124 124 125 125 125 127 127 127 131 131 131 138 138 138 144 144 144 142 142 142 147 147 147 155 155 155 152 152 152 149 149 149 149 149 149 151 151 151 159 159 159 164 164 164 171 171 171 182 182 182 189 189 189 191 191 191 195 195 195 192 192 192 185 185 185 185 185 185 184 184 184 176 176 176 168 168 168 164 164 164 154 154 154 145 145 145 145 145 145 146 146 146 141 141 141 129 129 129 129 129 129 136 136 136 133 133 133 131 131 131 132 132 132 134 134 134 132 132 132 127 127 127 130 130 130 139 139 139 142 142 142 139 139 139 134 134 134 130 130 130 132 132 132 128 128 128 124 124 124 126 126 126 124 124 124 125 125 125 126 126 126 124 124 124 122 122 122 120 120 120 121 121 121 124 124 124 124 124 124 126 126 126 134 134 134 132 132 132 121 121 121 120 120 120 125 125 125 131 131 131 136 136 136 131 131 131 127 127 127 130 130 130 131 131 131 129 129 129 130 130 130 130 130 130 127 127 127 121 121 121 122 122 122 127 127 127 123 123 123 115 115 115 122 122 122 131 131 131 132 132 132 125 125 125 120 120 120 149 149 149 192 192 192 202 202 202 193 193 193 195 195 195 205 205 205 203 203 203 197 197 197 191 191 191 196 196 196 204 204 204 200 200 200 202 202 202 207 207 207 204 204 204 201 201 201 207 207 207 207 207 207 197 197 197 195 195 195 199 199 199 196 196 196 195 195 195 200 200 200 199 199 199 194 194 194 195 195 195 203 203 203 211 211 211 205 205 205 200 200 200 208 208 208 208 208 208 199 199 199 197 197 197 205 205 205 205 205 205 205 205 205 210 210 210 213 213 213 211 211 211 199 199 199 195 195 195 202 202 202 204 204 204 200 200 200 197 197 197 198 198 198 201 201 201 195 195 195 190 190 190 193 193 193 192 192 192 193 193 193 201 201 201 203 203 203 200 200 200 198 198 198 196 196 196 197 197 197 200 200 200 182 182 182 139 139 139 121 121 121 132 132 132 139 139 139 138 138 138 134 134 134 133 133 133 134 134 134 136 136 136 137 137 137 131 131 131 126 126 126 118 118 118 113 113 113 123 123 123 131 131 131 127 127 127 125 125 125 0 0 0 
0 0 0 130 130 130 128 128 128 128 128 128 128 128 128 132 132 132 140 140 140 143 143 143 132 132 132 119 119 119 117 117 117 126 126 126 129 129 129 119 119 119 112 112 112 110 110 110 115 115 115 127 127 127 129 129 129 123 123 123 118 118 118 117 117 117 120 120 120 124 124 124 130 130 130 132 132 132 128 128 128 124 124 124 125 125 125 126 126 126 128 128 128 132 132 132 130 130 130 126 126 126 125 125 125 131 131 131 135 135 135 135 135 135 135 135 135 133 133 133 131 131 131 126 126 126 121 121 121 126 126 126 130 130 130 133 133 133 139 139 139 137 137 137 137 137 137 148 148 148 157 157 157 159 159 159 159 159 159 159 159 159 157 157 157 152 152 152 160 160 160 181 181 181 194 194 194 197 197 197 189 189 189 182 182 182 181 181 181 180 180 180 175 175 175 160 160 160 154 154 154 162 162 162 165 165 165 165 165 165 163 163 163 159 159 159 151 151 151 137 137 137 126 126 126 129 129 129 136 136 136 139 139 139 140 140 140 135 135 135 123 123 123 116 116 116 122 122 122 124 124 124 124 124 124 132 132 132 131 131 131 125 125 125 125 125 125 121 121 121 121 121 121 125 125 125 123 123 123 125 125 125 127 127 127 125 125 125 127 127 127 129 129 129 122 122 122 122 122 122 129 129 129 127 127 127 126 126 126 128 128 128 125 125 125 125 125 125 129 129 129 133 133 133 133 133 133 131 131 131 134 134 134 140 140 140 135 135 135 124 124 124 126 126 126 128 128 128 126 126 126 123 123 123 119 119 119 146 146 146 194 194 194 207 207 207 198 198 198 197 197 197 202 202 202 202 202 202 199 199 199 191 191 191 193 193 193 206 206 206 205 205 205 199 199 199 195 195 195 190 190 190 193 193 193 200 200 200 199 199 199 196 196 196 199 199 199 202 202 202 196 196 196 191 191 191 193 193 193 193 193 193 196 196 196 207 207 207 213 213 213 210 210 210 199 199 199 193 193 193 200 200 200 204 204 204 202 202 202 200 200 200 203 203 203 205 205 205 207 207 207 210 210 210 216 216 216 216 216 216 202 202 202 196 196 196 205 205 205 205 205 205 194 194 194 192 192 192 196 196 196 195 195 195 193 193 193 192 192 192 190 190 190 185 185 185 192 192 192 203 203 203 199 199 199 194 194 194 196 196 196 194 194 194 193 193 193 196 196 196 178 178 178 144 144 144 133 133 133 139 139 139 143 143 143 141 141 141 133 133 133 131 131 131 133 133 133 135 135 135 133 133 133 129 129 129 124 124 124 117 117 117 113 113 113 120 120 120 129 129 129 129 129 129 124 124 124 0 0 0 
0 0 0 127 127 127 118 118 118 123 123 123 131 131 131 133 133 133 137 137 137 143 143 143 139 139 139 124 124 124 118 118 118 125 125 125 127 127 127 121 121 121 114 114 114 112 112 112 119 119 119 131 131 131 136 136 136 130 130 130 125 125 125 127 127 127 128 128 128 126 126 126 132 132 132 141 141 141 138 138 138 131 131 131 127 127 127 124 124 124 124 124 124 127 127 127 128 128 128 126 126 126 123 123 123 124 124 124 128 128 128 130 130 130 126 126 126 121 121 121 119 119 119 121 121 121 126 126 126 131 131 131 134 134 134 140 140 140 143 143 143 134 134 134 126 126 126 125 125 125 126 126 126 124 124 124 117 117 117 116 116 116 123 123 123 127 127 127 132 132 132 146 146 146 158 158 158 166 166 166 165 165 165 161 161 161 159 159 159 150 150 150 158 158 158 181 181 181 192 192 192 191 191 191 192 192 192 191 191 191 189 189 189 189 189 189 184 184 184 172 172 172 157 157 157 153 153 153 160 160 160 165 165 165 168 168 168 163 163 163 143 143 143 126 126 126 126 126 126 126 126 126 127 127 127 133 133 133 133 133 133 126 126 126 122 122 122 122 122 122 125 125 125 126 126 126 122 122 122 124 124 124 124 124 124 122 122 122 131 131 131 138 138 138 129 129 129 122 122 122 121 121 121 120 120 120 122 122 122 121 121 121 114 114 114 117 117 117 128 128 128 136 136 136 135 135 135 132 132 132 135 135 135 143 143 143 146 146 146 137 137 137 127 127 127 122 122 122 128 128 128 133 133 133 129 129 129 149 149 149 194 194 194 211 211 211 202 202 202 196 196 196 198 198 198 200 200 200 195 195 195 190 190 190 195 195 195 205 205 205 204 204 204 194 194 194 183 183 183 182 182 182 188 188 188 193 193 193 194 194 194 197 197 197 203 203 203 202 202 202 198 198 198 195 195 195 192 192 192 190 190 190 195 195 195 203 203 203 208 208 208 207 207 207 197 197 197 192 192 192 197 197 197 203 203 203 204 204 204 197 197 197 192 192 192 195 195 195 200 200 200 206 206 206 214 214 214 217 217 217 205 205 205 200 200 200 208 208 208 205 205 205 194 194 194 194 194 194 200 200 200 201 201 201 203 203 203 199 199 199 184 184 184 179 179 179 188 188 188 197 197 197 194 194 194 188 188 188 185 185 185 184 184 184 189 189 189 192 192 192 175 175 175 148 148 148 135 135 135 134 134 134 139 139 139 139 139 139 130 130 130 126 126 126 128 128 128 129 129 129 132 132 132 134 134 134 130 130 130 125 125 125 124 124 124 125 125 125 124 124 124 125 125 125 127 127 127 0 0 0 
0 0 0 132 132 132 117 117 117 119 119 119 129 129 129 134 134 134 134 134 134 138 138 138 139 139 139 128 128 128 124 124 124 129 129 129 131 131 131 128 128 128 120 120 120 120 120 120 129 129 129 135 135 135 134 134 134 126 126 126 126 126 126 134 134 134 133 133 133 126 126 126 129 129 129 139 139 139 140 140 140 131 131 131 118 118 118 113 113 113 117 117 117 120 120 120 122 122 122 122 122 122 119 119 119 117 117 117 118 118 118 123 123 123 125 125 125 122 122 122 119 119 119 125 125 125 131 131 131 127 127 127 127 127 127 136 136 136 139 139 139 133 133 133 130 130 130 127 127 127 125 125 125 122 122 122 112 112 112 108 108 108 121 121 121 134 134 134 135 135 135 130 130 130 130 130 130 135 135 135 132 132 132 135 135 135 139 139 139 127 127 127 128 128 128 155 155 155 166 166 166 158 158 158 155 155 155 151 151 151 152 152 152 159 159 159 171 171 171 183 183 183 183 183 183 183 183 183 189 189 189 192 192 192 192 192 192 185 185 185 173 173 173 166 166 166 161 161 161 159 159 159 162 162 162 164 164 164 166 166 166 162 162 162 148 148 148 137 137 137 132 132 132 127 127 127 123 123 123 129 129 129 131 131 131 126 126 126 129 129 129 140 140 140 139 139 139 126 126 126 118 118 118 116 116 116 122 122 122 124 124 124 121 121 121 126 126 126 135 135 135 134 134 134 128 128 128 125 125 125 129 129 129 137 137 137 143 143 143 141 141 141 131 131 131 124 124 124 132 132 132 139 139 139 134 134 134 145 145 145 182 182 182 203 203 203 206 206 206 205 205 205 202 202 202 203 203 203 196 196 196 193 193 193 197 197 197 200 200 200 204 204 204 200 200 200 190 190 190 188 188 188 193 193 193 198 198 198 203 203 203 201 201 201 199 199 199 196 196 196 196 196 196 197 197 197 194 194 194 197 197 197 200 200 200 198 198 198 198 198 198 201 201 201 203 203 203 202 202 202 202 202 202 204 204 204 203 203 203 194 194 194 187 187 187 183 183 183 189 189 189 202 202 202 209 209 209 211 211 211 204 204 204 199 199 199 201 201 201 195 195 195 192 192 192 196 196 196 199 199 199 199 199 199 202 202 202 199 199 199 184 184 184 184 184 184 193 193 193 195 195 195 193 193 193 191 191 191 187 187 187 189 189 189 193 193 193 190 190 190 174 174 174 146 146 146 132 132 132 132 132 132 130 130 130 127 127 127 124 124 124 121 121 121 123 123 123 130 130 130 137 137 137 136 136 136 129 129 129 133 133 133 137 137 137 130 130 130 118 118 118 117 117 117 126 126 126 0 0 0 
0 0 0 135 135 135 122 122 122 124 124 124 131 131 131 136 136 136 135 135 135 134 134 134 134 134 134 130 130 130 130 130 130 135 135 135 134 134 134 131 131 131 128 128 128 126 126 126 127 127 127 129 129 129 129 129 129 123 123 123 124 124 124 135 135 135 140 140 140 130 130 130 126 126 126 134 134 134 137 137 137 129 129 129 118 118 118 114 114 114 123 123 123 130 130 130 126 126 126 122 122 122 124 124 124 122 122 122 120 120 120 124 124 124 130 130 130 128 128 128 127 127 127 129 129 129 128 128 128 123 123 123 121 121 121 133 133 133 141 141 141 137 137 137 132 132 132 127 127 127 125 125 125 125 125 125 121 121 121 119 119 119 126 126 126 132 132 132 134 134 134 128 128 128 126 126 126 129 129 129 123 123 123 126 126 126 136 136 136 130 130 130 122 122 122 129 129 129 129 129 129 124 124 124 123 123 123 121 121 121 121 121 121 127 127 127 140 140 140 153 153 153 158 158 158 160 160 160 162 162 162 165 165 165 161 161 161 148 148 148 154 154 154 178 178 178 185 185 185 184 184 184 192 192 192 196 196 196 198 198 198 197 197 197 186 186 186 171 171 171 162 162 162 156 156 156 155 155 155 159 159 159 161 161 161 157 157 157 147 147 147 143 143 143 142 142 142 135 135 135 125 125 125 120 120 120 123 123 123 129 129 129 135 135 135 138 138 138 135 135 135 128 128 128 125 125 125 128 128 128 127 127 127 125 125 125 127 127 127 129 129 129 130 130 130 129 129 129 129 129 129 128 128 128 124 124 124 138 138 138 172 172 172 192 192 192 201 201 201 209 209 209 209 209 209 207 207 207 201 201 201 198 198 198 199 199 199 201 201 201 202 202 202 201 201 201 198 198 198 195 195 195 199 199 199 209 209 209 214 214 214 208 208 208 200 200 200 194 194 194 191 191 191 193 193 193 199 199 199 205 205 205 206 206 206 206 206 206 200 200 200 193 193 193 200 200 200 205 205 205 202 202 202 199 199 199 194 194 194 193 193 193 190 190 190 182 182 182 189 189 189 203 203 203 204 204 204 202 202 202 194 194 194 193 193 193 197 197 197 191 191 191 190 190 190 199 199 199 202 202 202 193 193 193 189 189 189 191 191 191 188 188 188 192 192 192 200 200 200 196 196 196 191 191 191 197 197 197 200 200 200 199 199 199 198 198 198 193 193 193 176 176 176 147 147 147 137 137 137 136 136 136 127 127 127 124 124 124 127 127 127 122 122 122 122 122 122 133 133 133 136 136 136 128 128 128 126 126 126 135 135 135 136 136 136 125 125 125 115 115 115 115 115 115 119 119 119 0 0 0 
0 0 0 135 135 135 132 132 132 136 136 136 136 136 136 136 136 136 130 130 130 126 126 126 129 129 129 126 126 126 124 124 124 131 131 131 128 128 128 123 123 123 129 129 129 129 129 129 123 123 123 125 125 125 127 127 127 130 130 130 130 130 130 133 133 133 139 139 139 134 134 134 125 125 125 133 133 133 136 136 136 129 129 129 126 126 126 125 125 125 130 130 130 133 133 133 126 126 126 125 125 125 132 132 132 132 132 132 126 126 126 127 127 127 131 131 131 128 128 128 130 130 130 128 128 128 125 125 125 127 127 127 127 127 127 134 134 134 140 140 140 135 135 135 132 132 132 132 132 132 130 130 130 127 127 127 131 131 131 135 135 135 131 131 131 126 126 126 126 126 126 125 125 125 124 124 124 121 121 121 115 115 115 116 116 116 120 120 120 118 118 118 118 118 118 129 129 129 131 131 131 122 122 122 121 121 121 127 127 127 127 127 127 128 128 128 132 132 132 133 133 133 135 135 135 136 136 136 136 136 136 137 137 137 129 129 129 122 122 122 130 130 130 145 145 145 152 152 152 154 154 154 157 157 157 161 161 161 165 165 165 166 166 166 167 167 167 174 174 174 181 181 181 186 186 186 187 187 187 189 189 189 194 194 194 193 193 193 181 181 181 171 171 171 168 168 168 164 164 164 154 154 154 151 151 151 156 156 156 160 160 160 160 160 160 145 145 145 126 126 126 126 126 126 132 132 132 133 133 133 129 129 129 120 120 120 115 115 115 117 117 117 126 126 126 133 133 133 132 132 132 125 125 125 124 124 124 144 144 144 176 176 176 187 187 187 193 193 193 204 204 204 203 203 203 201 201 201 208 208 208 210 210 210 202 202 202 200 200 200 199 199 199 196 196 196 198 198 198 197 197 197 202 202 202 211 211 211 215 215 215 210 210 210 200 200 200 197 197 197 193 193 193 192 192 192 202 202 202 204 204 204 201 201 201 209 209 209 207 207 207 198 198 198 199 199 199 200 200 200 198 198 198 195 195 195 192 192 192 196 196 196 196 196 196 192 192 192 198 198 198 205 205 205 207 207 207 202 202 202 192 192 192 196 196 196 203 203 203 196 196 196 192 192 192 199 199 199 205 205 205 196 196 196 187 187 187 191 191 191 195 195 195 193 193 193 191 191 191 191 191 191 191 191 191 198 198 198 201 201 201 195 195 195 197 197 197 201 201 201 182 182 182 150 150 150 137 137 137 132 132 132 125 125 125 126 126 126 133 133 133 128 128 128 122 122 122 126 126 126 127 127 127 127 127 127 132 132 132 136 136 136 132 132 132 121 121 121 118 118 118 119 119 119 115 115 115 0 0 0 
0 0 0 133 133 133 134 134 134 138 138 138 137 137 137 134 134 134 125 125 125 123 123 123 130 130 130 127 127 127 122 122 122 126 126 126 124 124 124 120 120 120 131 131 131 133 133 133 127 127 127 126 126 126 127 127 127 134 134 134 133 133 133 125 125 125 127 127 127 131 131 131 130 130 130 135 135 135 137 137 137 132 132 132 131 131 131 132 132 132 130 130 130 126 126 126 127 127 127 131 131 131 134 134 134 134 134 134 126 126 126 124 124 124 130 130 130 129 129 129 127 127 127 129 129 129 128 128 128 132 132 132 134 134 134 133 133 133 135 135 135 135 135 135 132 132 132 131 131 131 130 130 130 127 127 127 128 128 128 133 133 133 131 131 131 128 128 128 123 123 123 122 122 122 129 129 129 127 127 127 124 124 124 121 121 121 115 115 115 113 113 113 113 113 113 123 123 123 132 132 132 128 128 128 124 124 124 127 127 127 130 130 130 128 128 128 125 125 125 124 124 124 129 129 129 132 132 132 130 130 130 130 130 130 129 129 129 131 131 131 130 130 130 124 124 124 128 128 128 132 132 132 128 128 128 126 126 126 133 133 133 139 139 139 136 136 136 139 139 139 151 151 151 164 164 164 168 168 168 166 166 166 167 167 167 165 165 165 166 166 166 181 181 181 191 191 191 186 186 186 177 177 177 178 178 178 188 188 188 192 192 192 188 188 188 171 171 171 156 156 156 160 160 160 162 162 162 158 158 158 158 158 158 157 157 157 146 146 146 129 129 129 125 125 125 132 132 132 135 135 135 134 134 134 132 132 132 150 150 150 180 180 180 189 189 189 196 196 196 205 205 205 202 202 202 199 199 199 209 209 209 209 209 209 196 196 196 194 194 194 199 199 199 197 197 197 199 199 199 202 202 202 204 204 204 207 207 207 208 208 208 203 203 203 193 193 193 194 194 194 198 198 198 197 197 197 202 202 202 199 199 199 195 195 195 203 203 203 208 208 208 207 207 207 198 198 198 195 195 195 202 202 202 198 198 198 192 192 192 198 198 198 201 201 201 199 199 199 198 198 198 200 200 200 205 205 205 207 207 207 203 203 203 206 206 206 210 210 210 203 203 203 198 198 198 200 200 200 201 201 201 200 200 200 200 200 200 202 202 202 203 203 203 196 196 196 189 189 189 193 193 193 200 200 200 198 198 198 194 194 194 195 195 195 202 202 202 209 209 209 188 188 188 151 151 151 133 133 133 127 127 127 124 124 124 127 127 127 135 135 135 132 132 132 120 120 120 123 123 123 129 129 129 129 129 129 130 130 130 132 132 132 129 129 129 122 122 122 123 123 123 128 128 128 123 123 123 0 0 0 
0 0 0 130 130 130 129 129 129 130 130 130 133 133 133 134 134 134 128 128 128 128 128 128 129 129 129 127 127 127 127 127 127 129 129 129 126 126 126 125 125 125 133 133 133 132 132 132 130 130 130 131 131 131 125 125 125 127 127 127 126 126 126 116 116 116 118 118 118 130 130 130 137 137 137 139 139 139 136 136 136 133 133 133 133 133 133 133 133 133 126 126 126 123 123 123 129 129 129 128 128 128 126 126 126 128 128 128 124 124 124 123 123 123 129 129 129 131 131 131 127 127 127 128 128 128 132 132 132 134 134 134 135 135 135 131 131 131 131 131 131 133 133 133 127 127 127 122 122 122 126 126 126 127 127 127 127 127 127 127 127 127 126 126 126 129 129 129 124 124 124 121 121 121 131 131 131 138 138 138 138 138 138 132 132 132 123 123 123 118 118 118 114 114 114 121 121 121 130 130 130 131 131 131 128 128 128 128 128 128 131 131 131 129 129 129 122 122 122 122 122 122 132 132 132 137 137 137 130 130 130 129 129 129 132 132 132 130 130 130 124 124 124 119 119 119 123 123 123 128 128 128 127 127 127 127 127 127 134 134 134 143 143 143 135 135 135 124 124 124 128 128 128 139 139 139 144 144 144 138 138 138 134 134 134 132 132 132 132 132 132 144 144 144 153 153 153 147 147 147 141 141 141 144 144 144 152 152 152 160 160 160 173 173 173 189 189 189 191 191 191 188 188 188 183 183 183 182 182 182 188 188 188 190 190 190 182 182 182 165 165 165 155 155 155 157 157 157 161 161 161 163 163 163 158 158 158 168 168 168 189 189 189 199 199 199 207 207 207 214 214 214 211 211 211 207 207 207 207 207 207 201 201 201 190 190 190 192 192 192 201 201 201 202 202 202 202 202 202 203 203 203 205 205 205 205 205 205 199 199 199 191 191 191 186 186 186 186 186 186 194 194 194 199 199 199 201 201 201 196 196 196 191 191 191 194 194 194 203 203 203 201 201 201 186 186 186 188 188 188 201 201 201 200 200 200 196 196 196 202 202 202 203 203 203 196 196 196 191 191 191 192 192 192 199 199 199 206 206 206 209 209 209 209 209 209 208 208 208 208 208 208 206 206 206 203 203 203 199 199 199 203 203 203 207 207 207 201 201 201 198 198 198 202 202 202 201 201 201 200 200 200 200 200 200 194 194 194 196 196 196 205 205 205 209 209 209 207 207 207 187 187 187 154 154 154 136 136 136 134 134 134 131 131 131 133 133 133 135 135 135 127 127 127 118 118 118 124 124 124 130 130 130 125 125 125 124 124 124 128 128 128 133 133 133 130 130 130 129 129 129 138 138 138 135 135 135 0 0 0 
0 0 0 130 130 130 133 133 133 128 128 128 132 132 132 137 137 137 135 135 135 132 132 132 127 127 127 122 122 122 121 121 121 122 122 122 119 119 119 123 123 123 130 130 130 127 127 127 133 133 133 135 135 135 124 124 124 121 121 121 121 121 121 116 116 116 119 119 119 130 130 130 136 136 136 137 137 137 129 129 129 127 127 127 129 129 129 126 126 126 122 122 122 120 120 120 122 122 122 119 119 119 116 116 116 119 119 119 119 119 119 121 121 121 129 129 129 135 135 135 132 132 132 128 128 128 135 135 135 140 140 140 136 136 136 130 130 130 129 129 129 127 127 127 119 119 119 118 118 118 121 121 121 121 121 121 130 130 130 132 132 132 124 124 124 128 128 128 131 131 131 127 127 127 128 128 128 133 133 133 138 138 138 135 135 135 127 127 127 119 119 119 120 120 120 132 132 132 134 134 134 128 128 128 127 127 127 133 133 133 136 136 136 131 131 131 126 126 126 129 129 129 141 141 141 146 146 146 143 143 143 139 139 139 130 130 130 124 124 124 119 119 119 117 117 117 122 122 122 122 122 122 118 118 118 123 123 123 134 134 134 141 141 141 135 135 135 127 127 127 129 129 129 131 131 131 131 131 131 128 128 128 131 131 131 136 136 136 134 134 134 127 127 127 121 121 121 118 118 118 114 114 114 112 112 112 119 119 119 128 128 128 143 143 143 160 160 160 160 160 160 152 152 152 146 146 146 146 146 146 152 152 152 152 152 152 157 157 157 175 175 175 188 188 188 188 188 188 187 187 187 183 183 183 181 181 181 189 189 189 204 204 204 215 215 215 225 225 225 229 229 229 228 228 228 223 223 223 219 219 219 212 212 212 201 201 201 200 200 200 207 207 207 203 203 203 199 199 199 199 199 199 204 204 204 208 208 208 198 198 198 187 187 187 186 186 186 187 187 187 189 189 189 195 195 195 197 197 197 193 193 193 188 188 188 191 191 191 200 200 200 197 197 197 188 188 188 190 190 190 195 195 195 197 197 197 201 201 201 200 200 200 199 199 199 199 199 199 195 195 195 195 195 195 200 200 200 202 202 202 203 203 203 204 204 204 205 205 205 209 209 209 208 208 208 203 203 203 204 204 204 208 208 208 207 207 207 199 199 199 195 195 195 201 201 201 202 202 202 197 197 197 191 191 191 192 192 192 201 201 201 204 204 204 202 202 202 202 202 202 185 185 185 151 151 151 135 135 135 137 137 137 131 131 131 128 128 128 129 129 129 127 127 127 128 128 128 130 130 130 126 126 126 117 117 117 116 116 116 124 124 124 134 134 134 136 136 136 132 132 132 140 140 140 137 137 137 0 0 0 
0 0 0 134 134 134 140 140 140 137 137 137 135 135 135 136 136 136 133 133 133 129 129 129 125 125 125 121 121 121 120 120 120 118 118 118 112 112 112 121 121 121 132 132 132 132 132 132 134 134 134 130 130 130 125 125 125 124 124 124 119 119 119 116 116 116 126 126 126 131 131 131 133 133 133 133 133 133 126 126 126 124 124 124 124 124 124 121 121 121 122 122 122 122 122 122 119 119 119 119 119 119 123 123 123 123 123 123 117 117 117 122 122 122 138 138 138 143 143 143 136 136 136 131 131 131 138 138 138 140 140 140 134 134 134 132 132 132 133 133 133 129 129 129 120 120 120 116 116 116 115 115 115 116 116 116 128 128 128 137 137 137 128 128 128 127 127 127 135 135 135 135 135 135 124 124 124 121 121 121 128 128 128 131 131 131 127 127 127 121 121 121 124 124 124 135 135 135 137 137 137 131 131 131 127 127 127 132 132 132 131 131 131 125 125 125 125 125 125 131 131 131 139 139 139 139 139 139 140 140 140 134 134 134 122 122 122 121 121 121 120 120 120 122 122 122 134 134 134 129 129 129 116 116 116 120 120 120 133 133 133 136 136 136 128 128 128 126 126 126 126 126 126 122 122 122 123 123 123 122 122 122 123 123 123 132 132 132 138 138 138 136 136 136 131 131 131 131 131 131 126 126 126 120 120 120 129 129 129 135 135 135 136 136 136 133 133 133 122 122 122 119 119 119 122 122 122 117 117 117 114 114 114 115 115 115 124 124 124 145 145 145 160 160 160 160 160 160 157 157 157 150 150 150 146 146 146 163 163 163 194 194 194 216 216 216 229 229 229 234 234 234 235 235 235 233 233 233 227 227 227 221 221 221 217 217 217 218 218 218 221 221 221 214 214 214 210 210 210 212 212 212 212 212 212 217 217 217 212 212 212 194 194 194 189 189 189 196 196 196 199 199 199 195 195 195 192 192 192 188 188 188 189 189 189 197 197 197 201 201 201 199 199 199 200 200 200 200 200 200 194 194 194 199 199 199 206 206 206 200 200 200 197 197 197 203 203 203 205 205 205 200 200 200 200 200 200 204 204 204 200 200 200 194 194 194 195 195 195 201 201 201 201 201 201 198 198 198 200 200 200 204 204 204 208 208 208 207 207 207 201 201 201 196 196 196 191 191 191 194 194 194 197 197 197 197 197 197 199 199 199 195 195 195 194 194 194 201 201 201 186 186 186 150 150 150 132 132 132 131 131 131 126 126 126 119 119 119 124 124 124 135 135 135 140 140 140 137 137 137 129 129 129 118 118 118 116 116 116 121 121 121 124 124 124 126 126 126 128 128 128 136 136 136 138 138 138 0 0 0 
0 0 0 133 133 133 134 134 134 136 136 136 135 135 135 128 128 128 123 123 123 121 121 121 121 121 121 126 126 126 126 126 126 118 118 118 112 112 112 120 120 120 134 134 134 138 138 138 132 132 132 127 127 127 131 131 131 133 133 133 126 126 126 122 122 122 128 128 128 134 134 134 139 139 139 137 137 137 126 126 126 121 121 121 120 120 120 119 119 119 119 119 119 122 122 122 124 124 124 126 126 126 131 131 131 133 133 133 127 127 127 131 131 131 142 142 142 141 141 141 134 134 134 133 133 133 135 135 135 131 131 131 127 127 127 131 131 131 134 134 134 135 135 135 131 131 131 123 123 123 120 120 120 119 119 119 125 125 125 133 133 133 127 127 127 122 122 122 132 132 132 137 137 137 127 127 127 117 117 117 121 121 121 127 127 127 128 128 128 127 127 127 123 123 123 125 125 125 129 129 129 129 129 129 126 126 126 124 124 124 123 123 123 122 122 122 123 123 123 128 128 128 130 130 130 127 127 127 128 128 128 121 121 121 113 113 113 117 117 117 117 117 117 122 122 122 136 136 136 135 135 135 124 124 124 125 125 125 134 134 134 136 136 136 128 128 128 123 123 123 123 123 123 126 126 126 131 131 131 128 128 128 122 122 122 128 128 128 137 137 137 139 139 139 137 137 137 136 136 136 132 132 132 125 125 125 130 130 130 140 140 140 137 137 137 129 129 129 121 121 121 123 123 123 128 128 128 124 124 124 121 121 121 123 123 123 122 122 122 127 127 127 131 131 131 127 127 127 125 125 125 120 120 120 113 113 113 136 136 136 177 177 177 202 202 202 213 213 213 217 217 217 217 217 217 218 218 218 213 213 213 208 208 208 213 213 213 224 224 224 228 228 228 221 221 221 222 222 222 225 225 225 219 219 219 221 221 221 222 222 222 211 211 211 207 207 207 215 215 215 218 218 218 212 212 212 205 205 205 201 201 201 204 204 204 208 208 208 206 206 206 201 201 201 202 202 202 200 200 200 196 196 196 202 202 202 209 209 209 206 206 206 200 200 200 200 200 200 202 202 202 195 195 195 193 193 193 207 207 207 207 207 207 195 195 195 189 189 189 191 191 191 194 194 194 189 189 189 189 189 189 199 199 199 203 203 203 203 203 203 202 202 202 195 195 195 192 192 192 200 200 200 205 205 205 200 200 200 195 195 195 192 192 192 195 195 195 199 199 199 179 179 179 146 146 146 130 130 130 127 127 127 123 123 123 120 120 120 129 129 129 137 137 137 135 135 135 135 135 135 134 134 134 125 125 125 120 120 120 121 121 121 121 121 121 122 122 122 126 126 126 134 134 134 141 141 141 0 0 0 
0 0 0 129 129 129 130 130 130 131 131 131 130 130 130 124 124 124 121 121 121 119 119 119 121 121 121 132 132 132 130 130 130 119 119 119 114 114 114 115 115 115 127 127 127 137 137 137 132 132 132 129 129 129 136 136 136 140 140 140 137 137 137 132 132 132 126 126 126 130 130 130 141 141 141 140 140 140 126 126 126 117 117 117 120 120 120 121 121 121 117 117 117 120 120 120 127 127 127 127 127 127 129 129 129 134 134 134 136 136 136 134 134 134 130 130 130 123 123 123 124 124 124 130 130 130 126 126 126 118 118 118 122 122 122 127 127 127 125 125 125 130 130 130 133 133 133 130 130 130 128 128 128 124 124 124 123 123 123 123 123 123 123 123 123 126 126 126 132 132 132 137 137 137 131 131 131 122 122 122 124 124 124 129 129 129 127 127 127 125 125 125 122 122 122 125 125 125 124 124 124 116 116 116 117 117 117 119 119 119 120 120 120 126 126 126 130 130 130 127 127 127 121 121 121 125 125 125 130 130 130 123 123 123 117 117 117 117 117 117 114 114 114 118 118 118 133 133 133 138 138 138 130 130 130 130 130 130 133 133 133 132 132 132 129 129 129 126 126 126 123 123 123 127 127 127 132 132 132 131 131 131 128 128 128 135 135 135 139 139 139 136 136 136 135 135 135 133 133 133 128 128 128 124 124 124 127 127 127 135 135 135 131 131 131 126 126 126 125 125 125 127 127 127 126 126 126 123 123 123 128 128 128 129 129 129 122 122 122 123 123 123 129 129 129 129 129 129 127 127 127 124 124 124 122 122 122 139 139 139 173 173 173 194 194 194 200 200 200 203 203 203 201 201 201 201 201 201 203 203 203 202 202 202 205 205 205 212 212 212 214 214 214 212 212 212 211 211 211 212 212 212 210 210 210 214 214 214 219 219 219 221 221 221 222 222 222 221 221 221 219 219 219 220 220 220 221 221 221 221 221 221 224 224 224 224 224 224 221 221 221 220 220 220 215 215 215 209 209 209 209 209 209 213 213 213 215 215 215 211 211 211 205 205 205 201 201 201 199 199 199 191 191 191 189 189 189 202 202 202 208 208 208 203 203 203 195 195 195 192 192 192 195 195 195 189 189 189 187 187 187 197 197 197 197 197 197 198 198 198 203 203 203 201 201 201 202 202 202 203 203 203 200 200 200 198 198 198 193 193 193 190 190 190 194 194 194 192 192 192 169 169 169 137 137 137 126 126 126 129 129 129 128 128 128 128 128 128 135 135 135 136 136 136 128 128 128 126 126 126 128 128 128 122 122 122 119 119 119 125 125 125 127 127 127 126 126 126 131 131 131 134 134 134 136 136 136 0 0 0 
0 0 0 125 125 125 132 132 132 132 132 132 125 125 125 125 125 125 127 127 127 124 124 124 129 129 129 138 138 138 132 132 132 124 124 124 122 122 122 120 120 120 127 127 127 135 135 135 129 129 129 124 124 124 129 129 129 134 134 134 139 139 139 139 139 139 126 126 126 124 124 124 133 133 133 130 130 130 120 120 120 118 118 118 126 126 126 129 129 129 124 124 124 124 124 124 127 127 127 125 125 125 122 122 122 126 126 126 132 132 132 126 126 126 115 115 115 111 111 111 118 118 118 128 128 128 127 127 127 116 116 116 117 117 117 124 124 124 121 121 121 123 123 123 124 124 124 119 119 119 120 120 120 122 122 122 120 120 120 118 118 118 126 126 126 133 133 133 133 133 133 134 134 134 132 132 132 128 128 128 132 132 132 133 133 133 126 126 126 122 122 122 128 128 128 136 136 136 128 128 128 115 115 115 117 117 117 121 121 121 114 114 114 119 119 119 134 134 134 134 134 134 124 124 124 124 124 124 126 126 126 126 126 126 128 128 128 124 124 124 118 118 118 125 125 125 137 137 137 138 138 138 132 132 132 136 136 136 136 136 136 127 127 127 124 124 124 126 126 126 121 121 121 114 114 114 118 118 118 124 124 124 128 128 128 138 138 138 140 140 140 133 133 133 133 133 133 130 130 130 123 123 123 128 128 128 134 134 134 129 129 129 123 123 123 119 119 119 119 119 119 123 123 123 126 126 126 124 124 124 123 123 123 126 126 126 127 127 127 122 122 122 122 122 122 132 132 132 135 135 135 132 132 132 128 128 128 139 139 139 174 174 174 195 195 195 195 195 195 201 201 201 199 199 199 196 196 196 208 208 208 213 213 213 206 206 206 203 203 203 205 205 205 206 206 206 204 204 204 200 200 200 201 201 201 208 208 208 213 213 213 216 216 216 210 210 210 203 203 203 204 204 204 208 208 208 210 210 210 215 215 215 222 222 222 224 224 224 227 227 227 230 230 230 225 225 225 220 220 220 224 224 224 227 227 227 225 225 225 223 223 223 223 223 223 219 219 219 214 214 214 206 206 206 204 204 204 209 209 209 209 209 209 204 204 204 195 195 195 189 189 189 195 195 195 194 194 194 187 187 187 192 192 192 197 197 197 195 195 195 201 201 201 208 208 208 207 207 207 201 201 201 201 201 201 203 203 203 195 195 195 190 190 190 196 196 196 195 195 195 174 174 174 143 143 143 129 129 129 132 132 132 135 135 135 134 134 134 133 133 133 131 131 131 127 127 127 122 122 122 119 119 119 119 119 119 124 124 124 131 131 131 128 128 128 127 127 127 133 133 133 131 131 131 125 125 125 0 0 0 
0 0 0 123 123 123 129 129 129 131 131 131 129 129 129 134 134 134 131 131 131 125 125 125 133 133 133 135 135 135 128 128 128 127 127 127 130 130 130 130 130 130 132 132 132 139 139 139 134 134 134 127 127 127 128 128 128 126 126 126 131 131 131 135 135 135 126 126 126 121 121 121 128 128 128 123 123 123 113 113 113 118 118 118 127 127 127 127 127 127 126 126 126 131 131 131 131 131 131 124 124 124 115 115 115 118 118 118 132 132 132 131 131 131 119 119 119 119 119 119 121 121 121 124 124 124 129 129 129 124 124 124 120 120 120 123 123 123 125 125 125 127 127 127 124 124 124 114 114 114 115 115 115 120 120 120 119 119 119 117 117 117 121 121 121 127 127 127 125 125 125 123 123 123 130 130 130 136 136 136 134 134 134 129 129 129 129 129 129 131 131 131 134 134 134 133 133 133 125 125 125 120 120 120 123 123 123 122 122 122 112 112 112 117 117 117 135 135 135 137 137 137 125 125 125 117 117 117 114 114 114 123 123 123 136 136 136 134 134 134 129 129 129 136 136 136 139 139 139 132 132 132 134 134 134 144 144 144 144 144 144 129 129 129 121 121 121 127 127 127 123 123 123 110 110 110 107 107 107 115 115 115 125 125 125 136 136 136 136 136 136 128 128 128 129 129 129 128 128 128 123 123 123 132 132 132 136 136 136 123 123 123 120 120 120 122 122 122 121 121 121 123 123 123 130 130 130 130 130 130 123 123 123 124 124 124 132 132 132 128 128 128 122 122 122 132 132 132 133 133 133 123 123 123 119 119 119 138 138 138 185 185 185 207 207 207 202 202 202 202 202 202 194 194 194 193 193 193 208 208 208 214 214 214 209 209 209 206 206 206 207 207 207 209 209 209 208 208 208 201 201 201 198 198 198 205 205 205 213 213 213 212 212 212 201 201 201 193 193 193 196 196 196 197 197 197 194 194 194 202 202 202 208 208 208 206 206 206 209 209 209 213 213 213 209 209 209 204 204 204 210 210 210 217 217 217 214 214 214 220 220 220 230 230 230 229 229 229 230 230 230 229 229 229 225 225 225 221 221 221 220 220 220 219 219 219 209 209 209 201 201 201 203 203 203 204 204 204 199 199 199 203 203 203 206 206 206 198 198 198 199 199 199 209 209 209 208 208 208 201 201 201 204 204 204 207 207 207 198 198 198 192 192 192 200 200 200 203 203 203 185 185 185 156 156 156 137 137 137 135 135 135 135 135 135 130 130 130 127 127 127 123 123 123 121 121 121 123 123 123 118 118 118 116 116 116 128 128 128 134 134 134 131 131 131 135 135 135 138 138 138 129 129 129 121 121 121 0 0 0 
0 0 0 125 125 125 130 130 130 131 131 131 131 131 131 135 135 135 128 128 128 123 123 123 132 132 132 133 133 133 128 128 128 130 130 130 132 132 132 130 130 130 130 130 130 141 141 141 141 141 141 134 134 134 130 130 130 121 121 121 119 119 119 121 121 121 118 118 118 120 120 120 128 128 128 125 125 125 119 119 119 122 122 122 123 123 123 122 122 122 127 127 127 133 133 133 127 127 127 118 118 118 114 114 114 120 120 120 138 138 138 141 141 141 131 131 131 128 128 128 124 124 124 120 120 120 123 123 123 126 126 126 127 127 127 126 126 126 125 125 125 127 127 127 126 126 126 124 124 124 128 128 128 129 129 129 122 122 122 115 115 115 114 114 114 119 119 119 121 121 121 122 122 122 130 130 130 137 137 137 132 132 132 126 126 126 131 131 131 136 136 136 129 129 129 119 119 119 114 114 114 113 113 113 119 119 119 122 122 122 118 118 118 124 124 124 134 134 134 129 129 129 120 120 120 119 119 119 121 121 121 126 126 126 134 134 134 135 135 135 135 135 135 139 139 139 138 138 138 134 134 134 139 139 139 141 141 141 137 137 137 129 129 129 121 121 121 125 125 125 124 124 124 115 115 115 113 113 113 114 114 114 118 118 118 122 122 122 121 121 121 120 120 120 123 123 123 124 124 124 126 126 126 133 133 133 133 133 133 122 122 122 120 120 120 129 129 129 134 134 134 130 130 130 129 129 129 133 133 133 131 131 131 125 125 125 127 127 127 127 127 127 129 129 129 131 131 131 123 123 123 116 116 116 118 118 118 143 143 143 195 195 195 218 218 218 212 212 212 206 206 206 196 196 196 199 199 199 205 205 205 206 206 206 207 207 207 209 209 209 211 211 211 211 211 211 212 212 212 205 205 205 195 195 195 198 198 198 205 205 205 206 206 206 201 201 201 195 195 195 197 197 197 198 198 198 197 197 197 201 201 201 202 202 202 202 202 202 205 205 205 205 205 205 198 198 198 192 192 192 196 196 196 198 198 198 191 191 191 199 199 199 212 212 212 213 213 213 218 218 218 223 223 223 218 218 218 213 213 213 218 218 218 227 227 227 226 226 226 223 223 223 222 222 222 217 217 217 215 215 215 219 219 219 221 221 221 218 218 218 218 218 218 221 221 221 219 219 219 212 212 212 211 211 211 213 213 213 207 207 207 197 197 197 199 199 199 205 205 205 192 192 192 161 161 161 136 136 136 131 131 131 130 130 130 126 126 126 130 130 130 125 125 125 116 116 116 117 117 117 115 115 115 112 112 112 124 124 124 131 131 131 129 129 129 134 134 134 136 136 136 130 130 130 131 131 131 0 0 0 
0 0 0 123 123 123 130 130 130 130 130 130 126 126 126 127 127 127 124 124 124 120 120 120 126 126 126 128 128 128 127 127 127 134 134 134 140 140 140 135 135 135 131 131 131 136 136 136 135 135 135 130 130 130 127 127 127 121 121 121 120 120 120 118 118 118 117 117 117 120 120 120 122 122 122 126 126 126 130 130 130 131 131 131 128 128 128 131 131 131 136 136 136 134 134 134 124 124 124 121 121 121 123 123 123 126 126 126 137 137 137 139 139 139 131 131 131 125 125 125 125 125 125 123 123 123 120 120 120 123 123 123 125 125 125 124 124 124 124 124 124 122 122 122 124 124 124 132 132 132 137 137 137 135 135 135 124 124 124 117 117 117 117 117 117 119 119 119 123 123 123 128 128 128 131 131 131 133 133 133 136 136 136 132 132 132 128 128 128 129 129 129 123 123 123 116 116 116 113 113 113 110 110 110 117 117 117 125 125 125 123 123 123 127 127 127 133 133 133 128 128 128 122 122 122 126 126 126 129 129 129 127 127 127 125 125 125 126 126 126 133 133 133 136 136 136 134 134 134 133 133 133 133 133 133 128 128 128 130 130 130 134 134 134 126 126 126 122 122 122 121 121 121 120 120 120 128 128 128 126 126 126 115 115 115 109 109 109 108 108 108 111 111 111 118 118 118 121 121 121 125 125 125 129 129 129 128 128 128 123 123 123 119 119 119 124 124 124 134 134 134 133 133 133 125 125 125 129 129 129 132 132 132 127 127 127 127 127 127 128 128 128 130 130 130 130 130 130 126 126 126 129 129 129 133 133 133 154 154 154 198 198 198 215 215 215 209 209 209 205 205 205 203 203 203 209 209 209 210 210 210 203 203 203 201 201 201 205 205 205 209 209 209 211 211 211 211 211 211 203 203 203 192 192 192 192 192 192 193 193 193 197 197 197 202 202 202 202 202 202 207 207 207 207 207 207 203 203 203 203 203 203 204 204 204 206 206 206 210 210 210 207 207 207 197 197 197 193 193 193 194 194 194 191 191 191 190 190 190 197 197 197 205 205 205 202 202 202 199 199 199 201 201 201 198 198 198 197 197 197 202 202 202 209 209 209 215 215 215 222 222 222 221 221 221 212 212 212 207 207 207 208 208 208 215 215 215 224 224 224 228 228 228 225 225 225 224 224 224 221 221 221 218 218 218 218 218 218 218 218 218 214 214 214 210 210 210 210 210 210 197 197 197 157 157 157 125 125 125 120 120 120 122 122 122 124 124 124 131 131 131 126 126 126 114 114 114 114 114 114 113 113 113 112 112 112 120 120 120 120 120 120 117 117 117 125 125 125 128 128 128 128 128 128 137 137 137 0 0 0 
0 0 0 121 121 121 126 126 126 126 126 126 122 122 122 126 126 126 128 128 128 125 125 125 125 125 125 122 122 122 124 124 124 131 131 131 139 139 139 136 136 136 128 128 128 123 123 123 122 122 122 127 127 127 129 129 129 126 126 126 131 131 131 134 134 134 129 129 129 123 123 123 120 120 120 128 128 128 137 137 137 137 137 137 137 137 137 140 140 140 141 141 141 137 137 137 132 132 132 133 133 133 133 133 133 130 130 130 132 132 132 134 134 134 129 129 129 120 120 120 119 119 119 122 122 122 124 124 124 124 124 124 121 121 121 125 125 125 131 131 131 124 124 124 119 119 119 129 129 129 141 141 141 137 137 137 125 125 125 121 121 121 123 123 123 126 126 126 126 126 126 121 121 121 125 125 125 132 132 132 135 135 135 131 131 131 127 127 127 124 124 124 119 119 119 118 118 118 120 120 120 116 116 116 122 122 122 129 129 129 124 124 124 122 122 122 129 129 129 129 129 129 122 122 122 122 122 122 123 123 123 122 122 122 123 123 123 123 123 123 129 129 129 130 130 130 122 122 122 120 120 120 119 119 119 121 121 121 131 131 131 138 138 138 135 135 135 133 133 133 124 124 124 121 121 121 134 134 134 136 136 136 126 126 126 118 118 118 112 112 112 111 111 111 118 118 118 126 126 126 125 125 125 123 123 123 124 124 124 123 123 123 118 118 118 116 116 116 122 122 122 126 126 126 122 122 122 122 122 122 121 121 121 124 124 124 128 128 128 124 124 124 125 125 125 132 132 132 138 138 138 144 144 144 147 147 147 165 165 165 197 197 197 205 205 205 201 201 201 203 203 203 203 203 203 208 208 208 212 212 212 206 206 206 200 200 200 200 200 200 205 205 205 210 210 210 203 203 203 194 194 194 194 194 194 198 198 198 199 199 199 202 202 202 209 209 209 213 213 213 215 215 215 211 211 211 203 203 203 205 205 205 204 204 204 197 197 197 199 199 199 200 200 200 196 196 196 196 196 196 197 197 197 196 196 196 202 202 202 207 207 207 207 207 207 202 202 202 197 197 197 197 197 197 197 197 197 201 201 201 201 201 201 199 199 199 204 204 204 210 210 210 211 211 211 208 208 208 202 202 202 195 195 195 197 197 197 203 203 203 205 205 205 204 204 204 204 204 204 206 206 206 203 203 203 204 204 204 218 218 218 227 227 227 225 225 225 221 221 221 198 198 198 148 148 148 116 116 116 115 115 115 119 119 119 121 121 121 122 122 122 121 121 121 122 122 122 127 127 127 123 123 123 118 118 118 121 121 121 118 118 118 117 117 117 128 128 128 130 130 130 128 128 128 133 133 133 0 0 0 
0 0 0 121 121 121 124 124 124 120 120 120 113 113 113 120 120 120 128 128 128 131 131 131 130 130 130 126 126 126 127 127 127 127 127 127 126 126 126 124 124 124 122 122 122 122 122 122 125 125 125 132 132 132 131 131 131 128 128 128 133 133 133 139 139 139 137 137 137 130 130 130 126 126 126 127 127 127 132 132 132 133 133 133 137 137 137 142 142 142 141 141 141 136 136 136 133 133 133 135 135 135 134 134 134 127 127 127 127 127 127 131 131 131 128 128 128 123 123 123 120 120 120 116 116 116 123 123 123 126 126 126 121 121 121 126 126 126 133 133 133 127 127 127 120 120 120 126 126 126 139 139 139 137 137 137 126 126 126 127 127 127 130 130 130 130 130 130 125 125 125 116 116 116 121 121 121 127 127 127 120 120 120 120 120 120 128 128 128 126 126 126 117 117 117 116 116 116 122 122 122 125 125 125 128 128 128 134 134 134 132 132 132 125 125 125 120 120 120 117 117 117 117 117 117 122 122 122 124 124 124 123 123 123 122 122 122 118 118 118 122 122 122 127 127 127 121 121 121 117 117 117 119 119 119 124 124 124 128 128 128 132 132 132 136 136 136 135 135 135 124 124 124 122 122 122 132 132 132 137 137 137 141 141 141 137 137 137 123 123 123 117 117 117 122 122 122 128 128 128 124 124 124 117 117 117 119 119 119 125 125 125 122 122 122 116 116 116 117 117 117 119 119 119 124 124 124 127 127 127 125 125 125 126 126 126 126 126 126 123 123 123 125 125 125 130 130 130 135 135 135 142 142 142 147 147 147 163 163 163 188 188 188 197 197 197 201 201 201 204 204 204 200 200 200 203 203 203 209 209 209 207 207 207 197 197 197 194 194 194 204 204 204 210 210 210 199 199 199 192 192 192 197 197 197 202 202 202 205 205 205 206 206 206 209 209 209 209 209 209 206 206 206 207 207 207 208 208 208 205 205 205 196 196 196 191 191 191 193 193 193 192 192 192 195 195 195 201 201 201 207 207 207 207 207 207 207 207 207 205 205 205 204 204 204 207 207 207 206 206 206 203 203 203 204 204 204 208 208 208 206 206 206 198 198 198 196 196 196 198 198 198 204 204 204 207 207 207 201 201 201 194 194 194 191 191 191 188 188 188 193 193 193 198 198 198 197 197 197 199 199 199 197 197 197 198 198 198 210 210 210 218 218 218 219 219 219 216 216 216 192 192 192 144 144 144 116 116 116 112 112 112 118 118 118 121 121 121 121 121 121 125 125 125 130 130 130 134 134 134 131 131 131 125 125 125 126 126 126 121 121 121 121 121 121 134 134 134 136 136 136 127 127 127 126 126 126 0 0 0 
0 0 0 125 125 125 127 127 127 118 118 118 109 109 109 117 117 117 129 129 129 129 129 129 127 127 127 128 128 128 129 129 129 128 128 128 124 124 124 122 122 122 129 129 129 138 138 138 139 139 139 135 135 135 128 128 128 123 123 123 123 123 123 131 131 131 136 136 136 130 130 130 125 125 125 122 122 122 123 123 123 126 126 126 130 130 130 138 138 138 140 140 140 131 131 131 125 125 125 129 129 129 131 131 131 119 119 119 119 119 119 128 128 128 128 128 128 131 131 131 130 130 130 119 119 119 121 121 121 127 127 127 122 122 122 124 124 124 127 127 127 123 123 123 121 121 121 121 121 121 126 126 126 129 129 129 129 129 129 136 136 136 137 137 137 132 132 132 128 128 128 126 126 126 128 128 128 123 123 123 114 114 114 118 118 118 124 124 124 120 120 120 117 117 117 116 116 116 120 120 120 129 129 129 133 133 133 136 136 136 140 140 140 135 135 135 121 121 121 112 112 112 120 120 120 128 128 128 125 125 125 124 124 124 120 120 120 112 112 112 118 118 118 131 131 131 129 129 129 124 124 124 128 128 128 131 131 131 125 125 125 126 126 126 130 130 130 123 123 123 119 119 119 126 126 126 134 134 134 138 138 138 141 141 141 139 139 139 127 127 127 122 122 122 129 129 129 130 130 130 124 124 124 119 119 119 122 122 122 130 130 130 128 128 128 128 128 128 127 127 127 122 122 122 125 125 125 132 132 132 133 133 133 131 131 131 129 129 129 132 132 132 132 132 132 123 123 123 121 121 121 127 127 127 134 134 134 154 154 154 181 181 181 194 194 194 203 203 203 206 206 206 198 198 198 198 198 198 207 207 207 206 206 206 198 198 198 198 198 198 205 205 205 207 207 207 202 202 202 196 196 196 195 195 195 199 199 199 206 206 206 204 204 204 199 199 199 191 191 191 190 190 190 201 201 201 211 211 211 204 204 204 191 191 191 197 197 197 204 204 204 197 197 197 193 193 193 200 200 200 210 210 210 213 213 213 206 206 206 199 199 199 201 201 201 208 208 208 206 206 206 202 202 202 201 201 201 198 198 198 196 196 196 191 191 191 188 188 188 192 192 192 198 198 198 200 200 200 200 200 200 200 200 200 197 197 197 193 193 193 197 197 197 204 204 204 203 203 203 201 201 201 201 201 201 198 198 198 199 199 199 206 206 206 208 208 208 206 206 206 188 188 188 149 149 149 120 120 120 111 111 111 113 113 113 119 119 119 124 124 124 128 128 128 125 125 125 126 126 126 128 128 128 127 127 127 126 126 126 120 120 120 120 120 120 132 132 132 133 133 133 122 122 122 122 122 122 0 0 0 
0 0 0 136 136 136 132 132 132 119 119 119 115 115 115 127 127 127 134 134 134 127 127 127 126 126 126 131 131 131 130 130 130 130 130 130 128 128 128 127 127 127 135 135 135 144 144 144 142 142 142 133 133 133 127 127 127 122 122 122 121 121 121 127 127 127 129 129 129 120 120 120 117 117 117 122 122 122 125 125 125 126 126 126 125 125 125 129 129 129 135 135 135 133 133 133 127 127 127 130 130 130 133 133 133 122 122 122 122 122 122 132 132 132 133 133 133 132 132 132 132 132 132 129 129 129 127 127 127 126 126 126 121 121 121 125 125 125 125 125 125 118 118 118 116 116 116 117 117 117 116 116 116 121 121 121 136 136 136 142 142 142 138 138 138 138 138 138 138 138 138 137 137 137 134 134 134 125 125 125 120 120 120 123 123 123 120 120 120 116 116 116 122 122 122 122 122 122 119 119 119 125 125 125 127 127 127 130 130 130 134 134 134 132 132 132 128 128 128 122 122 122 128 128 128 130 130 130 120 120 120 122 122 122 125 125 125 117 117 117 120 120 120 130 130 130 126 126 126 121 121 121 130 130 130 134 134 134 124 124 124 126 126 126 130 130 130 117 117 117 114 114 114 127 127 127 136 136 136 133 133 133 128 128 128 127 127 127 128 128 128 132 132 132 141 141 141 140 140 140 135 135 135 132 132 132 130 130 130 132 132 132 132 132 132 135 135 135 136 136 136 125 125 125 119 119 119 122 122 122 126 126 126 126 126 126 130 130 130 138 138 138 136 136 136 125 125 125 122 122 122 122 122 122 125 125 125 147 147 147 181 181 181 199 199 199 200 200 200 201 201 201 197 197 197 197 197 197 206 206 206 207 207 207 203 203 203 205 205 205 201 201 201 196 196 196 202 202 202 204 204 204 197 197 197 200 200 200 205 205 205 199 199 199 187 187 187 181 181 181 187 187 187 198 198 198 208 208 208 205 205 205 194 194 194 198 198 198 207 207 207 204 204 204 197 197 197 194 194 194 202 202 202 209 209 209 201 201 201 196 196 196 200 200 200 200 200 200 195 195 195 196 196 196 197 197 197 188 188 188 182 182 182 183 183 183 188 188 188 198 198 198 201 201 201 202 202 202 206 206 206 202 202 202 199 199 199 199 199 199 198 198 198 198 198 198 198 198 198 195 195 195 197 197 197 197 197 197 195 195 195 198 198 198 199 199 199 201 201 201 190 190 190 155 155 155 128 128 128 116 116 116 116 116 116 122 122 122 125 125 125 124 124 124 119 119 119 119 119 119 125 125 125 126 126 126 127 127 127 129 129 129 128 128 128 129 129 129 126 126 126 121 121 121 125 125 125 0 0 0 
0 0 0 136 136 136 129 129 129 117 117 117 117 117 117 127 127 127 131 131 131 128 128 128 129 129 129 134 134 134 130 130 130 127 127 127 130 130 130 128 128 128 131 131 131 138 138 138 135 135 135 130 130 130 131 131 131 134 134 134 130 130 130 121 121 121 117 117 117 115 115 115 117 117 117 127 127 127 132 132 132 131 131 131 129 129 129 127 127 127 130 130 130 131 131 131 124 124 124 124 124 124 134 134 134 133 133 133 131 131 131 137 137 137 137 137 137 129 129 129 129 129 129 136 136 136 138 138 138 129 129 129 119 119 119 120 120 120 125 125 125 122 122 122 119 119 119 122 122 122 119 119 119 119 119 119 135 135 135 140 140 140 133 133 133 136 136 136 139 139 139 134 134 134 124 124 124 119 119 119 118 118 118 123 123 123 123 123 123 122 122 122 132 132 132 134 134 134 128 128 128 128 128 128 124 124 124 119 119 119 120 120 120 127 127 127 136 136 136 135 135 135 133 133 133 132 132 132 124 124 124 127 127 127 131 131 131 125 125 125 122 122 122 123 123 123 120 120 120 119 119 119 128 128 128 134 134 134 128 128 128 129 129 129 126 126 126 115 115 115 118 118 118 129 129 129 134 134 134 129 129 129 120 120 120 120 120 120 128 128 128 137 137 137 141 141 141 142 142 142 144 144 144 138 138 138 127 127 127 131 131 131 135 135 135 133 133 133 132 132 132 126 126 126 115 115 115 114 114 114 119 119 119 121 121 121 125 125 125 132 132 132 136 136 136 137 137 137 135 135 135 130 130 130 128 128 128 149 149 149 187 187 187 203 203 203 193 193 193 190 190 190 194 194 194 197 197 197 206 206 206 208 208 208 201 201 201 201 201 201 195 195 195 187 187 187 197 197 197 203 203 203 196 196 196 191 191 191 191 191 191 189 189 189 185 185 185 186 186 186 191 191 191 197 197 197 207 207 207 207 207 207 194 194 194 193 193 193 202 202 202 206 206 206 204 204 204 193 193 193 191 191 191 198 198 198 196 196 196 196 196 196 205 205 205 203 203 203 196 196 196 201 201 201 204 204 204 194 194 194 184 184 184 184 184 184 193 193 193 201 201 201 208 208 208 213 213 213 208 208 208 196 196 196 195 195 195 202 202 202 198 198 198 198 198 198 200 200 200 195 195 195 199 199 199 207 207 207 205 205 205 199 199 199 196 196 196 199 199 199 186 186 186 153 153 153 130 130 130 122 122 122 125 125 125 133 133 133 130 130 130 123 123 123 120 120 120 120 120 120 121 121 121 124 124 124 129 129 129 135 135 135 138 138 138 134 134 134 130 130 130 132 132 132 135 135 135 0 0 0 
0 0 0 127 127 127 121 121 121 117 117 117 117 117 117 118 118 118 121 121 121 126 126 126 125 125 125 125 125 125 126 126 126 127 127 127 134 134 134 134 134 134 130 130 130 129 129 129 125 125 125 125 125 125 132 132 132 137 137 137 133 133 133 123 123 123 115 115 115 116 116 116 120 120 120 122 122 122 127 127 127 130 130 130 132 132 132 132 132 132 133 133 133 128 128 128 118 118 118 120 120 120 130 130 130 130 130 130 130 130 130 135 135 135 137 137 137 132 132 132 130 130 130 136 136 136 140 140 140 134 134 134 125 125 125 124 124 124 129 129 129 126 126 126 122 122 122 123 123 123 118 118 118 114 114 114 126 126 126 132 132 132 126 126 126 127 127 127 128 128 128 122 122 122 118 118 118 117 117 117 120 120 120 128 128 128 125 125 125 122 122 122 132 132 132 136 136 136 133 133 133 135 135 135 129 129 129 120 120 120 125 125 125 137 137 137 145 145 145 142 142 142 133 133 133 131 131 131 135 135 135 138 138 138 134 134 134 127 127 127 122 122 122 118 118 118 118 118 118 122 122 122 127 127 127 132 132 132 130 130 130 124 124 124 120 120 120 121 121 121 126 126 126 129 129 129 133 133 133 132 132 132 124 124 124 123 123 123 130 130 130 134 134 134 131 131 131 133 133 133 142 142 142 136 136 136 123 123 123 130 130 130 136 136 136 129 129 129 123 123 123 122 122 122 118 118 118 120 120 120 126 126 126 122 122 122 115 115 115 117 117 117 128 128 128 138 138 138 138 138 138 131 131 131 128 128 128 149 149 149 187 187 187 199 199 199 190 190 190 188 188 188 192 192 192 198 198 198 206 206 206 207 207 207 202 202 202 203 203 203 198 198 198 191 191 191 197 197 197 198 198 198 187 187 187 181 181 181 182 182 182 187 187 187 194 194 194 195 195 195 191 191 191 193 193 193 201 201 201 202 202 202 195 195 195 195 195 195 202 202 202 206 206 206 203 203 203 192 192 192 188 188 188 193 193 193 193 193 193 190 190 190 201 201 201 210 210 210 206 206 206 206 206 206 207 207 207 206 206 206 199 199 199 190 190 190 194 194 194 200 200 200 208 208 208 212 212 212 205 205 205 195 195 195 197 197 197 205 205 205 203 203 203 204 204 204 206 206 206 198 198 198 196 196 196 206 206 206 210 210 210 208 208 208 206 206 206 199 199 199 175 175 175 140 140 140 122 122 122 119 119 119 122 122 122 129 129 129 131 131 131 130 130 130 127 127 127 123 123 123 121 121 121 123 123 123 125 125 125 128 128 128 133 133 133 135 135 135 133 133 133 135 135 135 135 135 135 0 0 0 
0 0 0 127 127 127 124 124 124 121 121 121 120 120 120 119 119 119 117 117 117 119 119 119 120 120 120 124 124 124 131 131 131 134 134 134 139 139 139 137 137 137 127 127 127 120 120 120 120 120 120 122 122 122 122 122 122 124 124 124 133 133 133 136 136 136 124 124 124 117 117 117 117 117 117 119 119 119 121 121 121 123 123 123 127 127 127 133 133 133 139 139 139 134 134 134 122 122 122 125 125 125 128 128 128 122 122 122 124 124 124 133 133 133 137 137 137 136 136 136 134 134 134 130 130 130 128 128 128 132 132 132 133 133 133 135 135 135 135 135 135 125 125 125 119 119 119 123 123 123 123 123 123 118 118 118 124 124 124 128 128 128 124 124 124 122 122 122 120 120 120 121 121 121 122 122 122 120 120 120 127 127 127 130 130 130 118 118 118 118 118 118 131 131 131 134 134 134 129 129 129 129 129 129 129 129 129 128 128 128 134 134 134 141 141 141 142 142 142 136 136 136 127 127 127 132 132 132 144 144 144 146 146 146 138 138 138 129 129 129 124 124 124 119 119 119 121 121 121 125 125 125 124 124 124 122 122 122 116 116 116 113 113 113 120 120 120 127 127 127 125 125 125 129 129 129 133 133 133 128 128 128 124 124 124 127 127 127 128 128 128 130 130 130 132 132 132 135 135 135 139 139 139 132 132 132 122 122 122 128 128 128 133 133 133 125 125 125 118 118 118 121 121 121 127 127 127 134 134 134 135 135 135 124 124 124 111 111 111 110 110 110 118 118 118 123 123 123 128 128 128 127 127 127 121 121 121 139 139 139 177 177 177 195 195 195 195 195 195 198 198 198 200 200 200 200 200 200 205 205 205 209 209 209 211 211 211 215 215 215 210 210 210 201 201 201 201 201 201 197 197 197 187 187 187 185 185 185 185 185 185 190 190 190 201 201 201 200 200 200 193 193 193 198 198 198 200 200 200 196 196 196 197 197 197 200 200 200 201 201 201 198 198 198 196 196 196 195 195 195 193 193 193 192 192 192 188 188 188 181 181 181 188 188 188 201 201 201 202 202 202 198 198 198 200 200 200 204 204 204 203 203 203 195 195 195 195 195 195 201 201 201 201 201 201 199 199 199 199 199 199 196 196 196 198 198 198 209 209 209 211 211 211 207 207 207 204 204 204 198 198 198 193 193 193 198 198 198 203 203 203 204 204 204 201 201 201 192 192 192 166 166 166 129 129 129 114 114 114 116 116 116 117 117 117 118 118 118 126 126 126 136 136 136 133 133 133 126 126 126 129 129 129 129 129 129 127 127 127 126 126 126 124 124 124 129 129 129 133 133 133 132 132 132 130 130 130 0 0 0 
0 0 0 131 131 131 136 136 136 129 129 129 123 123 123 124 124 124 117 117 117 116 116 116 124 124 124 131 131 131 136 136 136 140 140 140 138 138 138 127 127 127 114 114 114 113 113 113 122 122 122 125 125 125 118 118 118 120 120 120 136 136 136 140 140 140 127 127 127 117 117 117 120 120 120 129 129 129 127 127 127 122 122 122 126 126 126 130 130 130 135 135 135 135 135 135 123 123 123 122 122 122 125 125 125 123 123 123 127 127 127 131 131 131 131 131 131 136 136 136 135 135 135 125 125 125 123 123 123 128 128 128 133 133 133 137 137 137 136 136 136 128 128 128 123 123 123 131 131 131 133 133 133 128 128 128 129 129 129 126 126 126 123 123 123 122 122 122 120 120 120 123 123 123 120 120 120 120 120 120 130 130 130 129 129 129 117 117 117 119 119 119 132 132 132 138 138 138 131 131 131 121 121 121 123 123 123 131 131 131 137 137 137 135 135 135 129 129 129 126 126 126 124 124 124 131 131 131 139 139 139 141 141 141 140 140 140 136 136 136 126 126 126 123 123 123 130 130 130 131 131 131 126 126 126 118 118 118 114 114 114 115 115 115 117 117 117 120 120 120 120 120 120 125 125 125 130 130 130 124 124 124 121 121 121 124 124 124 125 125 125 129 129 129 136 136 136 140 140 140 137 137 137 128 128 128 122 122 122 125 125 125 127 127 127 123 123 123 122 122 122 125 125 125 130 130 130 135 135 135 130 130 130 122 122 122 117 117 117 114 114 114 114 114 114 115 115 115 124 124 124 129 129 129 123 123 123 137 137 137 173 173 173 192 192 192 193 193 193 201 201 201 205 205 205 199 199 199 202 202 202 210 210 210 216 216 216 219 219 219 216 216 216 204 204 204 194 194 194 192 192 192 194 194 194 194 194 194 188 188 188 193 193 193 203 203 203 199 199 199 194 194 194 202 202 202 205 205 205 195 195 195 194 194 194 200 200 200 203 203 203 198 198 198 195 195 195 196 196 196 195 195 195 191 191 191 186 186 186 185 185 185 189 189 189 192 192 192 192 192 192 195 195 195 196 196 196 191 191 191 193 193 193 198 198 198 200 200 200 199 199 199 191 191 191 188 188 188 195 195 195 193 193 193 195 195 195 210 210 210 216 216 216 205 205 205 198 198 198 203 203 203 205 205 205 204 204 204 205 205 205 199 199 199 189 189 189 182 182 182 163 163 163 131 131 131 113 113 113 115 115 115 118 118 118 118 118 118 127 127 127 139 139 139 133 133 133 128 128 128 135 135 135 131 131 131 123 123 123 125 125 125 124 124 124 128 128 128 133 133 133 134 134 134 133 133 133 0 0 0 
0 0 0 132 132 132 136 136 136 130 130 130 124 124 124 120 120 120 113 113 113 118 118 118 131 131 131 130 130 130 128 128 128 132 132 132 131 131 131 121 121 121 109 109 109 111 111 111 124 124 124 129 129 129 128 128 128 127 127 127 134 134 134 136 136 136 124 124 124 115 115 115 123 123 123 137 137 137 135 135 135 126 126 126 126 126 126 126 126 126 128 128 128 130 130 130 120 120 120 114 114 114 121 121 121 128 128 128 130 130 130 126 126 126 123 123 123 131 131 131 133 133 133 124 124 124 121 121 121 127 127 127 135 135 135 133 133 133 130 130 130 128 128 128 128 128 128 135 135 135 133 133 133 127 127 127 129 129 129 127 127 127 124 124 124 121 121 121 117 117 117 116 116 116 119 119 119 128 128 128 135 135 135 132 132 132 123 123 123 120 120 120 127 127 127 136 136 136 133 133 133 119 119 119 120 120 120 136 136 136 142 142 142 131 131 131 123 123 123 129 129 129 131 131 131 123 123 123 121 121 121 126 126 126 136 136 136 133 133 133 119 119 119 123 123 123 137 137 137 136 136 136 126 126 126 122 122 122 125 125 125 128 128 128 123 123 123 118 118 118 117 117 117 119 119 119 127 127 127 132 132 132 128 128 128 124 124 124 122 122 122 126 126 126 135 135 135 134 134 134 128 128 128 128 128 128 127 127 127 125 125 125 123 123 123 123 123 123 129 129 129 128 128 128 126 126 126 130 130 130 123 123 123 119 119 119 123 123 123 118 118 118 115 115 115 121 121 121 132 132 132 137 137 137 134 134 134 146 146 146 179 179 179 197 197 197 189 189 189 193 193 193 202 202 202 198 198 198 202 202 202 208 208 208 208 208 208 210 210 210 208 208 208 195 195 195 185 185 185 190 190 190 201 201 201 199 199 199 193 193 193 202 202 202 207 207 207 201 201 201 199 199 199 203 203 203 204 204 204 194 194 194 191 191 191 201 201 201 208 208 208 204 204 204 196 196 196 197 197 197 201 201 201 198 198 198 195 195 195 203 203 203 208 208 208 197 197 197 190 190 190 195 195 195 191 191 191 181 181 181 183 183 183 192 192 192 196 196 196 192 192 192 187 187 187 191 191 191 197 197 197 194 194 194 195 195 195 210 210 210 215 215 215 201 201 201 195 195 195 205 205 205 212 212 212 209 209 209 206 206 206 203 203 203 196 196 196 189 189 189 175 175 175 148 148 148 123 123 123 121 121 121 126 126 126 128 128 128 138 138 138 144 144 144 131 131 131 122 122 122 126 126 126 124 124 124 119 119 119 123 123 123 125 125 125 123 123 123 127 127 127 134 134 134 137 137 137 0 0 0 
0 0 0 126 126 126 122 122 122 122 122 122 125 125 125 120 120 120 114 114 114 117 117 117 129 129 129 131 131 131 123 123 123 119 119 119 125 125 125 126 126 126 117 117 117 117 117 117 124 124 124 128 128 128 134 134 134 133 133 133 131 131 131 133 133 133 126 126 126 116 116 116 119 119 119 132 132 132 135 135 135 127 127 127 121 121 121 119 119 119 123 123 123 128 128 128 123 123 123 117 117 117 122 122 122 128 128 128 126 126 126 126 126 126 127 127 127 128 128 128 129 129 129 122 122 122 116 116 116 124 124 124 133 133 133 129 129 129 125 125 125 126 126 126 127 127 127 132 132 132 135 135 135 131 131 131 128 128 128 127 127 127 128 128 128 127 127 127 120 120 120 113 113 113 119 119 119 133 133 133 136 136 136 130 130 130 126 126 126 124 124 124 124 124 124 125 125 125 125 125 125 124 124 124 128 128 128 139 139 139 135 135 135 119 119 119 119 119 119 133 133 133 132 132 132 118 118 118 113 113 113 123 123 123 136 136 136 132 132 132 121 121 121 129 129 129 140 140 140 130 130 130 118 118 118 117 117 117 122 122 122 129 129 129 130 130 130 122 122 122 116 116 116 119 119 119 129 129 129 134 134 134 132 132 132 123 123 123 118 118 118 127 127 127 139 139 139 135 135 135 124 124 124 128 128 128 131 131 131 125 125 125 127 127 127 133 133 133 136 136 136 132 132 132 129 129 129 133 133 133 126 126 126 120 120 120 125 125 125 124 124 124 127 127 127 134 134 134 140 140 140 145 145 145 145 145 145 158 158 158 191 191 191 206 206 206 197 197 197 196 196 196 199 199 199 198 198 198 207 207 207 209 209 209 202 202 202 203 203 203 201 201 201 192 192 192 189 189 189 194 194 194 202 202 202 201 201 201 196 196 196 202 202 202 207 207 207 202 202 202 202 202 202 202 202 202 199 199 199 195 195 195 195 195 195 202 202 202 206 206 206 197 197 197 195 195 195 201 201 201 206 206 206 205 205 205 205 205 205 216 216 216 217 217 217 201 201 201 192 192 192 194 194 194 187 187 187 180 180 180 183 183 183 190 190 190 192 192 192 189 189 189 189 189 189 191 191 191 192 192 192 195 195 195 199 199 199 207 207 207 209 209 209 202 202 202 199 199 199 202 202 202 206 206 206 206 206 206 202 202 202 202 202 202 205 205 205 201 201 201 186 186 186 159 159 159 135 135 135 131 131 131 138 138 138 144 144 144 148 148 148 143 143 143 129 129 129 117 117 117 116 116 116 121 121 121 128 128 128 132 132 132 130 130 130 126 126 126 129 129 129 134 134 134 137 137 137 0 0 0 
0 0 0 127 127 127 117 117 117 120 120 120 130 130 130 132 132 132 124 124 124 114 114 114 117 117 117 127 127 127 125 125 125 118 118 118 125 125 125 128 128 128 126 126 126 126 126 126 123 123 123 124 124 124 130 130 130 137 137 137 137 137 137 135 135 135 131 131 131 123 123 123 118 118 118 122 122 122 130 130 130 127 127 127 122 122 122 120 120 120 122 122 122 130 130 130 132 132 132 127 127 127 127 127 127 124 124 124 121 121 121 128 128 128 131 131 131 126 126 126 124 124 124 120 120 120 117 117 117 123 123 123 130 130 130 128 128 128 126 126 126 130 130 130 133 133 133 133 133 133 140 140 140 139 139 139 130 130 130 124 124 124 124 124 124 128 128 128 127 127 127 119 119 119 121 121 121 129 129 129 132 132 132 128 128 128 126 126 126 126 126 126 120 120 120 117 117 117 123 123 123 127 127 127 131 131 131 134 134 134 125 125 125 113 113 113 117 117 117 128 128 128 129 129 129 124 124 124 121 121 121 132 132 132 142 142 142 138 138 138 134 134 134 136 136 136 132 132 132 119 119 119 111 111 111 109 109 109 116 116 116 130 130 130 132 132 132 125 125 125 121 121 121 125 125 125 130 130 130 127 127 127 128 128 128 124 124 124 123 123 123 133 133 133 140 140 140 138 138 138 129 129 129 127 127 127 128 128 128 123 123 123 128 128 128 135 135 135 136 136 136 137 137 137 135 135 135 135 135 135 134 134 134 129 129 129 126 126 126 127 127 127 135 135 135 140 140 140 140 140 140 144 144 144 144 144 144 155 155 155 182 182 182 192 192 192 187 187 187 188 188 188 188 188 188 188 188 188 193 193 193 192 192 192 186 186 186 187 187 187 184 184 184 180 180 180 179 179 179 177 177 177 184 184 184 184 184 184 174 174 174 174 174 174 179 179 179 179 179 179 176 176 176 174 174 174 181 181 181 186 186 186 185 185 185 188 188 188 188 188 188 179 179 179 178 178 178 182 182 182 187 187 187 190 190 190 189 189 189 192 192 192 193 193 193 186 186 186 181 181 181 183 183 183 177 177 177 171 171 171 174 174 174 177 177 177 178 178 178 179 179 179 177 177 177 170 170 170 167 167 167 175 175 175 183 183 183 184 184 184 184 184 184 189 189 189 193 193 193 192 192 192 190 190 190 190 190 190 184 184 184 183 183 183 189 189 189 185 185 185 170 170 170 150 150 150 133 133 133 131 131 131 140 140 140 145 145 145 140 140 140 130 130 130 125 125 125 125 125 125 123 123 123 125 125 125 133 133 133 135 135 135 135 135 135 137 137 137 136 136 136 133 133 133 131 131 131 0 0 0 
0 0 0 126 126 126 119 119 119 125 125 125 134 134 134 137 137 137 131 131 131 118 118 118 112 112 112 120 120 120 123 123 123 119 119 119 125 125 125 128 128 128 127 127 127 124 124 124 120 120 120 121 121 121 123 123 123 133 133 133 142 142 142 138 138 138 132 132 132 129 129 129 124 124 124 117 117 117 120 120 120 126 126 126 127 127 127 125 125 125 123 123 123 129 129 129 132 132 132 127 127 127 124 124 124 120 120 120 118 118 118 124 124 124 127 127 127 126 126 126 128 128 128 126 126 126 127 127 127 131 131 131 132 132 132 131 131 131 132 132 132 137 137 137 140 140 140 139 139 139 139 139 139 136 136 136 131 131 131 129 129 129 123 123 123 120 120 120 123 123 123 124 124 124 127 127 127 127 127 127 126 126 126 123 123 123 118 118 118 120 120 120 120 120 120 123 123 123 129 129 129 123 123 123 120 120 120 125 125 125 126 126 126 122 122 122 121 121 121 126 126 126 130 130 130 130 130 130 126 126 126 130 130 130 136 136 136 132 132 132 132 132 132 133 133 133 126 126 126 117 117 117 115 115 115 114 114 114 118 118 118 134 134 134 141 141 141 134 134 134 126 126 126 129 129 129 127 127 127 122 122 122 130 130 130 136 136 136 134 134 134 132 132 132 131 131 131 131 131 131 127 127 127 127 127 127 130 130 130 125 125 125 119 119 119 118 118 118 124 124 124 133 133 133 133 133 133 129 129 129 130 130 130 130 130 130 127 127 127 125 125 125 128 128 128 131 131 131 131 131 131 135 135 135 134 134 134 135 135 135 144 144 144 148 148 148 146 146 146 149 149 149 155 155 155 157 157 157 154 154 154 150 150 150 151 151 151 151 151 151 147 147 147 146 146 146 143 143 143 139 139 139 145 145 145 143 143 143 134 134 134 134 134 134 138 138 138 137 137 137 133 133 133 138 138 138 152 152 152 156 156 156 151 151 151 153 153 153 151 151 151 143 143 143 138 138 138 140 140 140 150 150 150 157 157 157 151 151 151 144 144 144 150 150 150 153 153 153 148 148 148 151 151 151 150 150 150 146 146 146 150 150 150 149 149 149 148 148 148 156 156 156 154 154 154 144 144 144 139 139 139 136 136 136 142 142 142 147 147 147 146 146 146 152 152 152 159 159 159 161 161 161 160 160 160 153 153 153 146 146 146 144 144 144 148 148 148 151 151 151 146 146 146 137 137 137 126 126 126 126 126 126 135 135 135 135 135 135 128 128 128 120 120 120 127 127 127 137 137 137 137 137 137 135 135 135 130 130 130 125 125 125 135 135 135 143 143 143 136 136 136 132 132 132 134 134 134 0 0 0 
0 0 0 120 120 120 125 125 125 129 129 129 129 129 129 136 136 136 138 138 138 130 130 130 127 127 127 126 126 126 121 121 121 117 117 117 123 123 123 131 131 131 128 128 128 116 116 116 117 117 117 125 125 125 121 121 121 124 124 124 135 135 135 130 130 130 124 124 124 130 130 130 128 128 128 121 121 121 123 123 123 126 126 126 127 127 127 127 127 127 125 125 125 126 126 126 127 127 127 123 123 123 121 121 121 122 122 122 120 120 120 121 121 121 122 122 122 129 129 129 135 135 135 135 135 135 138 138 138 136 136 136 129 129 129 131 131 131 136 136 136 134 134 134 132 132 132 137 137 137 135 135 135 125 125 125 130 130 130 140 140 140 136 136 136 124 124 124 119 119 119 125 125 125 131 131 131 130 130 130 124 124 124 114 114 114 106 106 106 113 113 113 122 122 122 128 128 128 131 131 131 123 123 123 118 118 118 123 123 123 129 129 129 131 131 131 131 131 131 132 132 132 128 128 128 125 125 125 121 121 121 118 118 118 121 121 121 120 120 120 122 122 122 129 129 129 130 130 130 128 128 128 131 131 131 127 127 127 122 122 122 130 130 130 144 144 144 141 141 141 129 129 129 126 126 126 124 124 124 125 125 125 131 131 131 134 134 134 130 130 130 125 125 125 123 123 123 122 122 122 121 121 121 125 125 125 129 129 129 125 125 125 115 115 115 112 112 112 119 119 119 128 128 128 129 129 129 128 128 128 128 128 128 128 128 128 127 127 127 124 124 124 118 118 118 115 115 115 120 120 120 128 128 128 130 130 130 126 126 126 123 123 123 125 125 125 124 124 124 124 124 124 130 130 130 137 137 137 135 135 135 129 129 129 127 127 127 125 125 125 121 121 121 124 124 124 126 126 126 120 120 120 119 119 119 122 122 122 123 123 123 127 127 127 127 127 127 123 123 123 122 122 122 130 130 130 136 136 136 133 133 133 134 134 134 138 138 138 133 133 133 123 123 123 120 120 120 124 124 124 130 130 130 132 132 132 126 126 126 120 120 120 129 129 129 137 137 137 134 134 134 134 134 134 132 132 132 130 130 130 135 135 135 134 134 134 132 132 132 138 138 138 138 138 138 132 132 132 126 126 126 116 116 116 118 118 118 131 131 131 134 134 134 131 131 131 130 130 130 131 131 131 130 130 130 126 126 126 127 127 127 124 124 124 123 123 123 132 132 132 137 137 137 130 130 130 119 119 119 121 121 121 134 134 134 140 140 140 136 136 136 130 130 130 136 136 136 141 141 141 141 141 141 140 140 140 129 129 129 120 120 120 129 129 129 140 140 140 136 136 136 133 133 133 136 136 136 0 0 0 
0 0 0 128 128 128 138 138 138 137 137 137 128 128 128 130 130 130 136 136 136 140 140 140 143 143 143 136 136 136 127 127 127 123 123 123 124 124 124 129 129 129 129 129 129 121 121 121 120 120 120 126 126 126 124 124 124 121 121 121 125 125 125 118 118 118 115 115 115 123 123 123 122 122 122 125 125 125 136 136 136 136 136 136 132 132 132 134 134 134 132 132 132 127 127 127 128 128 128 124 124 124 121 121 121 125 125 125 127 127 127 127 127 127 124 124 124 125 125 125 133 133 133 139 139 139 136 136 136 127 127 127 123 123 123 127 127 127 132 132 132 131 131 131 126 126 126 129 129 129 129 129 129 120 120 120 124 124 124 141 141 141 143 143 143 132 132 132 128 128 128 129 129 129 129 129 129 133 133 133 129 129 129 115 115 115 106 106 106 111 111 111 120 120 120 127 127 127 136 136 136 132 132 132 124 124 124 125 125 125 127 127 127 131 131 131 137 137 137 136 136 136 127 127 127 125 125 125 125 125 125 121 121 121 122 122 122 116 116 116 115 115 115 123 123 123 128 128 128 131 131 131 137 137 137 137 137 137 125 125 125 123 123 123 135 135 135 139 139 139 132 132 132 129 129 129 130 130 130 131 131 131 128 128 128 124 124 124 116 116 116 114 114 114 118 118 118 117 117 117 117 117 117 118 118 118 120 120 120 123 123 123 124 124 124 124 124 124 130 130 130 134 134 134 133 133 133 136 136 136 134 134 134 132 132 132 129 129 129 122 122 122 118 118 118 116 116 116 120 120 120 124 124 124 124 124 124 128 128 128 131 131 131 129 129 129 123 123 123 123 123 123 132 132 132 139 139 139 142 142 142 137 137 137 124 124 124 115 115 115 115 115 115 125 125 125 129 129 129 125 125 125 126 126 126 130 130 130 134 134 134 137 137 137 133 133 133 129 129 129 131 131 131 135 135 135 131 131 131 129 129 129 137 137 137 142 142 142 138 138 138 133 133 133 134 134 134 134 134 134 127 127 127 123 123 123 121 121 121 119 119 119 127 127 127 134 134 134 136 136 136 131 131 131 121 121 121 121 121 121 130 130 130 133 133 133 131 131 131 132 132 132 134 134 134 130 130 130 124 124 124 118 118 118 121 121 121 135 135 135 139 139 139 136 136 136 127 127 127 117 117 117 116 116 116 122 122 122 131 131 131 126 126 126 116 116 116 127 127 127 137 137 137 129 129 129 116 116 116 120 120 120 136 136 136 146 146 146 142 142 142 138 138 138 139 139 139 137 137 137 136 136 136 139 139 139 135 135 135 125 125 125 125 125 125 135 135 135 137 137 137 131 131 131 130 130 130 0 0 0 
0 0 0 138 138 138 144 144 144 143 143 143 132 132 132 121 121 121 126 126 126 136 136 136 136 136 136 128 128 128 125 125 125 123 123 123 122 122 122 125 125 125 128 128 128 132 132 132 129 129 129 123 123 123 123 123 123 122 122 122 122 122 122 121 121 121 119 119 119 115 115 115 112 112 112 121 121 121 134 134 134 137 137 137 137 137 137 137 137 137 130 130 130 126 126 126 133 133 133 132 132 132 127 127 127 130 130 130 134 134 134 134 134 134 132 132 132 128 128 128 129 129 129 130 130 130 124 124 124 120 120 120 120 120 120 121 121 121 128 128 128 134 134 134 129 129 129 129 129 129 129 129 129 124 124 124 123 123 123 133 133 133 139 139 139 135 135 135 135 135 135 131 131 131 126 126 126 130 130 130 134 134 134 129 129 129 118 118 118 117 117 117 122 122 122 126 126 126 136 136 136 137 137 137 130 130 130 129 129 129 126 126 126 124 124 124 128 128 128 131 131 131 128 128 128 133 133 133 137 137 137 130 130 130 125 125 125 116 116 116 112 112 112 123 123 123 132 132 132 131 131 131 133 133 133 137 137 137 128 128 128 123 123 123 130 130 130 131 131 131 130 130 130 133 133 133 132 132 132 128 128 128 124 124 124 120 120 120 116 116 116 117 117 117 123 123 123 124 124 124 124 124 124 122 122 122 124 124 124 133 133 133 138 138 138 137 137 137 136 136 136 133 133 133 128 128 128 130 130 130 130 130 130 130 130 130 127 127 127 122 122 122 123 123 123 127 127 127 125 125 125 117 117 117 115 115 115 124 124 124 129 129 129 126 126 126 123 123 123 127 127 127 135 135 135 138 138 138 143 143 143 140 140 140 125 125 125 116 116 116 117 117 117 126 126 126 131 131 131 130 130 130 129 129 129 128 128 128 129 129 129 131 131 131 130 130 130 131 131 131 131 131 131 131 131 131 131 131 131 131 131 131 137 137 137 139 139 139 135 135 135 134 134 134 140 140 140 138 138 138 124 124 124 119 119 119 122 122 122 120 120 120 120 120 120 127 127 127 131 131 131 121 121 121 110 110 110 114 114 114 126 126 126 131 131 131 129 129 129 126 126 126 130 130 130 131 131 131 127 127 127 124 124 124 127 127 127 131 131 131 132 132 132 138 138 138 130 130 130 117 117 117 116 116 116 121 121 121 128 128 128 124 124 124 113 113 113 123 123 123 135 135 135 130 130 130 124 124 124 127 127 127 137 137 137 143 143 143 135 135 135 131 131 131 134 134 134 133 133 133 130 130 130 129 129 129 134 134 134 131 131 131 128 128 128 129 129 129 128 128 128 128 128 128 130 130 130 0 0 0 
0 0 0 132 132 132 136 136 136 139 139 139 129 129 129 121 121 121 125 125 125 123 123 123 118 118 118 120 120 120 120 120 120 115 115 115 118 118 118 128 128 128 131 131 131 133 133 133 132 132 132 127 127 127 125 125 125 124 124 124 122 122 122 128 128 128 130 130 130 118 118 118 110 110 110 116 116 116 123 123 123 126 126 126 128 128 128 126 126 126 119 119 119 125 125 125 139 139 139 139 139 139 133 133 133 134 134 134 137 137 137 136 136 136 135 135 135 132 132 132 124 124 124 116 116 116 117 117 117 125 125 125 122 122 122 121 121 121 134 134 134 139 139 139 133 133 133 133 133 133 132 132 132 129 129 129 126 126 126 132 132 132 135 135 135 132 132 132 132 132 132 132 132 132 131 131 131 129 129 129 136 136 136 139 139 139 128 128 128 126 126 126 128 128 128 126 126 126 129 129 129 135 135 135 139 139 139 137 137 137 130 130 130 121 121 121 118 118 118 123 123 123 126 126 126 128 128 128 133 133 133 130 130 130 125 125 125 120 120 120 116 116 116 126 126 126 137 137 137 132 132 132 128 128 128 135 135 135 130 130 130 126 126 126 132 132 132 130 130 130 128 128 128 129 129 129 126 126 126 125 125 125 121 121 121 117 117 117 121 121 121 127 127 127 130 130 130 130 130 130 133 133 133 132 132 132 131 131 131 140 140 140 141 141 141 131 131 131 123 123 123 120 120 120 122 122 122 128 128 128 132 132 132 131 131 131 128 128 128 128 128 128 129 129 129 126 126 126 121 121 121 116 116 116 117 117 117 123 123 123 124 124 124 123 123 123 129 129 129 135 135 135 136 136 136 138 138 138 140 140 140 134 134 134 122 122 122 120 120 120 121 121 121 125 125 125 133 133 133 133 133 133 123 123 123 117 117 117 118 118 118 122 122 122 129 129 129 133 133 133 128 128 128 123 123 123 126 126 126 130 130 130 132 132 132 132 132 132 125 125 125 126 126 126 140 140 140 142 142 142 129 129 129 124 124 124 125 125 125 119 119 119 118 118 118 128 128 128 130 130 130 119 119 119 111 111 111 118 118 118 128 128 128 125 125 125 120 120 120 120 120 120 119 119 119 123 123 123 125 125 125 122 122 122 122 122 122 123 123 123 128 128 128 134 134 134 127 127 127 123 123 123 126 126 126 121 121 121 124 124 124 128 128 128 120 120 120 122 122 122 131 131 131 130 130 130 128 128 128 131 131 131 135 135 135 134 134 134 127 127 127 127 127 127 131 131 131 131 131 131 126 126 126 121 121 121 125 125 125 130 130 130 129 129 129 125 125 125 121 121 121 126 126 126 135 135 135 0 0 0 
0 0 0 121 121 121 129 129 129 134 134 134 129 129 129 127 127 127 132 132 132 122 122 122 117 117 117 126 126 126 122 122 122 114 114 114 118 118 118 127 127 127 133 133 133 129 129 129 126 126 126 130 130 130 129 129 129 123 123 123 119 119 119 128 128 128 136 136 136 129 129 129 120 120 120 118 118 118 123 123 123 126 126 126 129 129 129 127 127 127 120 120 120 125 125 125 133 133 133 133 133 133 132 132 132 135 135 135 138 138 138 133 133 133 131 131 131 128 128 128 120 120 120 114 114 114 120 120 120 131 131 131 126 126 126 122 122 122 132 132 132 136 136 136 137 137 137 135 135 135 128 128 128 125 125 125 125 125 125 126 126 126 124 124 124 121 121 121 125 125 125 135 135 135 140 140 140 131 131 131 133 133 133 137 137 137 128 128 128 127 127 127 132 132 132 129 129 129 129 129 129 136 136 136 139 139 139 132 132 132 126 126 126 121 121 121 120 120 120 126 126 126 128 128 128 122 122 122 125 125 125 130 130 130 133 133 133 131 131 131 122 122 122 123 123 123 126 126 126 121 121 121 122 122 122 131 131 131 127 127 127 124 124 124 132 132 132 132 132 132 128 128 128 126 126 126 126 126 126 126 126 126 119 119 119 117 117 117 121 121 121 125 125 125 127 127 127 126 126 126 130 130 130 133 133 133 131 131 131 135 135 135 133 133 133 121 121 121 112 112 112 112 112 112 120 120 120 129 129 129 136 136 136 139 139 139 137 137 137 135 135 135 133 133 133 125 125 125 121 121 121 121 121 121 122 122 122 126 126 126 127 127 127 124 124 124 129 129 129 134 134 134 138 138 138 140 140 140 136 136 136 128 128 128 118 118 118 120 120 120 126 126 126 129 129 129 134 134 134 131 131 131 123 123 123 121 121 121 120 120 120 123 123 123 129 129 129 133 133 133 130 130 130 123 123 123 122 122 122 125 125 125 125 125 125 120 120 120 119 119 119 126 126 126 137 137 137 141 141 141 135 135 135 133 133 133 129 129 129 122 122 122 121 121 121 129 129 129 131 131 131 126 126 126 122 122 122 126 126 126 131 131 131 121 121 121 118 118 118 123 123 123 121 121 121 121 121 121 121 121 121 115 115 115 118 118 118 127 127 127 132 132 132 132 132 132 123 123 123 123 123 123 130 130 130 125 125 125 124 124 124 130 130 130 128 128 128 124 124 124 125 125 125 125 125 125 122 122 122 125 125 125 128 128 128 125 125 125 118 118 118 125 125 125 132 132 132 129 129 129 129 129 129 128 128 128 124 124 124 123 123 123 128 128 128 129 129 129 125 125 125 126 126 126 133 133 133 0 0 0 
0 0 0 119 119 119 126 126 126 134 134 134 134 134 134 134 134 134 135 135 135 128 128 128 122 122 122 124 124 124 121 121 121 120 120 120 123 123 123 125 125 125 129 129 129 127 127 127 126 126 126 128 128 128 125 125 125 120 120 120 120 120 120 127 127 127 136 136 136 139 139 139 132 132 132 122 122 122 126 126 126 134 134 134 136 136 136 132 132 132 124 124 124 124 124 124 125 125 125 124 124 124 130 130 130 139 139 139 142 142 142 135 135 135 130 130 130 126 126 126 121 121 121 120 120 120 123 123 123 132 132 132 130 130 130 122 122 122 125 125 125 129 129 129 135 135 135 135 135 135 125 125 125 120 120 120 120 120 120 119 119 119 117 117 117 116 116 116 121 121 121 135 135 135 143 143 143 135 135 135 129 129 129 128 128 128 127 127 127 130 130 130 129 129 129 123 123 123 125 125 125 130 130 130 128 128 128 124 124 124 121 121 121 118 118 118 125 125 125 137 137 137 138 138 138 131 131 131 128 128 128 129 129 129 133 133 133 136 136 136 129 129 129 124 124 124 122 122 122 122 122 122 127 127 127 127 127 127 119 119 119 118 118 118 125 125 125 124 124 124 118 118 118 119 119 119 129 129 129 130 130 130 123 123 123 127 127 127 130 130 130 125 125 125 127 127 127 132 132 132 134 134 134 133 133 133 126 126 126 124 124 124 128 128 128 127 127 127 121 121 121 118 118 118 118 118 118 120 120 120 127 127 127 139 139 139 140 140 140 133 133 133 134 134 134 133 133 133 126 126 126 123 123 123 128 128 128 131 131 131 127 127 127 123 123 123 124 124 124 129 129 129 138 138 138 140 140 140 134 134 134 130 130 130 126 126 126 126 126 126 130 130 130 132 132 132 129 129 129 123 123 123 126 126 126 133 133 133 130 130 130 124 124 124 124 124 124 129 129 129 133 133 133 128 128 128 122 122 122 127 127 127 128 128 128 114 114 114 114 114 114 123 123 123 126 126 126 127 127 127 127 127 127 130 130 130 131 131 131 128 128 128 129 129 129 130 130 130 129 129 129 129 129 129 126 126 126 125 125 125 128 128 128 130 130 130 131 131 131 134 134 134 133 133 133 130 130 130 125 125 125 118 118 118 124 124 124 133 133 133 130 130 130 130 130 130 128 128 128 126 126 126 131 131 131 128 128 128 125 125 125 126 126 126 128 128 128 128 128 128 122 122 122 120 120 120 123 123 123 126 126 126 133 133 133 129 129 129 114 114 114 116 116 116 127 127 127 129 129 129 133 133 133 135 135 135 127 127 127 126 126 126 131 131 131 130 130 130 125 125 125 125 125 125 125 125 125 0 0 0 
0 0 0 125 125 125 126 126 126 132 132 132 135 135 135 134 134 134 133 133 133 129 129 129 126 126 126 122 122 122 119 119 119 121 121 121 128 128 128 131 131 131 124 124 124 122 122 122 129 129 129 127 127 127 123 123 123 125 125 125 125 125 125 125 125 125 133 133 133 140 140 140 132 132 132 123 123 123 132 132 132 138 138 138 128 128 128 119 119 119 119 119 119 130 130 130 132 132 132 127 127 127 132 132 132 140 140 140 141 141 141 134 134 134 128 128 128 125 125 125 122 122 122 124 124 124 128 128 128 131 131 131 128 128 128 125 125 125 130 130 130 130 130 130 125 125 125 125 125 125 128 128 128 123 123 123 120 120 120 123 123 123 126 126 126 125 125 125 126 126 126 134 134 134 144 144 144 143 143 143 134 134 134 128 128 128 131 131 131 131 131 131 124 124 124 117 117 117 119 119 119 124 124 124 124 124 124 128 128 128 126 126 126 120 120 120 129 129 129 142 142 142 142 142 142 134 134 134 125 125 125 122 122 122 125 125 125 131 131 131 129 129 129 123 123 123 123 123 123 130 130 130 134 134 134 129 129 129 120 120 120 118 118 118 122 122 122 119 119 119 111 111 111 113 113 113 124 124 124 130 130 130 130 130 130 132 132 132 135 135 135 129 129 129 129 129 129 136 136 136 138 138 138 132 132 132 121 121 121 117 117 117 125 125 125 130 130 130 128 128 128 128 128 128 126 126 126 123 123 123 124 124 124 135 135 135 138 138 138 128 128 128 130 130 130 133 133 133 127 127 127 128 128 128 140 140 140 141 141 141 131 131 131 124 124 124 120 120 120 123 123 123 132 132 132 134 134 134 137 137 137 139 139 139 140 140 140 135 135 135 130 130 130 129 129 129 126 126 126 129 129 129 138 138 138 143 143 143 135 135 135 124 124 124 121 121 121 123 123 123 129 129 129 126 126 126 119 119 119 128 128 128 131 131 131 116 116 116 112 112 112 119 119 119 120 120 120 121 121 121 122 122 122 120 120 120 123 123 123 131 131 131 136 136 136 132 132 132 123 123 123 123 123 123 122 122 122 118 118 118 128 128 128 140 140 140 139 139 139 134 134 134 135 135 135 131 131 131 124 124 124 121 121 121 129 129 129 136 136 136 131 131 131 130 130 130 131 131 131 128 128 128 128 128 128 128 128 128 124 124 124 121 121 121 124 124 124 125 125 125 120 120 120 123 123 123 129 129 129 131 131 131 139 139 139 135 135 135 117 117 117 116 116 116 127 127 127 131 131 131 134 134 134 136 136 136 133 133 133 134 134 134 132 132 132 122 122 122 123 123 123 132 132 132 127 127 127 0 0 0 
0 0 0 135 135 135 132 132 132 127 127 127 124 124 124 133 133 133 139 139 139 133 133 133 128 128 128 122 122 122 113 113 113 113 113 113 126 126 126 134 134 134 125 125 125 118 118 118 127 127 127 126 126 126 123 123 123 128 128 128 127 127 127 126 126 126 132 132 132 137 137 137 130 130 130 127 127 127 136 136 136 137 137 137 124 124 124 114 114 114 121 121 121 136 136 136 138 138 138 130 130 130 128 128 128 132 132 132 129 129 129 122 122 122 123 123 123 126 126 126 121 121 121 124 124 124 136 136 136 135 135 135 128 128 128 126 126 126 131 131 131 131 131 131 122 122 122 119 119 119 128 128 128 126 126 126 123 123 123 127 127 127 129 129 129 133 133 133 133 133 133 131 131 131 136 136 136 142 142 142 140 140 140 137 137 137 131 131 131 125 125 125 121 121 121 118 118 118 122 122 122 131 131 131 132 132 132 134 134 134 131 131 131 125 125 125 135 135 135 139 139 139 133 133 133 127 127 127 123 123 123 121 121 121 124 124 124 129 129 129 125 125 125 118 118 118 121 121 121 129 129 129 137 137 137 138 138 138 131 131 131 127 127 127 130 130 130 126 126 126 116 116 116 118 118 118 121 121 121 124 124 124 131 131 131 131 131 131 130 130 130 130 130 130 127 127 127 127 127 127 129 129 129 127 127 127 118 118 118 118 118 118 124 124 124 125 125 125 130 130 130 135 135 135 135 135 135 131 131 131 123 123 123 126 126 126 134 134 134 124 124 124 120 120 120 125 125 125 124 124 124 133 133 133 145 145 145 144 144 144 132 132 132 122 122 122 119 119 119 122 122 122 124 124 124 123 123 123 133 133 133 145 145 145 145 145 145 133 133 133 127 127 127 129 129 129 131 131 131 138 138 138 147 147 147 147 147 147 139 139 139 130 130 130 125 125 125 120 120 120 120 120 120 121 121 121 123 123 123 131 131 131 134 134 134 125 125 125 118 118 118 120 120 120 127 127 127 135 135 135 133 133 133 120 120 120 120 120 120 129 129 129 134 134 134 131 131 131 121 121 121 121 121 121 124 124 124 121 121 121 131 131 131 143 143 143 137 137 137 132 132 132 135 135 135 131 131 131 121 121 121 121 121 121 127 127 127 134 134 134 134 134 134 131 131 131 133 133 133 127 127 127 120 120 120 125 125 125 128 128 128 123 123 123 118 118 118 117 117 117 120 120 120 128 128 128 129 129 129 128 128 128 139 139 139 136 136 136 121 121 121 125 125 125 134 134 134 133 133 133 135 135 135 136 136 136 135 135 135 135 135 135 129 129 129 120 120 120 122 122 122 135 135 135 132 132 132 0 0 0 
0 0 0 136 136 136 134 134 134 126 126 126 120 120 120 131 131 131 139 139 139 130 130 130 120 120 120 116 116 116 112 112 112 117 117 117 125 125 125 126 126 126 121 121 121 117 117 117 120 120 120 123 123 123 123 123 123 124 124 124 126 126 126 131 131 131 136 136 136 137 137 137 131 131 131 127 127 127 130 130 130 135 135 135 131 131 131 124 124 124 131 131 131 136 136 136 133 133 133 130 130 130 127 127 127 126 126 126 123 123 123 116 116 116 118 118 118 124 124 124 120 120 120 122 122 122 136 136 136 141 141 141 133 133 133 124 124 124 120 120 120 126 126 126 126 126 126 120 120 120 123 123 123 125 125 125 124 124 124 125 125 125 124 124 124 129 129 129 132 132 132 127 127 127 121 121 121 129 129 129 143 143 143 144 144 144 130 130 130 123 123 123 124 124 124 122 122 122 126 126 126 132 132 132 131 131 131 133 133 133 134 134 134 132 132 132 132 132 132 128 128 128 126 126 126 130 130 130 131 131 131 130 130 130 129 129 129 127 127 127 123 123 123 122 122 122 125 125 125 132 132 132 138 138 138 142 142 142 138 138 138 132 132 132 130 130 130 125 125 125 119 119 119 124 124 124 126 126 126 126 126 126 135 135 135 135 135 135 125 125 125 124 124 124 126 126 126 125 125 125 126 126 126 124 124 124 114 114 114 116 116 116 126 126 126 126 126 126 131 131 131 133 133 133 128 128 128 125 125 125 118 118 118 118 118 118 125 125 125 121 121 121 119 119 119 124 124 124 128 128 128 134 134 134 138 138 138 131 131 131 121 121 121 118 118 118 121 121 121 124 124 124 125 125 125 122 122 122 133 133 133 145 145 145 141 141 141 131 131 131 128 128 128 133 133 133 137 137 137 139 139 139 142 142 142 143 143 143 141 141 141 134 134 134 130 130 130 127 127 127 122 122 122 122 122 122 130 130 130 138 138 138 138 138 138 129 129 129 120 120 120 116 116 116 125 125 125 142 142 142 139 139 139 123 123 123 118 118 118 119 119 119 121 121 121 127 127 127 125 125 125 122 122 122 123 123 123 121 121 121 127 127 127 136 136 136 138 138 138 137 137 137 137 137 137 131 131 131 124 124 124 125 125 125 126 126 126 126 126 126 125 125 125 124 124 124 128 128 128 128 128 128 121 121 121 125 125 125 135 135 135 133 133 133 125 125 125 121 121 121 126 126 126 131 131 131 130 130 130 129 129 129 138 138 138 139 139 139 129 129 129 132 132 132 135 135 135 133 133 133 138 138 138 135 135 135 131 131 131 131 131 131 127 127 127 126 126 126 130 130 130 131 131 131 127 127 127 0 0 0 
0 0 0 121 121 121 124 124 124 125 125 125 126 126 126 129 129 129 126 126 126 118 118 118 117 117 117 122 122 122 125 125 125 127 127 127 126 126 126 120 120 120 118 118 118 114 114 114 113 113 113 124 124 124 135 135 135 132 132 132 130 130 130 138 138 138 140 140 140 135 135 135 127 127 127 118 118 118 119 119 119 130 130 130 129 129 129 122 122 122 130 130 130 133 133 133 132 132 132 134 134 134 131 131 131 127 127 127 125 125 125 119 119 119 116 116 116 119 119 119 121 121 121 121 121 121 127 127 127 136 136 136 134 134 134 122 122 122 119 119 119 127 127 127 126 126 126 119 119 119 126 126 126 134 134 134 130 130 130 124 124 124 119 119 119 119 119 119 126 126 126 125 125 125 115 115 115 117 117 117 137 137 137 144 144 144 135 135 135 131 131 131 132 132 132 131 131 131 131 131 131 130 130 130 127 127 127 127 127 127 130 130 130 130 130 130 122 122 122 119 119 119 127 127 127 132 132 132 132 132 132 131 131 131 125 125 125 119 119 119 123 123 123 128 128 128 127 127 127 126 126 126 129 129 129 134 134 134 134 134 134 128 128 128 125 125 125 122 122 122 119 119 119 123 123 123 132 132 132 135 135 135 138 138 138 133 133 133 120 120 120 116 116 116 118 118 118 124 124 124 132 132 132 128 128 128 115 115 115 115 115 115 124 124 124 124 124 124 124 124 124 120 120 120 115 115 115 119 119 119 121 121 121 119 119 119 116 116 116 118 118 118 123 123 123 130 130 130 136 136 136 138 138 138 135 135 135 126 126 126 118 118 118 120 120 120 123 123 123 123 123 123 125 125 125 128 128 128 137 137 137 144 144 144 143 143 143 139 139 139 134 134 134 133 133 133 133 133 133 134 134 134 136 136 136 137 137 137 134 134 134 130 130 130 134 134 134 139 139 139 130 130 130 121 121 121 128 128 128 138 138 138 134 134 134 124 124 124 117 117 117 116 116 116 123 123 123 132 132 132 131 131 131 122 122 122 115 115 115 109 109 109 111 111 111 120 120 120 121 121 121 117 117 117 118 118 118 119 119 119 122 122 122 129 129 129 136 136 136 139 139 139 132 132 132 123 123 123 119 119 119 122 122 122 122 122 122 119 119 119 121 121 121 124 124 124 124 124 124 126 126 126 124 124 124 124 124 124 130 130 130 137 137 137 136 136 136 130 130 130 128 128 128 126 126 126 126 126 126 128 128 128 132 132 132 137 137 137 136 136 136 134 134 134 135 135 135 139 139 139 141 141 141 133 133 133 126 126 126 125 125 125 124 124 124 128 128 128 136 136 136 131 131 131 122 122 122 0 0 0 
0 0 0 113 113 113 113 113 113 120 120 120 131 131 131 132 132 132 124 124 124 119 119 119 124 124 124 131 131 131 131 131 131 130 130 130 131 131 131 131 131 131 128 128 128 117 117 117 113 113 113 129 129 129 143 143 143 140 140 140 134 134 134 139 139 139 139 139 139 130 130 130 125 125 125 120 120 120 120 120 120 126 126 126 120 120 120 111 111 111 115 115 115 120 120 120 124 124 124 127 127 127 124 124 124 121 121 121 122 122 122 122 122 122 118 118 118 115 115 115 118 118 118 118 118 118 118 118 118 126 126 126 129 129 129 123 123 123 127 127 127 134 134 134 125 125 125 121 121 121 133 133 133 140 140 140 132 132 132 122 122 122 116 116 116 119 119 119 127 127 127 128 128 128 122 122 122 116 116 116 124 124 124 137 137 137 136 136 136 133 133 133 134 134 134 134 134 134 135 135 135 136 136 136 132 132 132 121 121 121 117 117 117 120 120 120 120 120 120 124 124 124 127 127 127 122 122 122 120 120 120 120 120 120 122 122 122 125 125 125 129 129 129 131 131 131 127 127 127 123 123 123 127 127 127 132 132 132 131 131 131 130 130 130 133 133 133 131 131 131 124 124 124 123 123 123 129 129 129 134 134 134 129 129 129 121 121 121 121 121 121 122 122 122 115 115 115 119 119 119 128 128 128 129 129 129 124 124 124 121 121 121 122 122 122 121 121 121 120 120 120 119 119 119 118 118 118 123 123 123 129 129 129 127 127 127 120 120 120 118 118 118 124 124 124 131 131 131 135 135 135 136 136 136 135 135 135 130 130 130 128 128 128 132 132 132 134 134 134 127 127 127 119 119 119 124 124 124 136 136 136 140 140 140 138 138 138 135 135 135 132 132 132 127 127 127 122 122 122 125 125 125 133 133 133 132 132 132 126 126 126 122 122 122 129 129 129 136 136 136 133 133 133 127 127 127 129 129 129 133 133 133 130 130 130 122 122 122 118 118 118 122 122 122 127 127 127 125 125 125 125 125 125 128 128 128 122 122 122 113 113 113 113 113 113 119 119 119 118 118 118 114 114 114 120 120 120 126 126 126 127 127 127 129 129 129 134 134 134 141 141 141 135 135 135 121 121 121 117 117 117 119 119 119 120 120 120 122 122 122 132 132 132 133 133 133 125 125 125 122 122 122 120 120 120 121 121 121 126 126 126 135 135 135 139 139 139 133 133 133 126 126 126 119 119 119 116 116 116 118 118 118 125 125 125 133 133 133 133 133 133 128 128 128 128 128 128 134 134 134 135 135 135 127 127 127 121 121 121 116 116 116 116 116 116 121 121 121 129 129 129 132 132 132 129 129 129 0 0 0 
0 0 0 118 118 118 113 113 113 118 118 118 130 130 130 129 129 129 124 124 124 124 124 124 130 130 130 133 133 133 131 131 131 133 133 133 137 137 137 136 136 136 132 132 132 120 120 120 115 115 115 126 126 126 133 133 133 132 132 132 130 130 130 133 133 133 136 136 136 130 130 130 129 129 129 132 132 132 132 132 132 131 131 131 125 125 125 115 115 115 108 108 108 110 110 110 118 118 118 120 120 120 120 120 120 121 121 121 123 123 123 129 129 129 127 127 127 118 118 118 116 116 116 116 116 116 117 117 117 123 123 123 130 130 130 129 129 129 135 135 135 141 141 141 132 132 132 125 125 125 129 129 129 134 134 134 128 128 128 116 116 116 116 116 116 123 123 123 125 125 125 129 129 129 135 135 135 131 131 131 125 125 125 128 128 128 129 129 129 131 131 131 132 132 132 131 131 131 133 133 133 136 136 136 133 133 133 122 122 122 117 117 117 118 118 118 123 123 123 130 130 130 126 126 126 117 117 117 116 116 116 122 122 122 131 131 131 133 133 133 129 129 129 127 127 127 130 130 130 130 130 130 132 132 132 138 138 138 138 138 138 137 137 137 140 140 140 135 135 135 130 130 130 131 131 131 128 128 128 125 125 125 121 121 121 119 119 119 129 129 129 131 131 131 121 121 121 119 119 119 125 125 125 134 134 134 137 137 137 133 133 133 129 129 129 128 128 128 131 131 131 134 134 134 131 131 131 132 132 132 133 133 133 129 129 129 128 128 128 128 128 128 132 132 132 132 132 132 128 128 128 128 128 128 124 124 124 123 123 123 132 132 132 138 138 138 138 138 138 134 134 134 125 125 125 124 124 124 134 134 134 134 134 134 124 124 124 124 124 124 130 130 130 130 130 130 128 128 128 129 129 129 133 133 133 129 129 129 126 126 126 121 121 121 117 117 117 123 123 123 130 130 130 131 131 131 129 129 129 127 127 127 125 125 125 123 123 123 122 122 122 123 123 123 128 128 128 130 130 130 130 130 130 133 133 133 129 129 129 123 123 123 121 121 121 123 123 123 124 124 124 121 121 121 123 123 123 129 129 129 130 130 130 130 130 130 137 137 137 142 142 142 136 136 136 127 127 127 126 126 126 129 129 129 126 126 126 125 125 125 133 133 133 133 133 133 125 125 125 124 124 124 126 126 126 127 127 127 128 128 128 132 132 132 139 139 139 137 137 137 124 124 124 116 116 116 116 116 116 116 116 116 120 120 120 127 127 127 127 127 127 125 125 125 118 118 118 117 117 117 120 120 120 121 121 121 124 124 124 123 123 123 122 122 122 127 127 127 131 131 131 136 136 136 140 140 140 0 0 0 
0 0 0 130 130 130 125 125 125 125 125 125 127 127 127 124 124 124 125 125 125 132 132 132 133 133 133 133 133 133 134 134 134 134 134 134 134 134 134 131 131 131 130 130 130 123 123 123 120 120 120 123 123 123 121 121 121 126 126 126 132 132 132 134 134 134 135 135 135 133 133 133 129 129 129 130 130 130 136 136 136 137 137 137 132 132 132 126 126 126 118 118 118 117 117 117 123 123 123 124 124 124 129 129 129 133 133 133 128 128 128 132 132 132 135 135 135 127 127 127 123 123 123 123 123 123 123 123 123 126 126 126 131 131 131 134 134 134 137 137 137 143 143 143 141 141 141 131 131 131 126 126 126 130 130 130 126 126 126 112 112 112 111 111 111 118 118 118 118 118 118 123 123 123 135 135 135 142 142 142 138 138 138 127 127 127 121 121 121 126 126 126 131 131 131 130 130 130 133 133 133 133 133 133 124 124 124 119 119 119 121 121 121 124 124 124 127 127 127 129 129 129 128 128 128 127 127 127 128 128 128 134 134 134 136 136 136 127 127 127 120 120 120 120 120 120 131 131 131 131 131 131 125 125 125 130 130 130 133 133 133 135 135 135 138 138 138 131 131 131 128 128 128 135 135 135 131 131 131 125 125 125 126 126 126 128 128 128 129 129 129 125 125 125 118 118 118 119 119 119 127 127 127 139 139 139 147 147 147 143 143 143 134 134 134 135 135 135 143 143 143 142 142 142 135 135 135 137 137 137 138 138 138 132 132 132 135 135 135 139 139 139 136 136 136 128 128 128 123 123 123 124 124 124 121 121 121 127 127 127 139 139 139 137 137 137 131 131 131 132 132 132 132 132 132 130 130 130 132 132 132 130 130 130 123 123 123 130 130 130 140 140 140 139 139 139 135 135 135 138 138 138 136 136 136 126 126 126 127 127 127 129 129 129 122 122 122 120 120 120 125 125 125 127 127 127 122 122 122 121 121 121 127 127 127 127 127 127 126 126 126 127 127 127 132 132 132 140 140 140 138 138 138 132 132 132 131 131 131 130 130 130 129 129 129 131 131 131 137 137 137 135 135 135 127 127 127 130 130 130 134 134 134 133 133 133 134 134 134 135 135 135 129 129 129 128 128 128 138 138 138 141 141 141 132 132 132 122 122 122 123 123 123 126 126 126 126 126 126 129 129 129 135 135 135 133 133 133 126 126 126 127 127 127 134 134 134 135 135 135 125 125 125 119 119 119 125 125 125 126 126 126 119 119 119 116 116 116 123 123 123 129 129 129 121 121 121 113 113 113 113 113 113 117 117 117 127 127 127 136 136 136 140 140 140 141 141 141 138 138 138 140 140 140 143 143 143 0 0 0 
0 0 0 135 135 135 134 134 134 134 134 134 130 130 130 124 124 124 129 129 129 140 140 140 139 139 139 136 136 136 136 136 136 130 130 130 125 125 125 127 127 127 128 128 128 124 124 124 124 124 124 125 125 125 123 123 123 130 130 130 134 134 134 132 132 132 135 135 135 134 134 134 129 129 129 129 129 129 133 133 133 132 132 132 127 127 127 127 127 127 130 130 130 128 128 128 124 124 124 122 122 122 127 127 127 134 134 134 130 130 130 130 130 130 137 137 137 131 131 131 128 128 128 131 131 131 131 131 131 130 130 130 128 128 128 129 129 129 131 131 131 133 133 133 135 135 135 131 131 131 128 128 128 134 134 134 132 132 132 118 118 118 112 112 112 115 115 115 120 120 120 122 122 122 125 125 125 135 135 135 141 141 141 128 128 128 114 114 114 115 115 115 123 123 123 125 125 125 127 127 127 126 126 126 117 117 117 114 114 114 123 123 123 130 130 130 133 133 133 134 134 134 134 134 134 134 134 134 132 132 132 134 134 134 133 133 133 125 125 125 119 119 119 119 119 119 132 132 132 135 135 135 121 121 121 117 117 117 123 123 123 130 130 130 131 131 131 126 126 126 128 128 128 134 134 134 130 130 130 129 129 129 130 130 130 127 127 127 124 124 124 118 118 118 114 114 114 118 118 118 124 124 124 129 129 129 137 137 137 139 139 139 133 133 133 135 135 135 142 142 142 138 138 138 131 131 131 133 133 133 136 136 136 134 134 134 137 137 137 138 138 138 127 127 127 116 116 116 117 117 117 124 124 124 131 131 131 141 141 141 145 145 145 138 138 138 128 128 128 121 121 121 121 121 121 124 124 124 125 125 125 126 126 126 130 130 130 138 138 138 143 143 143 139 139 139 133 133 133 138 138 138 139 139 139 127 127 127 124 124 124 131 131 131 131 131 131 124 124 124 126 126 126 129 129 129 120 120 120 117 117 117 125 125 125 124 124 124 125 125 125 130 130 130 133 133 133 141 141 141 140 140 140 132 132 132 129 129 129 126 126 126 123 123 123 128 128 128 138 138 138 136 136 136 123 123 123 123 123 123 133 133 133 136 136 136 130 130 130 127 127 127 124 124 124 124 124 124 135 135 135 144 144 144 140 140 140 128 128 128 119 119 119 124 124 124 134 134 134 135 135 135 133 133 133 128 128 128 125 125 125 131 131 131 131 131 131 127 127 127 126 126 126 126 126 126 133 133 133 136 136 136 125 125 125 113 113 113 118 118 118 129 129 129 131 131 131 123 123 123 114 114 114 114 114 114 124 124 124 137 137 137 142 142 142 138 138 138 134 134 134 135 135 135 132 132 132 0 0 0 
0 0 0 129 129 129 132 132 132 135 135 135 126 126 126 118 118 118 128 128 128 142 142 142 145 145 145 140 140 140 135 135 135 128 128 128 124 124 124 126 126 126 126 126 126 122 122 122 124 124 124 129 129 129 133 133 133 136 136 136 133 133 133 131 131 131 139 139 139 138 138 138 133 133 133 134 134 134 133 133 133 132 132 132 131 131 131 128 128 128 129 129 129 132 132 132 129 129 129 122 122 122 121 121 121 128 128 128 129 129 129 130 130 130 136 136 136 133 133 133 129 129 129 130 130 130 131 131 131 130 130 130 125 125 125 127 127 127 126 126 126 118 118 118 121 121 121 128 128 128 128 128 128 131 131 131 132 132 132 124 124 124 119 119 119 119 119 119 124 124 124 126 126 126 121 121 121 124 124 124 130 130 130 122 122 122 114 114 114 117 117 117 122 122 122 121 121 121 118 118 118 121 121 121 121 121 121 120 120 120 130 130 130 134 134 134 131 131 131 134 134 134 134 134 134 129 129 129 126 126 126 129 129 129 132 132 132 132 132 132 130 130 130 126 126 126 129 129 129 134 134 134 130 130 130 125 125 125 127 127 127 128 128 128 127 127 127 128 128 128 134 134 134 138 138 138 135 135 135 133 133 133 129 129 129 127 127 127 131 131 131 124 124 124 117 117 117 125 125 125 129 129 129 124 124 124 124 124 124 129 129 129 132 132 132 131 131 131 131 131 131 131 131 131 129 129 129 125 125 125 125 125 125 132 132 132 135 135 135 131 131 131 121 121 121 116 116 116 121 121 121 128 128 128 136 136 136 141 141 141 137 137 137 136 136 136 134 134 134 119 119 119 111 111 111 116 116 116 120 120 120 123 123 123 129 129 129 133 133 133 136 136 136 138 138 138 138 138 138 137 137 137 136 136 136 131 131 131 126 126 126 129 129 129 131 131 131 127 127 127 127 127 127 129 129 129 124 124 124 116 116 116 115 115 115 114 114 114 120 120 120 128 128 128 131 131 131 138 138 138 140 140 140 131 131 131 124 124 124 123 123 123 119 119 119 120 120 120 132 132 132 131 131 131 116 116 116 115 115 115 130 130 130 137 137 137 130 130 130 125 125 125 124 124 124 121 121 121 126 126 126 138 138 138 139 139 139 127 127 127 120 120 120 128 128 128 138 138 138 137 137 137 128 128 128 122 122 122 128 128 128 137 137 137 131 131 131 121 121 121 121 121 121 128 128 128 136 136 136 137 137 137 128 128 128 121 121 121 123 123 123 126 126 126 130 130 130 128 128 128 117 117 117 117 117 117 130 130 130 136 136 136 128 128 128 120 120 120 122 122 122 127 127 127 123 123 123 0 0 0 
0 0 0 124 124 124 127 127 127 130 130 130 118 118 118 117 117 117 132 132 132 142 142 142 138 138 138 129 129 129 121 121 121 125 125 125 130 130 130 131 131 131 132 132 132 125 125 125 122 122 122 132 132 132 139 139 139 140 140 140 136 136 136 134 134 134 135 135 135 131 131 131 127 127 127 128 128 128 132 132 132 138 138 138 139 139 139 129 129 129 123 123 123 132 132 132 137 137 137 130 130 130 127 127 127 132 132 132 132 132 132 133 133 133 137 137 137 136 136 136 135 135 135 132 132 132 135 135 135 135 135 135 128 128 128 128 128 128 125 125 125 119 119 119 121 121 121 126 126 126 122 122 122 120 120 120 125 125 125 125 125 125 124 124 124 125 125 125 129 129 129 129 129 129 121 121 121 123 123 123 127 127 127 125 125 125 124 124 124 126 126 126 129 129 129 124 124 124 117 117 117 120 120 120 126 126 126 131 131 131 136 136 136 134 134 134 128 128 128 130 130 130 128 128 128 122 122 122 123 123 123 130 130 130 130 130 130 129 129 129 132 132 132 129 129 129 122 122 122 126 126 126 134 134 134 134 134 134 132 132 132 130 130 130 129 129 129 130 130 130 130 130 130 134 134 134 139 139 139 138 138 138 134 134 134 134 134 134 136 136 136 128 128 128 123 123 123 132 132 132 135 135 135 128 128 128 124 124 124 125 125 125 124 124 124 121 121 121 124 124 124 128 128 128 128 128 128 124 124 124 123 123 123 129 129 129 134 134 134 130 130 130 121 121 121 122 122 122 130 130 130 134 134 134 137 137 137 133 133 133 126 126 126 129 129 129 133 133 133 120 120 120 114 114 114 124 124 124 127 127 127 127 127 127 125 125 125 123 123 123 128 128 128 137 137 137 140 140 140 132 132 132 132 132 132 133 133 133 130 130 130 133 133 133 138 138 138 134 134 134 123 123 123 119 119 119 121 121 121 117 117 117 114 114 114 115 115 115 121 121 121 125 125 125 130 130 130 135 135 135 136 136 136 129 129 129 127 127 127 135 135 135 133 133 133 129 129 129 136 136 136 133 133 133 117 117 117 115 115 115 129 129 129 134 134 134 130 130 130 131 131 131 128 128 128 123 123 123 125 125 125 131 131 131 130 130 130 121 121 121 123 123 123 134 134 134 133 133 133 129 129 129 128 128 128 124 124 124 125 125 125 130 130 130 130 130 130 124 124 124 119 119 119 124 124 124 130 130 130 130 130 130 128 128 128 129 129 129 133 133 133 129 129 129 124 124 124 123 123 123 125 125 125 130 130 130 138 138 138 136 136 136 123 123 123 116 116 116 121 121 121 129 129 129 131 131 131 0 0 0 
0 0 0 120 120 120 122 122 122 126 126 126 122 122 122 124 124 124 135 135 135 139 139 139 131 131 131 123 123 123 117 117 117 123 123 123 135 135 135 135 135 135 135 135 135 129 129 129 122 122 122 129 129 129 135 135 135 134 134 134 133 133 133 125 125 125 119 119 119 121 121 121 122 122 122 123 123 123 126 126 126 131 131 131 132 132 132 122 122 122 120 120 120 129 129 129 135 135 135 131 131 131 128 128 128 134 134 134 132 132 132 133 133 133 138 138 138 140 140 140 140 140 140 136 136 136 137 137 137 137 137 137 133 133 133 129 129 129 127 127 127 132 132 132 131 131 131 127 127 127 124 124 124 123 123 123 130 130 130 136 136 136 135 135 135 136 136 136 138 138 138 133 133 133 125 125 125 129 129 129 137 137 137 138 138 138 132 132 132 126 126 126 127 127 127 126 126 126 122 122 122 121 121 121 128 128 128 137 137 137 134 134 134 126 126 126 127 127 127 129 129 129 125 125 125 122 122 122 124 124 124 129 129 129 128 128 128 125 125 125 125 125 125 121 121 121 116 116 116 121 121 121 126 126 126 125 125 125 127 127 127 127 127 127 125 125 125 125 125 125 121 121 121 123 123 123 136 136 136 138 138 138 131 131 131 129 129 129 130 130 130 130 130 130 131 131 131 131 131 131 128 128 128 123 123 123 118 118 118 117 117 117 114 114 114 117 117 117 124 124 124 126 126 126 126 126 126 129 129 129 128 128 128 125 125 125 131 131 131 133 133 133 123 123 123 123 123 123 131 131 131 134 134 134 134 134 134 129 129 129 121 121 121 122 122 122 126 126 126 119 119 119 118 118 118 130 130 130 133 133 133 129 129 129 125 125 125 122 122 122 122 122 122 127 127 127 129 129 129 128 128 128 133 133 133 132 132 132 129 129 129 133 133 133 138 138 138 136 136 136 121 121 121 109 109 109 112 112 112 116 116 116 118 118 118 123 123 123 128 128 128 126 126 126 127 127 127 129 129 129 129 129 129 129 129 129 132 132 132 140 140 140 144 144 144 142 142 142 140 140 140 131 131 131 117 117 117 111 111 111 118 118 118 127 127 127 131 131 131 133 133 133 129 129 129 125 125 125 126 126 126 128 128 128 129 129 129 122 122 122 122 122 122 130 130 130 127 127 127 122 122 122 127 127 127 130 130 130 123 123 123 121 121 121 129 129 129 129 129 129 123 123 123 120 120 120 120 120 120 124 124 124 129 129 129 130 130 130 131 131 131 131 131 131 123 123 123 121 121 121 130 130 130 138 138 138 137 137 137 131 131 131 129 129 129 128 128 128 126 126 126 132 132 132 137 137 137 0 0 0 
0 0 0 0 0 0 0 0 0 0 0 0 0 0 0 0 0 0 0 0 0 0 0 0 0 0 0 0 0 0 0 0 0 0 0 0 0 0 0 0 0 0 0 0 0 0 0 0 0 0 0 0 0 0 0 0 0 0 0 0 0 0 0 0 0 0 0 0 0 0 0 0 0 0 0 0 0 0 0 0 0 0 0 0 0 0 0 0 0 0 0 0 0 0 0 0 0 0 0 0 0 0 0 0 0 0 0 0 0 0 0 0 0 0 0 0 0 0 0 0 0 0 0 0 0 0 0 0 0 0 0 0 0 0 0 0 0 0 0 0 0 0 0 0 0 0 0 0 0 0 0 0 0 0 0 0 0 0 0 0 0 0 0 0 0 0 0 0 0 0 0 0 0 0 0 0 0 0 0 0 0 0 0 0 0 0 0 0 0 0 0 0 0 0 0 0 0 0 0 0 0 0 0 0 0 0 0 0 0 0 0 0 0 0 0 0 0 0 0 0 0 0 0 0 0 0 0 0 0 0 0 0 0 0 0 0 0 0 0 0 0 0 0 0 0 0 0 0 0 0 0 0 0 0 0 0 0 0 0 0 0 0 0 0 0 0 0 0 0 0 0 0 0 0 0 0 0 0 0 0 0 0 0 0 0 0 0 0 0 0 0 0 0 0 0 0 0 0 0 0 0 0 0 0 0 0 0 0 0 0 0 0 0 0 0 0 0 0 0 0 0 0 0 0 0 0 0 0 0 0 0 0 0 0 0 0 0 0 0 0 0 0 0 0 0 0 0 0 0 0 0 0 0 0 0 0 0 0 0 0 0 0 0 0 0 0 0 0 0 0 0 0 0 0 0 0 0 0 0 0 0 0 0 0 0 0 0 0 0 0 0 0 0 0 0 0 0 0 0 0 0 0 0 0 0 0 0 0 0 0 0 0 0 0 0 0 0 0 0 0 0 0 0 0 0 0 0 0 0 0 0 0 0 0 0 0 0 0 0 0 0 0 0 0 0 0 0 0 0 0 0 0 0 0 0 0 0 0 0 0 0 0 0 0 0 0 0 0 0 0 0 0 0 0 0 0 0 0 0 0 0 0 0 0 0 0 0 0 0 0 0 0 0 0 0 0 0 0 0 0 0 0 0 0 0 0 0 0 0 0 0 0 0 0 0 0 0 0 0 0 0 0 0 0 0 0 0 0 0 0 0 0 0 0 0 0 0 0 0 0 0 0 0 0 0 0 0 0 0 0 0 0 0 0 0 0 0 0 0 0 0 0 0 0 0 0 0 0 0 0 0 0 0 0 0 0 0 0 0 0 0 0 0 0 0 0 0 0 0 0 0 0 0 0 0 0 0 0 0 0 
